; generated by PrusaSlicer 2.9.4 on 2026-06-01 at 16:48:21 UTC


;
;
; 

; external perimeters extrusion width = 0.45mm
; perimeters extrusion width = 0.45mm
; infill extrusion width = 0.45mm
; solid infill extrusion width = 0.45mm
; top infill extrusion width = 0.40mm
; first layer extrusion width = 0.42mm

; external perimeters extrusion width = 0.45mm
; perimeters extrusion width = 0.45mm
; infill extrusion width = 0.45mm
; solid infill extrusion width = 0.45mm
; top infill extrusion width = 0.40mm
; first layer extrusion width = 0.42mm

M73 P0 R15
M73 Q0 S15
M201 X1000 Y1000 Z200 E5000 ; sets maximum accelerations, mm/sec^2
M203 X200 Y200 Z12 E120 ; sets maximum feedrates, mm / sec
M204 S1250 T1250 ; sets acceleration (S) and retract acceleration (R), mm/sec^2
M205 X8.00 Y8.00 Z0.40 E4.50 ; sets the jerk limits, mm/sec
M205 S0 T0 ; sets the minimum extruding and travel feed rate, mm/sec

; printing object MiniKey.stl id:1 copy 0
; stop printing object MiniKey.stl id:1 copy 0
; printing object MiniKey_Key.stl id:0 copy 0
; stop printing object MiniKey_Key.stl id:0 copy 0

;TYPE:Custom
M862.3 P "MK3S" ; printer model check
M862.1 P0.4 ; nozzle diameter check
M115 U3.14.1 ; tell printer latest fw version
G90 ; use absolute coordinates
M83 ; extruder relative mode
M104 S250 ; set extruder temp
M140 S85 ; set bed temp
M190 S85 ; wait for bed temp
M109 S250 ; wait for extruder temp
G28 W ; home all without mesh bed level
G80 X105.375 Y93.5414 W43.815 H52.4881 ; mesh bed levelling

G1 Z0.2 F720
G1 Y-3 F1000 ; go outside print area
G92 E0
G1 X60 E9 F1000 ; intro line
G1 X100 E12.5 F1000 ; intro line

G92 E0
M221 S95

; Don't change E values below. Excessive value can damage the printer.
M907 E430 ; set extruder motor current
G21 ; set units to millimeters
G90 ; use absolute coordinates
M83 ; use relative distances for extrusion

M900 K0.08 ; Filament gcode LA 1.5
M900 K45 ; Filament gcode LA 1.0




M107
;LAYER_CHANGE
;Z:0.2
;HEIGHT:0.2
G1 E-1 F2100
G1 Z.4 F720
G1 X106.69 Y95.541 F10800
G1 Z.2 F720
G1 E1 F2100
M204 S800
;TYPE:Skirt/Brim
;WIDTH:0.42
G1 F1200
G1 X107.182 Y95.117 E.02036
G1 X107.737 Y94.779 E.02037
G1 X108.341 Y94.537 E.0204
G1 X108.975 Y94.398 E.02035
G1 X141.687 Y93.73 E1.02588
G1 X142.943 Y94.096 E.04102
G1 X143.844 Y95.352 E.04847
G1 X144.418 Y97.565 E.07168
G1 X148.969 Y132.282 E1.09784
M73 Q1 S15
G1 X148.986 Y133.824 E.04835
M73 P1 R15
G1 X147.802 Y138.454 E.14984
G1 X147.4 Y139.328 E.03016
G1 X146.648 Y140.453 E.04243
G1 X143.613 Y143.487 E.13455
G1 X142.828 Y144.043 E.03016
G1 X141.614 Y144.641 E.04243
G1 X137.469 Y145.752 E.13455
G1 X136.984 Y145.825 E.01538
G1 X135.646 Y145.825 E.04195
G1 X131.016 Y144.641 E.14984
G1 X129.802 Y144.043 E.04243
G1 X129.017 Y143.487 E.03016
G1 X125.982 Y140.453 E.13455
G1 X125.468 Y139.737 E.02764
G1 X109.755 Y114.125 E.94213
G1 X109.454 Y113.351 E.02604
G1 X105.694 Y99.318 E.45552
G1 X105.568 Y98.497 E.02604
G1 X105.589 Y97.847 E.02039
G1 X105.716 Y97.21 E.02037
G1 X105.947 Y96.602 E.02039
G1 X106.274 Y96.041 E.02036
G1 X106.652 Y95.587 E.01852
M204 S1000
;WIPE_START
G1 F8640
G1 X106.69 Y95.541 E-.01378
G1 X107.182 Y95.117 E-.14997
G1 X107.737 Y94.779 E-.15005
G1 X108.341 Y94.537 E-.15024
G1 X108.975 Y94.398 E-.14987
G1 X110.647 Y94.364 E-.38609
;WIPE_END
G1 Z.4 F720
; printing object MiniKey_Key.stl id:0 copy 0
G1 X113.128 Y105.858 F10800
G1 Z.2 F720
G1 E1 F2100
M204 S800
;TYPE:External perimeter
;WIDTH:0.4
G1 F1200
G1 X114.751 Y111.916 E.18621
;WIDTH:0.41942
G1 X114.792 Y112.438 E.01639
G1 X114.676 Y112.931 E.01586
;WIDTH:0.415954
G1 X114.407 Y113.361 E.01573
;WIDTH:0.410156
G1 X114.013 Y113.682 E.01552
;WIDTH:0.402016
G1 X113.534 Y113.856 E.01522
;WIDTH:0.406384
G1 X113.025 Y113.859 E.01538
;WIDTH:0.413346
G1 X112.544 Y113.697 E.01563
;WIDTH:0.417976
G1 X112.141 Y113.39 E.0158
;WIDTH:0.421388
G1 X111.855 Y112.962 E.0162
G1 X111.759 Y112.725 E.00805
;WIDTH:0.399998
G1 X108.005 Y98.715 E.43065
;WIDTH:0.404416
G1 X107.956 Y98.184 E.01603
;WIDTH:0.4188
G1 X107.999 Y97.949 E.00747
G1 X108.197 Y97.473 E.01611
;WIDTH:0.413356
G1 X108.533 Y97.093 E.01562
;WIDTH:0.406378
G1 X108.975 Y96.841 E.01538
;WIDTH:0.400852
G1 X109.476 Y96.751 E.01515
;WIDTH:0.417042
G1 X109.978 Y96.836 E.01584
G1 X110.428 Y97.069 E.01576
;WIDTH:0.411826
G1 X110.78 Y97.435 E.01558
;WIDTH:0.404264
G1 X110.997 Y97.904 E.01553
;WIDTH:0.4
G1 X112.62 Y103.961 E.18618
;WIDTH:0.402704
G1 X112.629 Y103.991 E.00094
M204 S1000
;WIPE_START
G1 F8640
G1 X112.62 Y103.961 E-.00723
G1 X111.507 Y99.808 E-.99277
;WIPE_END
G1 Z.4 F720
G1 X113.392 Y105.044 F10800
G1 Z.2 F720
G1 E1 F2100
M204 S800
;TYPE:Perimeter
;WIDTH:0.536442
G1 F1200
G1 X113.261 Y104.537 E.02149
G1 X113.878 Y104.412 E.02583
;WIDTH:0.491542
G1 X114.407 Y104.287 E.02028
;WIDTH:0.458867
G1 X114.904 Y104.145 E.01788
;WIDTH:0.444966
G1 X141.167 Y96.903 E.91075
;WIDTH:0.444372
G1 X141.27 Y97.29 E.01337
M73 P2 R15
M73 Q2 S15
G1 X141.078 Y97.343 E.00665
;WIDTH:0.444966
G1 X115.011 Y104.532 E.90396
;WIDTH:0.458867
G1 X114.515 Y104.688 E.01798
;WIDTH:0.500591
G1 X113.95 Y104.861 E.02249
;WIDTH:0.536442
G1 X113.407 Y105.104 E.02441
M204 S1000
G1 X113.128 Y105.858 F10800
M204 S800
;TYPE:External perimeter
;WIDTH:0.419999
G1 F1200
G1 X112.875 Y104.748 E.0357
G1 X112.629 Y103.991 E.02496
;WIDTH:0.414181
G1 X112.793 Y104.101 E.0061
;WIDTH:0.419999
G1 X113.321 Y104.102 E.01656
G1 X114.34 Y103.896 E.0326
G1 X141.441 Y96.423 E.88144
G1 X141.747 Y97.563 E.03701
G1 X115.114 Y104.908 E.86623
G1 X114.157 Y105.225 E.03161
G1 X113.703 Y105.457 E.01599
G1 X113.234 Y105.637 E.01575
;WIDTH:0.417658
G1 X113.154 Y105.804 E.00577
M204 S1000
;WIPE_START
G1 F8640
G1 X113.128 Y105.858 E-.01384
G1 X112.875 Y104.748 E-.26288
G1 X112.629 Y103.991 E-.18379
G1 X112.793 Y104.101 E-.0456
G1 X113.321 Y104.102 E-.12192
G1 X114.34 Y103.896 E-.24005
G1 X114.891 Y103.744 E-.13192
;WIPE_END
G1 Z.4 F720
; stop printing object MiniKey_Key.stl id:0 copy 0
; printing object MiniKey.stl id:1 copy 0
G1 X135.403 Y131.364 F10800
G1 Z.2 F720
G1 E1 F2100
M204 S800
;TYPE:Perimeter
;WIDTH:0.419999
G1 F1200
G1 X135.603 Y131.25 E.00722
G1 X136.227 Y131.124 E.01996
G1 X136.858 Y131.196 E.01991
G1 X137.435 Y131.458 E.01987
G1 X137.906 Y131.889 E.02002
G1 X138.219 Y132.443 E.01995
G1 X138.34 Y133.03 E.01879
G1 X138.346 Y133.243 E.00668
G1 X138.263 Y133.75 E.01611
G1 X137.985 Y134.32 E.01988
G1 X137.58 Y134.745 E.01841
G1 X137.027 Y135.058 E.01992
G1 X136.439 Y135.179 E.01882
G1 X136.191 Y135.179 E.00778
G1 X135.608 Y135.061 E.01865
G1 X135.15 Y134.825 E.01615
G1 X134.724 Y134.42 E.01843
G1 X134.411 Y133.866 E.01995
G1 X134.284 Y133.243 E.01994
G1 X134.356 Y132.611 E.01994
G1 X134.619 Y132.035 E.01985
G1 X135.05 Y131.563 E.02004
G1 X135.35 Y131.393 E.01081
M204 S1000
G1 X135.571 Y131.694 F10800
M204 S800
;TYPE:External perimeter
G1 F1200
G1 X135.775 Y131.586 E.00724
G1 X136.286 Y131.496 E.01627
G1 X136.799 Y131.568 E.01624
G1 X137.263 Y131.794 E.01618
G1 X137.639 Y132.156 E.01636
G1 X137.883 Y132.614 E.01627
G1 X137.973 Y133.125 E.01627
G1 X137.901 Y133.639 E.01627
G1 X137.639 Y134.153 E.01809
G1 X137.28 Y134.505 E.01576
G1 X136.817 Y134.737 E.01624
G1 X136.315 Y134.815 E.01593
G1 X135.813 Y134.737 E.01593
G1 X135.364 Y134.513 E.01573
G1 X134.991 Y134.153 E.01625
G1 X134.747 Y133.695 E.01627
G1 X134.657 Y133.184 E.01627
G1 X134.729 Y132.67 E.01627
G1 X134.955 Y132.206 E.01618
G1 X135.316 Y131.83 E.01634
G1 X135.518 Y131.723 E.00717
M204 S1000
;WIPE_START
G1 F8640
G1 X135.571 Y131.694 E-.01395
G1 X135.775 Y131.586 E-.0533
G1 X136.286 Y131.496 E-.11981
G1 X136.799 Y131.568 E-.11961
G1 X137.263 Y131.794 E-.11917
G1 X137.639 Y132.156 E-.12052
G1 X137.883 Y132.614 E-.11982
G1 X137.973 Y133.125 E-.11981
G1 X137.901 Y133.639 E-.11984
G1 X137.716 Y134.002 E-.09417
;WIPE_END
G1 Z.4 F720
G1 X143.465 Y132.807 F10800
G1 Z.2 F720
G1 E1 F2100
M204 S800
;TYPE:Perimeter
;WIDTH:0.462229
G1 F1200
G1 X143.692 Y132.864 E.00816
;WIDTH:0.504458
G1 X143.935 Y132.925 E.00961
G1 X144.09 Y132.918 E.00595
;WIDTH:0.493193
G1 X144.501 Y132.843 E.01564
;WIDTH:0.456596
G1 X144.913 Y132.768 E.0144
;WIDTH:0.419999
G1 X145.447 Y132.827 E.01685
G1 X146.015 Y133.04 E.01902
G1 X146.024 Y133.243 E.00637
G1 X145.634 Y133.422 E.01345
G1 X145.261 Y133.527 E.01215
G1 X144.916 Y133.533 E.01082
;WIDTH:0.460836
G1 X144.488 Y133.458 E.0151
;WIDTH:0.501672
G1 X144.06 Y133.383 E.01657
G1 X143.829 Y133.422 E.00894
;WIDTH:0.466336
G1 X143.597 Y133.461 E.00828
;WIDTH:0.430999
G1 X143.338 Y133.567 E.00903
;WIDTH:0.419999
G1 X142.915 Y133.902 E.01692
G1 X142.687 Y134.353 E.01585
G1 X142.393 Y135.518 E.03767
G1 X142.465 Y136.02 E.0159
G1 X142.582 Y136.275 E.0088
;WIDTH:0.460963
G1 X142.785 Y136.51 E.01079
;WIDTH:0.501926
G1 X142.988 Y136.746 E.01188
G1 X143.179 Y136.823 E.00786
;WIDTH:0.492858
G1 X143.577 Y136.974 E.01593
;WIDTH:0.456429
G1 X143.975 Y137.126 E.01465
;WIDTH:0.419999
G1 X144.215 Y137.283 E.00899
G1 X144.489 Y137.546 E.01191
G1 X144.762 Y137.925 E.01465
G1 X144.665 Y138.094 E.00611
G1 X144.444 Y138.079 E.00695
G1 X143.931 Y137.961 E.0165
G1 X143.58 Y137.797 E.01215
;WIDTH:0.460963
G1 X143.189 Y137.48 E.0175
;WIDTH:0.501926
G1 X142.799 Y137.164 E.01916
G1 X142.517 Y137.092 E.01111
;WIDTH:0.460963
G1 X142.234 Y137.02 E.01015
;WIDTH:0.419999
G1 X141.766 Y137.067 E.01475
G1 X141.43 Y137.218 E.01155
G1 X141.056 Y137.569 E.01608
G1 X140.397 Y138.241 E.02951
G1 X140.208 Y138.71 E.01585
G1 X140.182 Y138.99 E.00882
;WIDTH:0.460963
G1 X140.24 Y139.296 E.01083
;WIDTH:0.501926
G1 X140.298 Y139.601 E.01185
G1 X140.41 Y139.748 E.00705
;WIDTH:0.497629
G1 X140.687 Y140.086 E.01652
;WIDTH:0.458814
G1 X140.964 Y140.425 E.01514
;WIDTH:0.419999
G1 X141.055 Y140.599 E.00616
G1 X141.198 Y141.044 E.01466
G1 X141.246 Y141.509 E.01466
G1 X141.085 Y141.602 E.00583
G1 X140.756 Y141.368 E.01266
G1 X140.427 Y141.023 E.01495
G1 X140.309 Y140.806 E.00774
;WIDTH:0.463982
G1 X140.146 Y140.382 E.0159
;WIDTH:0.507965
G1 X139.984 Y139.958 E.01755
G1 X139.837 Y139.786 E.00875
;WIDTH:0.469305
G1 X139.69 Y139.614 E.00802
;WIDTH:0.430645
G1 X139.469 Y139.442 E.00903
;WIDTH:0.419999
G1 X138.959 Y139.243 E.01716
G1 X138.589 Y139.248 E.0116
G1 X137.563 Y139.512 E.03322
G1 X137.147 Y139.704 E.01437
G1 X136.935 Y139.884 E.00872
G1 X136.666 Y140.287 E.01519
;WIDTH:0.462229
G1 X136.605 Y140.531 E.00877
;WIDTH:0.504458
G1 X136.544 Y140.774 E.00961
G1 X136.551 Y140.929 E.00595
;WIDTH:0.493194
G1 X136.626 Y141.34 E.01564
;WIDTH:0.456597
G1 X136.701 Y141.752 E.0144
;WIDTH:0.419999
G1 X136.642 Y142.286 E.01685
G1 X136.429 Y142.854 E.01902
G1 X136.226 Y142.864 E.00637
G1 X136.047 Y142.473 E.01348
G1 X135.942 Y142.1 E.01215
G1 X135.937 Y141.756 E.01079
;WIDTH:0.460836
G1 X136.012 Y141.328 E.0151
;WIDTH:0.501673
G1 X136.086 Y140.9 E.01657
G1 X136.047 Y140.668 E.00897
;WIDTH:0.466336
G1 X136.008 Y140.436 E.00828
;WIDTH:0.430999
G1 X135.903 Y140.177 E.00902
;WIDTH:0.419999
G1 X135.567 Y139.754 E.01694
G1 X135.109 Y139.524 E.01607
M73 Q3 S15
G1 X133.951 Y139.233 E.03744
G1 X133.45 Y139.304 E.01587
G1 X133.194 Y139.421 E.00883
;WIDTH:0.460963
G1 X132.959 Y139.624 E.01079
;WIDTH:0.501926
G1 X132.724 Y139.827 E.01185
G1 X132.646 Y140.019 E.00791
;WIDTH:0.492859
G1 X132.495 Y140.417 E.01593
;WIDTH:0.456429
G1 X132.344 Y140.815 E.01464
;WIDTH:0.419999
G1 X132.186 Y141.055 E.00901
G1 X131.923 Y141.328 E.01189
G1 X131.545 Y141.602 E.01464
G1 X131.376 Y141.504 E.00613
G1 X131.39 Y141.283 E.00694
G1 X131.508 Y140.77 E.0165
G1 X131.673 Y140.419 E.01216
;WIDTH:0.460963
G1 X131.989 Y140.029 E.01745
;WIDTH:0.501926
G1 X132.305 Y139.638 E.01919
M73 P3 R15
G1 X132.377 Y139.356 E.01111
;WIDTH:0.460963
G1 X132.449 Y139.073 E.01015
;WIDTH:0.419999
G1 X132.403 Y138.605 E.01474
G1 X132.251 Y138.269 E.01156
G1 X131.9 Y137.895 E.01608
G1 X131.229 Y137.237 E.02947
G1 X130.759 Y137.048 E.01588
G1 X130.479 Y137.022 E.00882
;WIDTH:0.460962
G1 X130.174 Y137.079 E.01079
;WIDTH:0.501925
G1 X129.868 Y137.137 E.01189
G1 X129.721 Y137.25 E.00708
;WIDTH:0.497628
G1 X129.383 Y137.526 E.0165
;WIDTH:0.458814
G1 X129.045 Y137.803 E.01511
;WIDTH:0.419999
G1 X128.87 Y137.894 E.00618
G1 X128.425 Y138.037 E.01466
G1 X127.96 Y138.085 E.01466
G1 X127.868 Y137.925 E.00579
G1 X128.101 Y137.596 E.01264
G1 X128.446 Y137.266 E.01497
G1 X128.663 Y137.148 E.00774
;WIDTH:0.463981
G1 X129.087 Y136.986 E.01589
;WIDTH:0.507963
G1 X129.512 Y136.824 E.01759
G1 X129.683 Y136.676 E.00874
;WIDTH:0.469304
G1 X129.855 Y136.529 E.00802
;WIDTH:0.430645
G1 X130.027 Y136.308 E.00903
;WIDTH:0.419999
G1 X130.226 Y135.799 E.01714
G1 X130.222 Y135.428 E.01163
G1 X129.943 Y134.353 E.03482
G1 X129.715 Y133.902 E.01585
G1 X129.292 Y133.567 E.01692
;WIDTH:0.425062
G1 X129.033 Y133.464 E.00886
;WIDTH:0.46429
G1 X128.786 Y133.425 E.00876
;WIDTH:0.503517
G1 X128.54 Y133.385 E.00955
G1 X128.128 Y133.463 E.01606
;WIDTH:0.461758
G1 X127.717 Y133.54 E.01456
;WIDTH:0.419999
G1 X127.183 Y133.481 E.01685
G1 X126.615 Y133.268 E.01902
G1 X126.606 Y133.066 E.00634
G1 X126.996 Y132.887 E.01345
G1 X127.369 Y132.782 E.01215
G1 X127.714 Y132.776 E.01082
;WIDTH:0.461758
G1 X128.126 Y132.849 E.01457
;WIDTH:0.503517
G1 X128.538 Y132.923 E.01603
G1 X128.785 Y132.884 E.00958
;WIDTH:0.464294
G1 X129.033 Y132.844 E.0088
;WIDTH:0.42507
G1 X129.292 Y132.742 E.00885
;WIDTH:0.419999
G1 X129.715 Y132.406 E.01694
G1 X129.945 Y131.949 E.01604
G1 X130.236 Y130.791 E.03744
G1 X130.165 Y130.289 E.0159
G1 X130.048 Y130.034 E.0088
;WIDTH:0.463968
G1 X129.881 Y129.817 E.00959
;WIDTH:0.507936
G1 X129.715 Y129.6 E.01056
;WIDTH:0.515302
G1 X129.455 Y129.475 E.01133
G1 X129.055 Y129.329 E.01673
;WIDTH:0.467651
G1 X128.655 Y129.183 E.01504
;WIDTH:0.419999
G1 X128.415 Y129.026 E.00899
G1 X128.141 Y128.763 E.01191
G1 X127.868 Y128.384 E.01465
G1 X127.965 Y128.215 E.00611
G1 X128.186 Y128.23 E.00695
G1 X128.699 Y128.348 E.0165
G1 X129.05 Y128.512 E.01215
;WIDTH:0.467651
G1 X129.372 Y128.792 E.01507
;WIDTH:0.515302
G1 X129.693 Y129.071 E.01671
G1 X129.933 Y129.192 E.01056
;WIDTH:0.507936
G1 X130.165 Y129.24 E.00916
;WIDTH:0.463968
G1 X130.396 Y129.288 E.00826
;WIDTH:0.419999
G1 X130.865 Y129.242 E.01478
G1 X131.2 Y129.09 E.01153
G1 X131.574 Y128.739 E.01608
G1 X132.233 Y128.068 E.02949
G1 X132.422 Y127.598 E.01588
G1 X132.448 Y127.318 E.00882
;WIDTH:0.463967
G1 X132.412 Y127.047 E.00957
;WIDTH:0.507935
G1 X132.376 Y126.776 E.01057
;WIDTH:0.512688
G1 X132.226 Y126.556 E.0104
G1 X131.946 Y126.22 E.01708
;WIDTH:0.466344
G1 X131.666 Y125.884 E.0154
;WIDTH:0.419999
G1 X131.575 Y125.709 E.00618
G1 X131.432 Y125.265 E.01463
G1 X131.385 Y124.799 E.01469
G1 X131.545 Y124.707 E.00579
G1 X131.874 Y124.94 E.01264
G1 X132.203 Y125.286 E.01497
G1 X132.321 Y125.503 E.00774
;WIDTH:0.466344
G1 X132.475 Y125.912 E.01539
;WIDTH:0.512688
G1 X132.629 Y126.321 E.01707
G1 X132.78 Y126.512 E.00951
;WIDTH:0.484421
G1 X132.93 Y126.702 E.00889
;WIDTH:0.456153
G1 X133.161 Y126.866 E.00973
;WIDTH:0.419999
G1 X133.671 Y127.065 E.01716
G1 X134.041 Y127.061 E.0116
G1 X135.116 Y126.782 E.03482
G1 X135.567 Y126.554 E.01585
G1 X135.903 Y126.132 E.01691
;WIDTH:0.425062
G1 X136.005 Y125.872 E.00887
;WIDTH:0.46429
G1 X136.045 Y125.626 E.00873
;WIDTH:0.503517
G1 X136.084 Y125.379 E.00958
G1 X136.007 Y124.968 E.01601
;WIDTH:0.461758
G1 X135.929 Y124.557 E.01457
;WIDTH:0.419999
G1 X135.988 Y124.023 E.01685
G1 X136.201 Y123.455 E.01902
G1 X136.414 Y123.445 E.00669
G1 X136.516 Y123.652 E.00724
G1 X136.689 Y124.217 E.01853
G1 X136.693 Y124.553 E.01054
;WIDTH:0.461758
G1 X136.62 Y124.965 E.01457
;WIDTH:0.503517
G1 X136.546 Y125.377 E.01603
G1 X136.586 Y125.625 E.00962
;WIDTH:0.464294
G1 X136.625 Y125.872 E.00876
;WIDTH:0.42507
G1 X136.727 Y126.132 E.00887
;WIDTH:0.419999
G1 X137.063 Y126.554 E.01691
G1 X137.514 Y126.782 E.01585
G1 X138.679 Y127.076 E.03767
G1 X139.18 Y127.004 E.01587
G1 X139.436 Y126.887 E.00883
;WIDTH:0.463968
G1 X139.652 Y126.721 E.00954
;WIDTH:0.507936
G1 X139.869 Y126.554 E.01059
;WIDTH:0.515304
G1 X139.994 Y126.295 E.0113
G1 X140.14 Y125.894 E.01676
;WIDTH:0.467652
G1 X140.286 Y125.494 E.01504
;WIDTH:0.419999
G1 X140.444 Y125.254 E.00901
G1 X140.707 Y124.981 E.01189
G1 X141.085 Y124.707 E.01464
