; generated by PrusaSlicer 2.9.4 on 2026-06-01 at 16:58:19 UTC


;
;
; 

; external perimeters extrusion width = 0.45mm
; perimeters extrusion width = 0.45mm
; infill extrusion width = 0.45mm
; solid infill extrusion width = 0.45mm
; top infill extrusion width = 0.40mm
; first layer extrusion width = 0.42mm

M73 P0 R2
M73 Q0 S2
M201 X1000 Y1000 Z200 E5000 ; sets maximum accelerations, mm/sec^2
M203 X200 Y200 Z12 E120 ; sets maximum feedrates, mm / sec
M204 S1250 T1250 ; sets acceleration (S) and retract acceleration (R), mm/sec^2
M205 X8.00 Y8.00 Z0.40 E4.50 ; sets the jerk limits, mm/sec
M205 S0 T0 ; sets the minimum extruding and travel feed rate, mm/sec

; printing object Cap.stl id:0 copy 0
; stop printing object Cap.stl id:0 copy 0

;TYPE:Custom
M862.3 P "MK3S" ; printer model check
M862.1 P0.4 ; nozzle diameter check
M115 U3.14.1 ; tell printer latest fw version
G90 ; use absolute coordinates
M83 ; extruder relative mode
M104 S250 ; set extruder temp
M140 S85 ; set bed temp
M190 S85 ; wait for bed temp
M109 S250 ; wait for extruder temp
G28 W ; home all without mesh bed level
G80 X118.867 Y98.8673 W12.2654 H12.2654 ; mesh bed levelling

G1 Z0.2 F720
G1 Y-3 F1000 ; go outside print area
G92 E0
G1 X60 E9 F1000 ; intro line
G1 X100 E12.5 F1000 ; intro line
M73 P3 R2
M73 Q3 S2

G92 E0
M221 S95

; Don't change E values below. Excessive value can damage the printer.
M907 E430 ; set extruder motor current
G21 ; set units to millimeters
G90 ; use absolute coordinates
M83 ; use relative distances for extrusion

M900 K0.08 ; Filament gcode LA 1.5
M900 K45 ; Filament gcode LA 1.0




M107
;LAYER_CHANGE
;Z:0.2
;HEIGHT:0.2
G1 E-1 F2100
M73 P5 R1
M73 Q5 S1
G1 Z.4 F720
G1 X120.856 Y100.737 F10800
G1 Z.2 F720
G1 E1 F2100
M73 Q6 S1
M204 S800
;TYPE:Skirt/Brim
;WIDTH:0.42
G1 F900
G1 X121.766 Y100.011 E.0365
G1 X122.7 Y99.517 E.03313
G1 X123.977 Y99.143 E.04172
G1 X125.138 Y99.056 E.0365
M73 P6 R1
G1 X126.188 Y99.174 E.03313
G1 X127.3 Y99.517 E.03649
G1 X128.463 Y100.166 E.04176
G1 X129.263 Y100.856 E.03312
G1 X129.989 Y101.766 E.0365
G1 X130.483 Y102.7 E.03313
G1 X130.826 Y103.812 E.03649
G1 X130.944 Y105.138 E.04174
G1 X130.826 Y106.188 E.03313
G1 X130.483 Y107.3 E.03649
G1 X129.989 Y108.234 E.03313
G1 X129.144 Y109.263 E.04175
M73 Q7 S1
G1 X128.234 Y109.989 E.0365
G1 X127.043 Y110.584 E.04174
G1 X126.023 Y110.857 E.03311
G1 X124.862 Y110.944 E.0365
M73 P7 R1
G1 X123.812 Y110.826 E.03313
G1 X122.7 Y110.483 E.03649
G1 X121.766 Y109.989 E.03313
G1 X120.737 Y109.144 E.04175
G1 X120.011 Y108.234 E.0365
G1 X119.517 Y107.3 E.03313
G1 X119.174 Y106.188 E.03649
G1 X119.056 Y104.862 E.04174
G1 X119.174 Y103.812 E.03313
G1 X119.517 Y102.7 E.03649
G1 X120.011 Y101.766 E.03313
G1 X120.817 Y100.783 E.03986
M73 Q8 S1
M204 S1000
G1 X121.107 Y101.021 F10800
M204 S800
G1 F900
G1 X121.122 Y101.003 E.00073
G1 X121.966 Y100.33 E.03385
G1 X122.85 Y99.863 E.03135
G1 X123.882 Y99.545 E.03386
G1 X125.124 Y99.433 E.0391
M73 P8 R1
G1 X126.118 Y99.545 E.03136
G1 X127.15 Y99.863 E.03386
G1 X128.239 Y100.47 E.03909
G1 X128.997 Y101.122 E.03135
G1 X129.67 Y101.966 E.03385
G1 X130.137 Y102.85 E.03135
G1 X130.487 Y104.047 E.0391
G1 X130.567 Y105.124 E.03386
G1 X130.455 Y106.118 E.03136
G1 X130.07 Y107.304 E.0391
G1 X129.53 Y108.239 E.03385
G1 X128.878 Y108.997 E.03135
G1 X128.034 Y109.67 E.03385
M73 Q9 S1
G1 X127.15 Y110.137 E.03135
G1 X126.118 Y110.455 E.03386
G1 X124.876 Y110.567 E.0391
G1 X123.882 Y110.455 E.03136
M73 P9 R1
G1 X122.85 Y110.137 E.03386
G1 X121.966 Y109.67 E.03135
G1 X121.003 Y108.878 E.03909
G1 X120.33 Y108.034 E.03385
G1 X119.863 Y107.15 E.03135
G1 X119.513 Y105.953 E.0391
G1 X119.433 Y104.876 E.03386
G1 X119.545 Y103.882 E.03136
G1 X119.863 Y102.85 E.03386
G1 X120.33 Y101.966 E.03135
G1 X121.069 Y101.068 E.03646
M204 S1000
G1 X121.359 Y101.306 F10800
M204 S800
G1 F900
G1 X121.389 Y101.27 E.00147
G1 X122.167 Y100.649 E.03121
G1 X123.001 Y100.208 E.02958
M73 Q10 S1
G1 X124.118 Y99.884 E.03647
G1 X125.11 Y99.809 E.03119
G1 X126.048 Y99.915 E.0296
G1 X126.999 Y100.208 E.0312
M73 P10 R1
G1 X127.833 Y100.649 E.02958
G1 X128.73 Y101.389 E.03646
G1 X129.351 Y102.167 E.03121
G1 X129.792 Y103.001 E.02958
G1 X130.085 Y103.952 E.0312
G1 X130.191 Y105.11 E.03646
G1 X130.085 Y106.048 E.0296
G1 X129.724 Y107.153 E.03645
G1 X129.227 Y108.015 E.0312
G1 X128.611 Y108.73 E.02959
G1 X127.833 Y109.351 E.03121
G1 X126.999 Y109.792 E.02958
G1 X126.048 Y110.085 E.0312
G1 X124.89 Y110.191 E.03646
M73 Q11 S1
G1 X123.952 Y110.085 E.0296
G1 X123.001 Y109.792 E.0312
G1 X122.167 Y109.351 E.02958
G1 X121.27 Y108.611 E.03646
G1 X120.649 Y107.833 E.03121
M73 P11 R1
G1 X120.208 Y106.999 E.02958
G1 X119.915 Y106.048 E.0312
G1 X119.809 Y104.89 E.03646
G1 X119.915 Y103.952 E.0296
G1 X120.208 Y103.001 E.0312
G1 X120.649 Y102.167 E.02958
G1 X121.321 Y101.353 E.0331
M204 S1000
G1 X121.604 Y101.596 F10800
M204 S800
G1 F900
G1 X121.655 Y101.536 E.00247
G1 X122.368 Y100.969 E.02856
G1 X123.331 Y100.484 E.03381
G1 X124.188 Y100.254 E.02782
G1 X125.109 Y100.187 E.02895
G1 X126.165 Y100.328 E.0334
G1 X127.002 Y100.621 E.02781
M73 Q12 S1
G1 X127.791 Y101.077 E.02857
G1 X128.464 Y101.655 E.02782
G1 X129.031 Y102.368 E.02856
G1 X129.446 Y103.152 E.02781
G1 X129.746 Y104.188 E.03382
M73 P12 R1
G1 X129.814 Y105.096 E.02855
G1 X129.714 Y105.978 E.02783
G1 X129.441 Y106.86 E.02895
G1 X128.923 Y107.791 E.0334
G1 X128.345 Y108.464 E.02782
G1 X127.632 Y109.031 E.02856
G1 X126.669 Y109.516 E.03381
G1 X125.812 Y109.746 E.02782
G1 X124.904 Y109.814 E.02855
G1 X124.022 Y109.714 E.02783
G1 X123.14 Y109.441 E.02895
G1 X122.209 Y108.923 E.0334
G1 X121.536 Y108.345 E.02782
G1 X120.969 Y107.632 E.02856
G1 X120.554 Y106.848 E.02781
M73 Q13 S1
G1 X120.286 Y105.978 E.02854
G1 X120.186 Y104.904 E.03382
G1 X120.286 Y104.022 E.02783
G1 X120.559 Y103.14 E.02895
G1 X121.077 Y102.209 E.0334
M73 P13 R1
G1 X121.565 Y101.642 E.02346
M204 S1000
G1 X121.856 Y101.883 F10800
M204 S800
G1 F900
G1 X121.922 Y101.803 E.00325
G1 X122.568 Y101.288 E.0259
G1 X123.455 Y100.84 E.03116
G1 X124.258 Y100.625 E.02606
G1 X125.095 Y100.563 E.02632
G1 X126.067 Y100.692 E.03074
G1 X126.851 Y100.967 E.02605
G1 X127.567 Y101.38 E.02592
G1 X128.197 Y101.922 E.02606
G1 X128.712 Y102.568 E.0259
G1 X129.1 Y103.303 E.02606
G1 X129.344 Y104.092 E.02589
G1 X129.437 Y105.082 E.03118
G1 X129.344 Y105.908 E.02606
G1 X129.095 Y106.709 E.0263
G1 X128.62 Y107.567 E.03075
M73 Q14 S1
G1 X128.078 Y108.197 E.02606
G1 X127.432 Y108.712 E.0259
G1 X126.545 Y109.16 E.03116
G1 X125.742 Y109.375 E.02606
M73 P14 R1
G1 X124.918 Y109.437 E.02591
G1 X124.092 Y109.344 E.02606
G1 X123.29 Y109.095 E.02633
G1 X122.433 Y108.62 E.03072
G1 X121.803 Y108.078 E.02606
G1 X121.288 Y107.432 E.0259
G1 X120.9 Y106.697 E.02606
G1 X120.656 Y105.908 E.02589
G1 X120.563 Y104.918 E.03118
G1 X120.656 Y104.092 E.02606
G1 X120.9 Y103.303 E.02589
G1 X121.288 Y102.568 E.02606
G1 X121.817 Y101.929 E.02601
M204 S1000
;WIPE_START
G1 F8640
G1 X121.856 Y101.883 E-.01393
G1 X121.922 Y101.803 E-.02395
G1 X122.568 Y101.288 E-.19076
G1 X123.455 Y100.84 E-.22945
G1 X124.258 Y100.625 E-.19195
G1 X125.095 Y100.563 E-.1938
G1 X125.765 Y100.652 E-.15616
;WIPE_END
G1 Z.4 F720
; printing object Cap.stl id:0 copy 0
G1 X124.188 Y103.936 F10800
M73 Q15 S1
G1 Z.2 F720
G1 E1 F2100
M204 S800
;TYPE:Perimeter
;WIDTH:0.419999
G1 F900
G1 X124.305 Y103.831 E.00493
G1 X124.661 Y103.69 E.01201
G1 X125.053 Y103.642 E.01238
M73 P15 R1
G1 X125.433 Y103.721 E.01217
G1 X125.825 Y103.919 E.01377
G1 X126.086 Y104.193 E.01186
G1 X126.298 Y104.595 E.01425
G1 X126.353 Y104.96 E.01157
G1 X126.31 Y105.361 E.01265
G1 X126.147 Y105.712 E.01213
G1 X125.865 Y106.049 E.01378
G1 X125.41 Y106.297 E.01625
G1 X125.033 Y106.353 E.01195
G1 X124.639 Y106.31 E.01243
G1 X124.288 Y106.147 E.01213
G1 X123.951 Y105.865 E.01378
G1 X123.703 Y105.41 E.01625
G1 X123.644 Y104.896 E.01622
G1 X123.734 Y104.521 E.01209
G1 X123.919 Y104.175 E.0123
G1 X124.143 Y103.976 E.00939
M204 S1000
G1 X123.952 Y103.627 F10800
M204 S800
;TYPE:External perimeter
G1 F900
G1 X123.976 Y103.605 E.00102
G1 X124.411 Y103.365 E.01558
G1 X124.904 Y103.273 E.01572
G1 X125.394 Y103.307 E.0154
G1 X125.773 Y103.443 E.01263
G1 X126.17 Y103.725 E.01527
G1 X126.494 Y104.11 E.01578
G1 X126.658 Y104.477 E.0126
G1 X126.73 Y104.952 E.01506
G1 X126.704 Y105.3 E.01094
G1 X126.559 Y105.769 E.01539
G1 X126.34 Y106.107 E.01263
G1 X125.974 Y106.43 E.01531
G1 X125.525 Y106.658 E.01579
G1 X125.035 Y106.73 E.01553
M73 Q16 S1
G1 X124.538 Y106.675 E.01568
G1 X124.083 Y106.464 E.01573
G1 X123.77 Y106.218 E.01248
G1 X123.473 Y105.831 E.0153
G1 X123.307 Y105.36 E.01566
G1 X123.266 Y104.867 E.01551
G1 X123.382 Y104.386 E.01551
G1 X123.618 Y103.945 E.01568
G1 X123.909 Y103.669 E.01258
M73 P16 R1
M204 S1000
;WIPE_START
G1 F8640
G1 X123.952 Y103.627 E-.01388
G1 X123.976 Y103.605 E-.00752
G1 X124.411 Y103.365 E-.11472
G1 X124.904 Y103.273 E-.1158
G1 X125.394 Y103.307 E-.11341
G1 X125.773 Y103.443 E-.09298
G1 X126.17 Y103.725 E-.11244
G1 X126.494 Y104.11 E-.11619
G1 X126.658 Y104.477 E-.09282
G1 X126.73 Y104.952 E-.11093
G1 X126.704 Y105.3 E-.08058
G1 X126.667 Y105.419 E-.02873
;WIPE_END
G1 Z.4 F720
G1 X126.171 Y104.727 F10800
G1 Z.2 F720
G1 E1 F2100
M204 S800
;TYPE:Solid infill
;WIDTH:0.450713
G1 F900
G1 X125.602 Y104.158 E.02729
G1 X125.467 Y104.074 E.00539
G1 X125.229 Y103.989 E.00857
G1 X125.041 Y103.964 E.00643
G1 X124.842 Y103.974 E.00676
G1 X126.022 Y105.154 E.05658
G1 X126 Y105.276 E.0042
G1 X125.933 Y105.453 E.00642
G1 X125.859 Y105.568 E.00464
G1 X124.429 Y104.138 E.06857
G1 X124.309 Y104.226 E.00505
G1 X124.14 Y104.426 E.00888
G1 X125.573 Y105.859 E.06872
G1 X125.313 Y105.989 E.00986
G1 X125.159 Y106.022 E.00534
M73 Q17 S1
G1 X123.979 Y104.842 E.05658
G1 X123.97 Y105.12 E.00943
G1 X124.011 Y105.313 E.00669
G1 X124.089 Y105.496 E.00675
G1 X124.154 Y105.594 E.00399
G1 X124.735 Y106.174 E.02784
M204 S1000
;LAYER_CHANGE
;Z:0.35
;HEIGHT:0.15
;BEFORE_LAYER_CHANGE
G92 E0.0
;0.35


;WIPE_START
G1 F8640
G1 X124.154 Y105.594 E-.18956
G1 X124.089 Y105.496 E-.02715
M73 P17 R1
G1 X124.011 Y105.313 E-.04593
G1 X123.97 Y105.12 E-.04556
G1 X123.979 Y104.842 E-.06422
G1 X125.159 Y106.022 E-.38532
G1 X125.313 Y105.989 E-.03637
G1 X125.573 Y105.859 E-.06712
G1 X125.148 Y105.434 E-.13877
;WIPE_END
G1 Z.35 F720
;AFTER_LAYER_CHANGE
;0.35
M140 S90 ; set bed temperature
; stop printing object Cap.stl id:0 copy 0
G1 Z.55
G1 X123.345 Y110.682 F10800
G1 Z.35 F720
G1 E1 F2100
;TYPE:Skirt/Brim
;WIDTH:0.42
G1 F900
G1 X122.7 Y110.483 E.01632
G1 X121.766 Y109.989 E.02555
G1 X120.737 Y109.144 E.0322
G1 X120.011 Y108.234 E.02815
G1 X119.517 Y107.3 E.02555
G1 X119.174 Y106.188 E.02814
G1 X119.056 Y104.862 E.0322
G1 X119.174 Y103.812 E.02555
M73 Q18 S1
G1 X119.517 Y102.7 E.02814
G1 X120.011 Y101.766 E.02555
G1 X120.856 Y100.737 E.0322
G1 X121.766 Y100.011 E.02815
M73 P18 R1
G1 X122.7 Y99.517 E.02555
G1 X123.977 Y99.143 E.03218
G1 X125.138 Y99.056 E.02816
G1 X126.188 Y99.174 E.02555
G1 X127.3 Y99.517 E.02814
G1 X128.463 Y100.166 E.03221
G1 X129.263 Y100.856 E.02555
G1 X129.989 Y101.766 E.02815
G1 X130.483 Y102.7 E.02555
G1 X130.826 Y103.812 E.02814
G1 X130.944 Y105.138 E.0322
G1 X130.826 Y106.188 E.02555
M73 Q19 S1
G1 X130.483 Y107.3 E.02814
G1 X129.989 Y108.234 E.02555
G1 X129.144 Y109.263 E.0322
G1 X128.234 Y109.989 E.02815
M73 P19 R1
G1 X127.043 Y110.584 E.0322
G1 X126.023 Y110.857 E.02554
G1 X124.862 Y110.944 E.02816
G1 X123.812 Y110.826 E.02555
G1 X123.402 Y110.699 E.01038
G1 X123.512 Y110.341 F10800
G1 F900
G1 X122.85 Y110.137 E.01675
G1 X121.966 Y109.67 E.02418
G1 X121.003 Y108.878 E.03015
G1 X120.33 Y108.034 E.02611
G1 X119.863 Y107.15 E.02418
G1 X119.513 Y105.953 E.03016
G1 X119.433 Y104.876 E.02612
G1 X119.545 Y103.882 E.02419
M73 Q20 S1
G1 X119.863 Y102.85 E.02612
G1 X120.33 Y101.966 E.02418
G1 X121.122 Y101.003 E.03015
G1 X121.966 Y100.33 E.02611
M73 P20 R1
G1 X122.85 Y99.863 E.02418
G1 X123.882 Y99.545 E.02612
G1 X125.124 Y99.433 E.03016
G1 X126.118 Y99.545 E.02419
G1 X127.15 Y99.863 E.02612
G1 X128.239 Y100.47 E.03015
G1 X128.997 Y101.122 E.02418
G1 X129.67 Y101.966 E.02611
G1 X130.137 Y102.85 E.02418
G1 X130.487 Y104.047 E.03016
G1 X130.567 Y105.124 E.02612
G1 X130.455 Y106.118 E.02419
G1 X130.07 Y107.304 E.03016
M73 Q21 S1
G1 X129.53 Y108.239 E.02611
G1 X128.878 Y108.997 E.02418
G1 X128.034 Y109.67 E.02611
G1 X127.15 Y110.137 E.02418
M73 P21 R1
G1 X126.118 Y110.455 E.02612
G1 X124.876 Y110.567 E.03016
G1 X123.882 Y110.455 E.02419
G1 X123.57 Y110.359 E.00789
G1 X123.68 Y110.001 F10800
G1 F900
G1 X123.001 Y109.792 E.01718
G1 X122.167 Y109.351 E.02282
G1 X121.27 Y108.611 E.02812
G1 X120.649 Y107.833 E.02407
G1 X120.208 Y106.999 E.02282
G1 X119.915 Y106.048 E.02407
G1 X119.809 Y104.89 E.02812
G1 X119.915 Y103.952 E.02283
G1 X120.208 Y103.001 E.02407
G1 X120.649 Y102.167 E.02282
G1 X121.389 Y101.27 E.02812
M73 Q22 S1
G1 X122.167 Y100.649 E.02407
G1 X123.001 Y100.208 E.02282
G1 X124.118 Y99.884 E.02813
M73 P22 R1
G1 X125.11 Y99.809 E.02406
G1 X126.048 Y99.915 E.02283
G1 X126.999 Y100.208 E.02407
G1 X127.833 Y100.649 E.02282
G1 X128.73 Y101.389 E.02812
G1 X129.351 Y102.167 E.02407
G1 X129.792 Y103.001 E.02282
G1 X130.085 Y103.952 E.02407
G1 X130.191 Y105.11 E.02812
G1 X130.085 Y106.048 E.02283
G1 X129.724 Y107.153 E.02811
G1 X129.227 Y108.015 E.02406
G1 X128.611 Y108.73 E.02282
G1 X127.833 Y109.351 E.02407
G1 X126.999 Y109.792 E.02282
M73 Q23 S1
G1 X126.048 Y110.085 E.02407
G1 X124.89 Y110.191 E.02812
G1 X123.952 Y110.085 E.02283
M73 P23 R1
G1 X123.737 Y110.019 E.00544
G1 X123.849 Y109.661 F10800
G1 F900
G1 X123.14 Y109.441 E.01795
G1 X122.209 Y108.923 E.02577
G1 X121.536 Y108.345 E.02146
G1 X120.969 Y107.632 E.02203
G1 X120.554 Y106.848 E.02145
G1 X120.286 Y105.978 E.02202
G1 X120.186 Y104.904 E.02609
G1 X120.286 Y104.022 E.02147
G1 X120.559 Y103.14 E.02233
G1 X121.077 Y102.209 E.02577
G1 X121.655 Y101.536 E.02146
G1 X122.368 Y100.969 E.02203
G1 X123.331 Y100.484 E.02608
G1 X124.188 Y100.254 E.02146
G1 X125.109 Y100.187 E.02233
G1 X126.165 Y100.328 E.02577
M73 Q24 S1
G1 X127.002 Y100.621 E.02145
G1 X127.791 Y101.077 E.02204
G1 X128.464 Y101.655 E.02146
M73 P24 R1
G1 X129.031 Y102.368 E.02203
G1 X129.446 Y103.152 E.02145
G1 X129.746 Y104.188 E.02608
G1 X129.814 Y105.096 E.02202
G1 X129.714 Y105.978 E.02147
G1 X129.441 Y106.86 E.02233
G1 X128.923 Y107.791 E.02577
G1 X128.345 Y108.464 E.02146
G1 X127.632 Y109.031 E.02203
G1 X126.669 Y109.516 E.02608
G1 X125.812 Y109.746 E.02146
G1 X124.904 Y109.814 E.02202
G1 X124.022 Y109.714 E.02147
G1 X123.906 Y109.678 E.00294
G1 X124.017 Y109.321 F10800
G1 F900
G1 X123.29 Y109.095 E.01841
G1 X122.433 Y108.62 E.0237
G1 X121.803 Y108.078 E.0201
M73 Q25 S1
G1 X121.288 Y107.432 E.01998
G1 X120.9 Y106.697 E.0201
G1 X120.656 Y105.908 E.01997
G1 X120.563 Y104.918 E.02405
M73 P25 R1
G1 X120.656 Y104.092 E.0201
G1 X120.9 Y103.303 E.01997
G1 X121.288 Y102.568 E.0201
G1 X121.922 Y101.803 E.02403
G1 X122.568 Y101.288 E.01998
G1 X123.455 Y100.84 E.02403
G1 X124.258 Y100.625 E.0201
G1 X125.095 Y100.563 E.0203
G1 X126.067 Y100.692 E.02371
G1 X126.851 Y100.967 E.02009
G1 X127.567 Y101.38 E.01999
G1 X128.197 Y101.922 E.0201
G1 X128.712 Y102.568 E.01998
G1 X129.1 Y103.303 E.0201
G1 X129.344 Y104.092 E.01997
G1 X129.437 Y105.082 E.02405
G1 X129.344 Y105.908 E.0201
G1 X129.095 Y106.709 E.02029
M73 Q26 S1
G1 X128.62 Y107.567 E.02372
G1 X128.078 Y108.197 E.0201
G1 X127.432 Y108.712 E.01998
M73 P26 R1
G1 X126.545 Y109.16 E.02403
G1 X125.742 Y109.375 E.0201
G1 X124.918 Y109.437 E.01998
G1 X124.092 Y109.344 E.0201
G1 X124.074 Y109.338 E.00046
;WIPE_START
G1 F8640
G1 X124.017 Y109.321 E-.01373
G1 X123.29 Y109.095 E-.17579
G1 X122.433 Y108.62 E-.22625
G1 X121.803 Y108.078 E-.19189
G1 X121.288 Y107.432 E-.19076
G1 X120.9 Y106.697 E-.19191
G1 X120.888 Y106.657 E-.00967
;WIPE_END
G1 Z.55 F720
; printing object Cap.stl id:0 copy 0
G1 X124.308 Y103.564 F10800
G1 Z.35 F720
G1 E1 F2100
M204 S800
;TYPE:Perimeter
;WIDTH:0.449999
G1 F900
G1 X124.414 Y103.508 E.00312
G1 X124.883 Y103.404 E.01252
G1 X125.357 Y103.437 E.01238
G1 X125.695 Y103.555 E.00933
G1 X125.992 Y103.743 E.00916
