; generated by PrusaSlicer 2.9.4 on 2026-06-01 at 16:23:47 UTC


;
;
; 

; external perimeters extrusion width = 0.45mm
; perimeters extrusion width = 0.45mm
; infill extrusion width = 0.45mm
; solid infill extrusion width = 0.45mm
; top infill extrusion width = 0.40mm
; support material extrusion width = 0.35mm
; first layer extrusion width = 0.42mm

M73 P0 R23
M73 Q0 S23
M201 X1000 Y1000 Z200 E5000 ; sets maximum accelerations, mm/sec^2
M203 X200 Y200 Z12 E120 ; sets maximum feedrates, mm / sec
M204 S1250 T1250 ; sets acceleration (S) and retract acceleration (R), mm/sec^2
M205 X8.00 Y8.00 Z0.40 E4.50 ; sets the jerk limits, mm/sec
M205 S0 T0 ; sets the minimum extruding and travel feed rate, mm/sec

; printing object Torso.stl id:0 copy 0
; stop printing object Torso.stl id:0 copy 0

;TYPE:Custom
M862.3 P "MK3S" ; printer model check
M862.1 P0.4 ; nozzle diameter check
M115 U3.14.1 ; tell printer latest fw version
G90 ; use absolute coordinates
M83 ; extruder relative mode
M104 S250 ; set extruder temp
M140 S85 ; set bed temp
M190 S85 ; wait for bed temp
M109 S250 ; wait for extruder temp
G28 W ; home all without mesh bed level
G80 X75.6357 Y71.8604 W98.7285 H66.2792 ; mesh bed levelling

G1 Z0.2 F720
G1 Y-3 F1000 ; go outside print area
G92 E0
G1 X60 E9 F1000 ; intro line
G1 X100 E12.5 F1000 ; intro line

G92 E0
M221 S95

; Don't change E values below. Excessive value can damage the printer.
M907 E430 ; set extruder motor current
G21 ; set units to millimeters
G90 ; use absolute coordinates
M83 ; use relative distances for extrusion

M900 K0.08 ; Filament gcode LA 1.5
M900 K45 ; Filament gcode LA 1.0




M107
;LAYER_CHANGE
;Z:0.2
;HEIGHT:0.2
G1 E-1 F2100
G1 Z.4 F720
G1 X79.02 Y72.485 F10800
G1 Z.2 F720
G1 E1 F2100
M204 S800
;TYPE:Skirt/Brim
;WIDTH:0.42
G1 F1200
G1 X80.331 Y72.049 E.04332
G1 X88.546 Y72.049 E.25758
G1 X89.181 Y72.143 E.02013
G1 X165.668 Y95.321 E2.50589
G1 X172.679 Y97.657 E.23171
G1 X173.74 Y98.423 E.04103
G1 X174.176 Y99.733 E.04329
G1 X174.176 Y110.267 E.33029
G1 X173.785 Y111.515 E.04101
G1 X172.679 Y112.343 E.04332
G1 X165.668 Y114.679 E.23171
G1 X89.181 Y137.857 E2.50589
G1 X88.546 Y137.951 E.02013
M73 P1 R23
M73 Q1 S23
G1 X80.331 Y137.951 E.25758
G1 X79.082 Y137.56 E.04104
G1 X78.254 Y136.455 E.04329
G1 X75.937 Y129.501 E.22982
G1 X75.824 Y128.809 E.02198
G1 X75.824 Y81.191 E1.49303
G1 X75.937 Y80.499 E.02198
G1 X78.254 Y73.545 E.22982
G1 X78.985 Y72.533 E.03914
M204 S1000
;WIPE_START
G1 F8640
G1 X79.02 Y72.485 E-.01372
G1 X80.331 Y72.049 E-.31902
G1 X83.221 Y72.049 E-.66726
;WIPE_END
G1 Z.4 F720
; printing object Torso.stl id:0 copy 0
G1 X88.546 Y81.191 F10800
G1 Z.2 F720
G1 E1 F2100
M204 S800
;TYPE:Support material
G1 F1200
G1 X93.182 Y81.191 E.14536
G1 X93.182 Y83.509 E.07268
G1 X104.771 Y83.509 E.36336
G1 X104.771 Y85.827 E.07268
G1 X114.042 Y85.827 E.29069
G1 X114.042 Y88.144 E.07265
G1 X123.313 Y88.144 E.29069
G1 X123.313 Y90.462 E.07268
G1 X134.902 Y90.462 E.36336
G1 X134.902 Y92.78 E.07268
G1 X144.173 Y92.78 E.29069
G1 X144.173 Y95.098 E.07268
G1 X155.763 Y95.098 E.3634
G1 X155.763 Y97.416 E.07268
G1 X165.034 Y97.416 E.29069
G1 X165.034 Y99.733 E.07265
G1 X171.987 Y99.733 E.21801
G1 X171.987 Y110.267 E.33029
G1 X165.034 Y110.267 E.21801
G1 X165.034 Y112.584 E.07265
M73 P1 R22
G1 X155.763 Y112.584 E.29069
G1 X155.763 Y114.902 E.07268
G1 X144.173 Y114.902 E.3634
M73 P2 R22
G1 X144.173 Y117.22 E.07268
M73 Q2 S23
G1 X134.902 Y117.22 E.29069
G1 X134.902 Y119.538 E.07268
G1 X123.313 Y119.538 E.36336
G1 X123.313 Y121.856 E.07268
G1 X114.042 Y121.856 E.29069
G1 X114.042 Y124.173 E.07265
G1 X104.771 Y124.173 E.29069
G1 X104.771 Y126.491 E.07268
G1 X93.182 Y126.491 E.36336
G1 X93.182 Y128.809 E.07268
G1 X88.546 Y128.809 E.14536
G1 X88.546 Y135.763 E.21804
G1 X80.331 Y135.763 E.25758
G1 X80.331 Y128.809 E.21804
G1 X78.013 Y128.809 E.07268
G1 X78.013 Y118.276 E.33025
G1 X80.331 Y118.276 E.07268
G1 X80.331 Y91.724 E.83252
G1 X78.013 Y91.724 E.07268
G1 X78.013 Y81.191 E.33025
G1 X80.331 Y81.191 E.07268
G1 X80.331 Y74.237 E.21804
G1 X88.546 Y74.237 E.25758
G1 X88.546 Y81.134 E.21625
M204 S1000
G1 X84.21 Y122.733 F10800
M204 S800
G1 F1200
G1 X84.429 Y122.708 E.00691
G1 X85.072 Y122.94 E.02143
G1 X85.517 Y123.62 E.02548
G1 X85.517 Y124.193 E.01797
G1 X85.168 Y124.789 E.02166
G1 X84.794 Y125.009 E.0136
G1 X84.429 Y125.105 E.01183
G1 X83.994 Y125.026 E.01386
G1 X83.668 Y124.873 E.01129
G1 X83.223 Y124.193 E.02548
G1 X83.265 Y123.484 E.02227
G1 X83.668 Y122.94 E.02123
G1 X84.155 Y122.747 E.01642
M204 S1000
G1 X88.546 Y94.042 F10800
M204 S800
G1 F1200
G1 X96.555 Y94.042 E.25112
G1 X96.555 Y96.36 E.07268
G1 X108.144 Y96.36 E.36336
G1 X108.144 Y98.678 E.07268
G1 X117.416 Y98.678 E.29072
G1 X117.416 Y100.995 E.07265
G1 X126.687 Y100.995 E.29069
G1 X126.687 Y103.313 E.07268
G1 X138.276 Y103.313 E.36336
G1 X138.276 Y106.687 E.10579
G1 X126.687 Y106.687 E.36336
G1 X126.687 Y109.005 E.07268
M73 P3 R22
G1 X117.416 Y109.005 E.29069
G1 X117.416 Y111.322 E.07265
M73 Q3 S23
G1 X108.144 Y111.322 E.29072
G1 X108.144 Y113.64 E.07268
G1 X96.555 Y113.64 E.36336
G1 X96.555 Y115.958 E.07268
G1 X88.546 Y115.958 E.25112
G1 X88.546 Y94.099 E.68537
M204 S1000
;WIPE_START
G1 F8640
G1 X88.546 Y98.43 E-1
;WIPE_END
G1 Z.4 F720
G1 X165.355 Y103.876 F10800
G1 Z.2 F720
G1 E1 F2100
M204 S800
G1 F1200
G1 X166.217 Y103.998 E.0273
G1 X166.569 Y104.332 E.01521
G1 X166.799 Y104.908 E.01945
G1 X166.799 Y105.093 E.0058
G1 X166.569 Y105.668 E.01942
G1 X166.097 Y106.057 E.01918
G1 X165.355 Y106.124 E.02336
G1 X164.795 Y105.832 E.0198
G1 X164.611 Y105.585 E.00966
G1 X164.469 Y105.065 E.0169
G1 X164.611 Y104.415 E.02086
G1 X164.795 Y104.168 E.00966
G1 X165.305 Y103.902 E.01804
M204 S1000
G1 X84.311 Y84.902 F10800
M204 S800
G1 F1200
G1 X84.718 Y84.974 E.01296
G1 X85.072 Y85.14 E.01226
G1 X85.508 Y85.807 E.02498
G1 X85.508 Y86.38 E.01797
G1 X85.168 Y86.963 E.02116
G1 X84.767 Y87.196 E.01454
G1 X84.43 Y87.286 E.01094
G1 X84.022 Y87.214 E.01299
G1 X83.669 Y87.048 E.01223
G1 X83.232 Y86.381 E.025
G1 X83.232 Y85.808 E.01797
G1 X83.572 Y85.224 E.02119
G1 X84.256 Y84.916 E.02352
M204 S1000
G1 X171.506 Y110.097 F10800
M204 S800
G1 F1200
G1 X171.506 Y100.073 E.3143
G1 X171.087 Y100.073 E.01314
G1 X171.087 Y109.927 E.30897
G1 X170.668 Y109.927 E.01314
G1 X170.668 Y100.073 E.30897
G1 X170.25 Y100.073 E.01311
G1 X170.25 Y109.927 E.30897
G1 X169.831 Y109.927 E.01314
G1 X169.831 Y100.073 E.30897
G1 X169.412 Y100.073 E.01314
G1 X169.412 Y109.927 E.30897
G1 X168.993 Y109.927 E.01314
G1 X168.993 Y100.073 E.30897
G1 X168.574 Y100.073 E.01314
G1 X168.574 Y109.927 E.30897
G1 X168.155 Y109.927 E.01314
G1 X168.155 Y100.073 E.30897
G1 X167.736 Y100.073 E.01314
G1 X167.736 Y109.927 E.30897
G1 X167.317 Y109.927 E.01314
G1 X167.317 Y100.073 E.30897
G1 X166.898 Y100.073 E.01314
G1 X166.898 Y104.241 E.13068
G1 X166.479 Y103.775 E.01965
G1 X166.479 Y100.073 E.11607
G1 X166.06 Y100.073 E.01314
G1 X166.06 Y103.594 E.1104
G1 X165.641 Y103.529 E.01329
G1 X165.641 Y100.073 E.10836
G1 X165.222 Y100.073 E.01314
G1 X165.222 Y103.563 E.10943
G1 X164.803 Y103.781 E.01481
G1 X164.803 Y100.073 E.11626
G1 X164.694 Y100.073 E.00342
G1 X164.694 Y97.755 E.07268
G1 X164.384 Y97.755 E.00972
G1 X164.384 Y104.12 E.19957
M73 P4 R22
G1 X164.129 Y104.89 E.02543
M73 Q4 S23
G1 X164.129 Y105.11 E.0069
G1 X164.384 Y105.88 E.02543
G1 X164.384 Y112.245 E.19957
G1 X163.965 Y112.245 E.01314
G1 X163.965 Y97.755 E.45432
G1 X163.546 Y97.755 E.01314
G1 X163.546 Y112.245 E.45432
G1 X163.127 Y112.245 E.01314
M73 Q4 S22
G1 X163.127 Y97.755 E.45432
G1 X162.708 Y97.755 E.01314
G1 X162.708 Y112.245 E.45432
G1 X162.289 Y112.245 E.01314
G1 X162.289 Y97.755 E.45432
G1 X161.87 Y97.755 E.01314
G1 X161.87 Y112.245 E.45432
G1 X161.451 Y112.245 E.01314
G1 X161.451 Y97.755 E.45432
G1 X161.032 Y97.755 E.01314
G1 X161.032 Y112.245 E.45432
G1 X160.613 Y112.245 E.01314
G1 X160.613 Y97.755 E.45432
G1 X160.194 Y97.755 E.01314
G1 X160.194 Y112.245 E.45432
G1 X159.775 Y112.245 E.01314
G1 X159.775 Y97.755 E.45432
G1 X159.356 Y97.755 E.01314
G1 X159.356 Y112.245 E.45432
G1 X158.937 Y112.245 E.01314
G1 X158.937 Y97.755 E.45432
G1 X158.518 Y97.755 E.01314
G1 X158.518 Y112.245 E.45432
G1 X158.099 Y112.245 E.01314
G1 X158.099 Y97.755 E.45432
G1 X157.68 Y97.755 E.01314
G1 X157.68 Y112.245 E.45432
G1 X157.261 Y112.245 E.01314
G1 X157.261 Y97.755 E.45432
G1 X156.842 Y97.755 E.01314
G1 X156.842 Y112.245 E.45432
G1 X156.423 Y112.245 E.01314
M73 P5 R22
M73 Q5 S22
G1 X156.423 Y97.755 E.45432
G1 X156.004 Y97.755 E.01314
G1 X156.004 Y112.245 E.45432
G1 X155.585 Y112.245 E.01314
G1 X155.585 Y97.755 E.45432
G1 X155.423 Y97.755 E.00508
G1 X155.423 Y95.437 E.07268
G1 X155.166 Y95.437 E.00806
G1 X155.166 Y114.563 E.59968
G1 X154.747 Y114.563 E.01314
G1 X154.747 Y95.437 E.59968
G1 X154.328 Y95.437 E.01314
G1 X154.328 Y114.563 E.59968
G1 X153.909 Y114.563 E.01314
G1 X153.909 Y95.437 E.59968
G1 X153.49 Y95.437 E.01314
G1 X153.49 Y114.563 E.59968
G1 X153.071 Y114.563 E.01314
G1 X153.071 Y95.437 E.59968
G1 X152.652 Y95.437 E.01314
G1 X152.652 Y114.563 E.59968
G1 X152.234 Y114.563 E.01311
G1 X152.234 Y95.437 E.59968
G1 X151.815 Y95.437 E.01314
G1 X151.815 Y114.563 E.59968
G1 X151.396 Y114.563 E.01314
G1 X151.396 Y95.437 E.59968
G1 X150.977 Y95.437 E.01314
G1 X150.977 Y114.563 E.59968
G1 X150.558 Y114.563 E.01314
G1 X150.558 Y95.437 E.59968
G1 X150.139 Y95.437 E.01314
M73 P6 R22
M73 Q6 S22
G1 X150.139 Y114.563 E.59968
G1 X149.72 Y114.563 E.01314
G1 X149.72 Y95.437 E.59968
G1 X149.301 Y95.437 E.01314
G1 X149.301 Y114.563 E.59968
G1 X148.882 Y114.563 E.01314
M73 P6 R21
G1 X148.882 Y95.437 E.59968
G1 X148.463 Y95.437 E.01314
G1 X148.463 Y114.563 E.59968
G1 X148.044 Y114.563 E.01314
G1 X148.044 Y95.437 E.59968
G1 X147.625 Y95.437 E.01314
G1 X147.625 Y114.563 E.59968
G1 X147.206 Y114.563 E.01314
G1 X147.206 Y95.437 E.59968
G1 X146.787 Y95.437 E.01314
G1 X146.787 Y114.563 E.59968
G1 X146.368 Y114.563 E.01314
G1 X146.368 Y95.437 E.59968
G1 X145.949 Y95.437 E.01314
G1 X145.949 Y114.563 E.59968
G1 X145.53 Y114.563 E.01314
G1 X145.53 Y95.437 E.59968
G1 X145.111 Y95.437 E.01314
G1 X145.111 Y114.563 E.59968
G1 X144.692 Y114.563 E.01314
G1 X144.692 Y95.437 E.59968
G1 X144.273 Y95.437 E.01314
M73 P7 R21
G1 X144.273 Y114.563 E.59968
G1 X143.854 Y114.563 E.01314
M73 Q7 S22
G1 X143.834 Y93.119 E.67236
G1 X143.435 Y93.119 E.01251
G1 X143.435 Y116.881 E.74504
G1 X143.016 Y116.881 E.01314
G1 X143.016 Y93.119 E.74504
G1 X142.597 Y93.119 E.01314
G1 X142.597 Y116.881 E.74504
G1 X142.178 Y116.881 E.01314
G1 X142.178 Y93.119 E.74504
G1 X141.759 Y93.119 E.01314
G1 X141.759 Y116.881 E.74504
G1 X141.34 Y116.881 E.01314
G1 X141.34 Y93.119 E.74504
G1 X140.921 Y93.119 E.01314
G1 X140.921 Y116.881 E.74504
G1 X140.502 Y116.881 E.01314
G1 X140.502 Y93.119 E.74504
G1 X140.083 Y93.119 E.01314
G1 X140.083 Y116.881 E.74504
G1 X139.664 Y116.881 E.01314
G1 X139.664 Y93.119 E.74504
G1 X139.245 Y93.119 E.01314
M73 P8 R21
G1 X139.245 Y116.881 E.74504
G1 X138.826 Y116.881 E.01314
M73 Q8 S22
G1 X138.826 Y93.119 E.74504
G1 X138.407 Y93.119 E.01314
G1 X138.407 Y102.974 E.309
G1 X137.988 Y102.974 E.01314
G1 X137.988 Y93.119 E.309
G1 X137.569 Y93.119 E.01314
G1 X137.569 Y102.974 E.309
G1 X137.15 Y102.974 E.01314
G1 X137.15 Y93.119 E.309
G1 X136.731 Y93.119 E.01314
G1 X136.731 Y102.974 E.309
G1 X136.312 Y102.974 E.01314
M73 Q8 S21
G1 X136.312 Y93.119 E.309
G1 X135.893 Y93.119 E.01314
G1 X135.893 Y102.974 E.309
G1 X135.474 Y102.974 E.01314
G1 X135.474 Y93.119 E.309
G1 X135.055 Y93.119 E.01314
G1 X135.055 Y102.974 E.309
G1 X134.636 Y102.974 E.01314
G1 X134.636 Y93.119 E.309
G1 X134.563 Y93.119 E.00229
G1 X134.563 Y90.802 E.07265
G1 X134.217 Y90.802 E.01085
G1 X134.217 Y102.974 E.38164
G1 X133.799 Y102.974 E.01311
G1 X133.799 Y90.802 E.38164
G1 X133.38 Y90.802 E.01314
G1 X133.38 Y102.974 E.38164
G1 X132.961 Y102.974 E.01314
G1 X132.961 Y90.802 E.38164
G1 X132.542 Y90.802 E.01314
G1 X132.542 Y102.974 E.38164
G1 X132.123 Y102.974 E.01314
G1 X132.123 Y90.802 E.38164
G1 X131.704 Y90.802 E.01314
G1 X131.704 Y102.974 E.38164
G1 X131.285 Y102.974 E.01314
G1 X131.285 Y90.802 E.38164
G1 X130.866 Y90.802 E.01314
G1 X130.866 Y102.974 E.38164
G1 X130.447 Y102.974 E.01314
M73 P9 R21
G1 X130.447 Y90.802 E.38164
G1 X130.028 Y90.802 E.01314
G1 X130.028 Y102.974 E.38164
G1 X129.609 Y102.974 E.01314
M73 Q9 S21
G1 X129.609 Y90.802 E.38164
G1 X129.19 Y90.802 E.01314
G1 X129.19 Y102.974 E.38164
G1 X128.771 Y102.974 E.01314
G1 X128.771 Y90.802 E.38164
G1 X128.352 Y90.802 E.01314
G1 X128.352 Y102.974 E.38164
G1 X127.933 Y102.974 E.01314
G1 X127.933 Y90.802 E.38164
G1 X127.514 Y90.802 E.01314
G1 X127.514 Y102.974 E.38164
G1 X127.095 Y102.974 E.01314
G1 X127.095 Y90.802 E.38164
G1 X126.676 Y90.802 E.01314
G1 X126.676 Y100.656 E.30897
G1 X126.257 Y100.656 E.01314
G1 X126.257 Y90.802 E.30897
G1 X125.838 Y90.802 E.01314
G1 X125.838 Y100.656 E.30897
G1 X125.419 Y100.656 E.01314
G1 X125.419 Y90.802 E.30897
G1 X125 Y90.802 E.01314
G1 X125 Y100.656 E.30897
G1 X124.581 Y100.656 E.01314
G1 X124.581 Y90.802 E.30897
G1 X124.162 Y90.802 E.01314
G1 X124.162 Y100.656 E.30897
G1 X123.743 Y100.656 E.01314
G1 X123.743 Y90.802 E.30897
G1 X123.324 Y90.802 E.01314
G1 X123.324 Y100.656 E.30897
G1 X122.905 Y100.656 E.01314
G1 X122.905 Y88.484 E.38164
G1 X122.486 Y88.484 E.01314
G1 X122.486 Y100.656 E.38164
G1 X122.067 Y100.656 E.01314
G1 X122.067 Y88.484 E.38164
G1 X121.648 Y88.484 E.01314
G1 X121.648 Y100.656 E.38164
G1 X121.229 Y100.656 E.01314
G1 X121.229 Y88.484 E.38164
G1 X120.81 Y88.484 E.01314
M73 P10 R21
G1 X120.81 Y100.656 E.38164
G1 X120.391 Y100.656 E.01314
G1 X120.391 Y88.484 E.38164
G1 X119.972 Y88.484 E.01314
G1 X119.972 Y100.656 E.38164
G1 X119.553 Y100.656 E.01314
M73 Q10 S21
G1 X119.553 Y88.484 E.38164
G1 X119.134 Y88.484 E.01314
G1 X119.134 Y100.656 E.38164
G1 X118.715 Y100.656 E.01314
G1 X118.715 Y88.484 E.38164
G1 X118.296 Y88.484 E.01314
G1 X118.296 Y100.656 E.38164
G1 X117.877 Y100.656 E.01314
G1 X117.877 Y88.484 E.38164
G1 X117.458 Y88.484 E.01314
G1 X117.458 Y98.338 E.30897
G1 X117.039 Y98.338 E.01314
G1 X117.039 Y88.484 E.30897
G1 X116.62 Y88.484 E.01314
G1 X116.62 Y98.338 E.30897
G1 X116.201 Y98.338 E.01314
M73 P10 R20
G1 X116.201 Y88.484 E.30897
G1 X115.783 Y88.484 E.01311
G1 X115.783 Y98.338 E.30897
G1 X115.364 Y98.338 E.01314
G1 X115.364 Y88.484 E.30897
G1 X114.945 Y88.484 E.01314
G1 X114.945 Y98.338 E.30897
G1 X114.526 Y98.338 E.01314
G1 X114.526 Y88.484 E.30897
G1 X114.107 Y88.484 E.01314
G1 X114.107 Y98.338 E.30897
G1 X113.688 Y98.338 E.01314
G1 X113.688 Y86.166 E.38164
G1 X113.269 Y86.166 E.01314
G1 X113.269 Y98.338 E.38164
G1 X112.85 Y98.338 E.01314
G1 X112.85 Y86.166 E.38164
G1 X112.431 Y86.166 E.01314
G1 X112.431 Y98.338 E.38164
G1 X112.012 Y98.338 E.01314
G1 X112.012 Y86.166 E.38164
G1 X111.593 Y86.166 E.01314
G1 X111.593 Y98.338 E.38164
G1 X111.174 Y98.338 E.01314
M73 P11 R20
G1 X111.174 Y86.166 E.38164
G1 X110.755 Y86.166 E.01314
G1 X110.755 Y98.338 E.38164
G1 X110.336 Y98.338 E.01314
G1 X110.336 Y86.166 E.38164
G1 X109.917 Y86.166 E.01314
G1 X109.917 Y98.338 E.38164
G1 X109.498 Y98.338 E.01314
M73 Q11 S21
G1 X109.498 Y86.166 E.38164
G1 X109.079 Y86.166 E.01314
G1 X109.079 Y98.338 E.38164
G1 X108.66 Y98.338 E.01314
G1 X108.66 Y86.166 E.38164
G1 X108.241 Y86.166 E.01314
G1 X108.241 Y96.02 E.30897
G1 X107.822 Y96.02 E.01314
G1 X107.822 Y86.166 E.30897
G1 X107.403 Y86.166 E.01314
G1 X107.403 Y96.02 E.30897
G1 X106.984 Y96.02 E.01314
G1 X106.984 Y86.166 E.30897
G1 X106.565 Y86.166 E.01314
G1 X106.565 Y96.02 E.30897
G1 X106.146 Y96.02 E.01314
G1 X106.146 Y86.166 E.30897
G1 X105.727 Y86.166 E.01314
G1 X105.727 Y96.02 E.30897
G1 X105.308 Y96.02 E.01314
G1 X105.308 Y86.166 E.30897
G1 X104.889 Y86.166 E.01314
G1 X104.889 Y96.02 E.30897
G1 X104.47 Y96.02 E.01314
G1 X104.431 Y83.848 E.38165
G1 X104.051 Y83.848 E.01191
G1 X104.051 Y96.02 E.38164
G1 X103.632 Y96.02 E.01314
G1 X103.632 Y83.848 E.38164
G1 X103.213 Y83.848 E.01314
G1 X103.213 Y96.02 E.38164
G1 X102.794 Y96.02 E.01314
G1 X102.794 Y83.848 E.38164
G1 X102.375 Y83.848 E.01314
G1 X102.375 Y96.02 E.38164
G1 X101.956 Y96.02 E.01314
