; generated by PrusaSlicer 2.9.4 on 2026-06-01 at 16:55:56 UTC


;
;
; 

; external perimeters extrusion width = 0.45mm
; perimeters extrusion width = 0.45mm
; infill extrusion width = 0.45mm
; solid infill extrusion width = 0.45mm
; top infill extrusion width = 0.40mm
; support material extrusion width = 0.35mm
; first layer extrusion width = 0.42mm

; external perimeters extrusion width = 0.45mm
; perimeters extrusion width = 0.45mm
; infill extrusion width = 0.45mm
; solid infill extrusion width = 0.45mm
; top infill extrusion width = 0.40mm
; support material extrusion width = 0.35mm
; first layer extrusion width = 0.42mm

M73 P0 R26
M73 Q0 S26
M201 X1000 Y1000 Z200 E5000 ; sets maximum accelerations, mm/sec^2
M203 X200 Y200 Z12 E120 ; sets maximum feedrates, mm / sec
M204 S1250 T1250 ; sets acceleration (S) and retract acceleration (R), mm/sec^2
M205 X8.00 Y8.00 Z0.40 E4.50 ; sets the jerk limits, mm/sec
M205 S0 T0 ; sets the minimum extruding and travel feed rate, mm/sec

; printing object HeadTest.stl_2 id:1 copy 0
; stop printing object HeadTest.stl_2 id:1 copy 0
; printing object HeadTest.stl_1 id:0 copy 0
; stop printing object HeadTest.stl_1 id:0 copy 0

;TYPE:Custom
M862.3 P "MK3S" ; printer model check
M862.1 P0.4 ; nozzle diameter check
M115 U3.14.1 ; tell printer latest fw version
G90 ; use absolute coordinates
M83 ; extruder relative mode
M104 S250 ; set extruder temp
M140 S85 ; set bed temp
M190 S85 ; wait for bed temp
M109 S250 ; wait for extruder temp
G28 W ; home all without mesh bed level
G80 X75.9308 Y78.5655 W56.4424 H42.8102 ; mesh bed levelling

G1 Z0.2 F720
G1 Y-3 F1000 ; go outside print area
G92 E0
G1 X60 E9 F1000 ; intro line
G1 X100 E12.5 F1000 ; intro line

G92 E0
M221 S95

; Don't change E values below. Excessive value can damage the printer.
M907 E430 ; set extruder motor current
G21 ; set units to millimeters
G90 ; use absolute coordinates
M83 ; use relative distances for extrusion

M900 K0.08 ; Filament gcode LA 1.5
M900 K45 ; Filament gcode LA 1.0




M107
;LAYER_CHANGE
;Z:0.2
;HEIGHT:0.2
G1 E-1 F2100
G1 Z.4 F720
G1 X76.51 Y79.694 F10800
G1 Z.2 F720
G1 E1 F2100
M204 S800
;TYPE:Skirt/Brim
;WIDTH:0.42
G1 F1200
G1 X77.543 Y78.892 E.041
G1 X78.308 Y78.754 E.02437
G1 X95.795 Y78.754 E.54829
G1 X96.487 Y78.866 E.02198
G1 X103.44 Y81.184 E.2298
G1 X104.296 Y81.713 E.03155
G1 X108.98 Y86.399 E.20774
G1 X130.552 Y109.435 E.98953
G1 X131.291 Y110.524 E.04126
G1 X131.886 Y111.941 E.04819
G1 X132.146 Y113.231 E.04126
G1 X132.146 Y114.769 E.04822
G1 X131.886 Y116.059 E.04126
G1 X131.291 Y117.476 E.04819
G1 X130.552 Y118.565 E.04126
G1 X129.453 Y119.641 E.04822
G1 X128.351 Y120.359 E.04124
G1 X126.921 Y120.926 E.04823
G1 X125.627 Y121.16 E.04123
G1 X124.658 Y121.179 E.03039
G1 X123.917 Y121.105 E.02335
G1 X82.481 Y112.157 E1.32914
G1 X81.396 Y111.566 E.03874
G1 X76.76 Y106.93 E.20557
G1 X76.119 Y105.383 E.0525
G1 X76.119 Y80.943 E.7663
G1 X76.492 Y79.752 E.03913
M204 S1000
;WIPE_START
G1 F8640
G1 X76.51 Y79.694 E-.01402
G1 X77.543 Y78.892 E-.30197
G1 X78.308 Y78.754 E-.17949
G1 X80.493 Y78.754 E-.50452
;WIPE_END
G1 Z.4 F720
; printing object HeadTest.stl_1 id:0 copy 0
G1 X95.795 Y83.26 F10800
G1 Z.2 F720
G1 E1 F2100
M204 S800
;TYPE:Support material
G1 F1200
G1 X102.748 Y83.26 E.21801
G1 X102.748 Y85.578 E.07268
M73 Q1 S26
G1 X105.066 Y85.578 E.07268
M73 P1 R26
G1 X105.066 Y87.896 E.07268
G1 X107.384 Y87.896 E.07268
G1 X107.384 Y105.383 E.54829
G1 X105.066 Y105.383 E.07268
G1 X105.066 Y107.7 E.07265
G1 X102.748 Y107.7 E.07268
G1 X102.748 Y110.018 E.07268
G1 X82.943 Y110.018 E.62097
G1 X82.943 Y107.7 E.07268
G1 X80.626 Y107.7 E.07265
G1 X80.626 Y105.383 E.07265
G1 X78.308 Y105.383 E.07268
G1 X78.308 Y80.943 E.7663
G1 X95.795 Y80.943 E.54829
G1 X95.795 Y83.204 E.07089
M204 S1000
G1 X92.804 Y88.186 F10800
M204 S800
G1 F1200
G1 X94.438 Y88.333 E.05144
G1 X95.989 Y88.782 E.05063
G1 X97.449 Y89.527 E.05139
G1 X98.677 Y90.479 E.04872
G1 X99.861 Y91.845 E.05668
G1 X100.609 Y93.15 E.04716
G1 X101.15 Y94.687 E.05109
G1 X101.389 Y96.366 E.05317
G1 X101.272 Y98.203 E.05771
G1 X100.87 Y99.69 E.0483
G1 X100.194 Y101.112 E.04937
G1 X99.643 Y101.925 E.03079
G1 X99.024 Y102.649 E.02987
G1 X97.694 Y103.78 E.05474
G1 X96.265 Y104.574 E.05126
G1 X94.74 Y105.077 E.05035
G1 X93.081 Y105.284 E.05242
G1 X91.484 Y105.18 E.05018
G1 X89.847 Y104.746 E.0531
G1 X88.328 Y103.998 E.05309
G1 X86.942 Y102.922 E.05502
G1 X85.742 Y101.5 E.05834
G1 X84.936 Y99.989 E.0537
G1 X84.424 Y98.221 E.05771
G1 X84.297 Y96.906 E.04142
G1 X84.424 Y95.253 E.05198
G1 X84.873 Y93.643 E.05241
G1 X85.653 Y92.112 E.05387
G1 X86.562 Y90.935 E.04663
G1 X87.687 Y89.914 E.04763
G1 X89.186 Y89.007 E.05493
G1 X90.802 Y88.432 E.05378
G1 X91.615 Y88.273 E.02597
G1 X92.748 Y88.187 E.03563
M204 S1000
;WIPE_START
G1 F8640
G1 X91.615 Y88.273 E-.26237
G1 X90.802 Y88.432 E-.19128
G1 X89.186 Y89.007 E-.39606
G1 X88.629 Y89.344 E-.15029
;WIPE_END
G1 Z.4 F720
G1 X106.672 Y105.213 F10800
G1 Z.2 F720
G1 E1 F2100
M204 S800
G1 F1200
G1 X106.672 Y88.235 E.53233
G1 X106.253 Y88.235 E.01314
G1 X106.253 Y105.043 E.527
G1 X105.834 Y105.043 E.01314
G1 X105.834 Y88.235 E.527
G1 X105.415 Y88.235 E.01314
G1 X105.415 Y105.043 E.527
G1 X104.996 Y105.043 E.01314
G1 X104.996 Y88.235 E.527
G1 X104.726 Y88.235 E.00847
G1 X104.726 Y85.918 E.07265
G1 X104.577 Y85.918 E.00467
G1 X104.577 Y107.361 E.67233
G1 X104.158 Y107.361 E.01314
G1 X104.158 Y85.918 E.67233
G1 X103.739 Y85.918 E.01314
G1 X103.739 Y107.361 E.67233
G1 X103.32 Y107.361 E.01314
M73 P2 R26
M73 Q2 S26
G1 X103.32 Y85.918 E.67233
G1 X102.901 Y85.918 E.01314
G1 X102.901 Y107.361 E.67233
G1 X102.482 Y107.361 E.01314
G1 X102.482 Y85.918 E.67233
G1 X102.409 Y85.918 E.00229
G1 X102.409 Y83.6 E.07268
G1 X102.063 Y83.6 E.01085
G1 X102.063 Y109.679 E.81769
G1 X101.644 Y109.679 E.01314
G1 X101.644 Y83.6 E.81769
G1 X101.225 Y83.6 E.01314
G1 X101.225 Y93.769 E.31884
G1 X100.806 Y92.784 E.03356
G1 X100.806 Y83.6 E.28796
G1 X100.387 Y83.6 E.01314
G1 X100.387 Y92.03 E.26432
G1 X99.968 Y91.42 E.0232
G1 X99.968 Y83.6 E.24519
G1 X99.549 Y83.6 E.01314
G1 X99.549 Y90.9 E.22889
G1 X99.13 Y90.452 E.01923
G1 X99.13 Y83.6 E.21484
G1 X98.711 Y83.6 E.01314
G1 X98.711 Y90.055 E.20239
G1 X98.292 Y89.708 E.01706
G1 X98.292 Y83.6 E.19151
G1 X97.873 Y83.6 E.01314
G1 X97.873 Y89.407 E.18207
G1 X97.454 Y89.135 E.01566
G1 X97.454 Y83.6 E.17355
G1 X97.036 Y83.6 E.01311
G1 X97.036 Y88.895 E.16602
G1 X96.617 Y88.686 E.01468
G1 X96.617 Y83.6 E.15947
G1 X96.198 Y83.6 E.01314
G1 X96.198 Y88.503 E.15373
G1 X95.779 Y88.341 E.01409
G1 X95.779 Y83.6 E.14865
G1 X95.455 Y83.6 E.01016
G1 X95.455 Y81.282 E.07268
G1 X95.36 Y81.282 E.00298
G1 X95.36 Y88.212 E.21729
G1 X94.941 Y88.096 E.01363
G1 X94.941 Y81.282 E.21365
G1 X94.522 Y81.282 E.01314
G1 X94.522 Y88.003 E.21073
G1 X94.103 Y87.934 E.01331
G1 X94.103 Y81.282 E.20857
G1 X93.684 Y81.282 E.01314
G1 X93.684 Y87.887 E.2071
G1 X93.265 Y87.858 E.01317
G1 X93.265 Y81.282 E.20619
G1 X92.846 Y81.282 E.01314
G1 X92.846 Y87.846 E.20581
G1 X92.427 Y87.858 E.01314
G1 X92.427 Y81.282 E.20619
G1 X92.008 Y81.282 E.01314
G1 X92.008 Y87.887 E.2071
M73 P2 R25
G1 X91.589 Y87.934 E.01322
G1 X91.589 Y81.282 E.20857
G1 X91.17 Y81.282 E.01314
G1 X91.17 Y88.003 E.21073
M73 P3 R25
M73 Q3 S26
G1 X90.751 Y88.096 E.01346
G1 X90.751 Y81.282 E.21365
G1 X90.332 Y81.282 E.01314
G1 X90.332 Y88.212 E.21729
G1 X89.913 Y88.341 E.01375
G1 X89.913 Y81.282 E.22133
G1 X89.494 Y81.282 E.01314
G1 X89.494 Y88.503 E.22641
G1 X89.075 Y88.686 E.01434
G1 X89.075 Y81.282 E.23215
G1 X88.656 Y81.282 E.01314
G1 X88.656 Y88.895 E.2387
G1 X88.237 Y89.135 E.01514
G1 X88.237 Y81.282 E.24623
G1 X87.818 Y81.282 E.01314
G1 X87.818 Y89.407 E.25475
G1 X87.399 Y89.708 E.01618
G1 X87.399 Y81.282 E.26419
G1 X86.98 Y81.282 E.01314
G1 X86.98 Y90.055 E.27507
G1 X86.561 Y90.452 E.0181
G1 X86.561 Y81.282 E.28752
G1 X86.142 Y81.282 E.01314
G1 X86.142 Y90.9 E.30157
G1 X85.723 Y91.42 E.02094
G1 X85.723 Y81.282 E.31787
G1 X85.304 Y81.282 E.01314
G1 X85.304 Y92.03 E.337
G1 X84.885 Y92.784 E.02705
G1 X84.885 Y81.282 E.36064
G1 X84.466 Y81.282 E.01314
G1 X84.466 Y94.327 E.40902
M204 S1000
;WIPE_START
G1 F8640
G1 X84.466 Y89.996 E-1
;WIPE_END
G1 Z.4 F720
G1 X101.225 Y109.849 F10800
G1 Z.2 F720
G1 E1 F2100
M204 S800
G1 F1200
G1 X101.225 Y99.705 E.31806
G1 X100.806 Y100.694 E.03368
M73 Q3 S25
G1 X100.806 Y109.679 E.28172
G1 X100.387 Y109.679 E.01314
G1 X100.387 Y101.442 E.25827
G1 X99.968 Y102.055 E.02328
G1 X99.968 Y109.679 E.23905
G1 X99.549 Y109.679 E.01314
G1 X99.549 Y102.576 E.22271
G1 X99.13 Y103.023 E.01921
G1 X99.13 Y109.679 E.20869
G1 X98.711 Y109.679 E.01314
G1 X98.711 Y103.415 E.1964
G1 X98.292 Y103.766 E.01714
G1 X98.292 Y109.679 E.1854
G1 X97.873 Y109.679 E.01314
G1 X97.873 Y104.069 E.1759
G1 X97.454 Y104.339 E.01563
G1 X97.454 Y109.679 E.16743
G1 X97.035 Y109.679 E.01314
G1 X97.035 Y104.577 E.15997
G1 X96.617 Y104.788 E.01468
G1 X96.617 Y109.679 E.15335
G1 X96.198 Y109.679 E.01314
G1 X96.198 Y104.97 E.14765
G1 X95.779 Y105.132 E.01409
G1 X95.779 Y109.679 E.14257
G1 X95.36 Y109.679 E.01314
G1 X95.36 Y105.264 E.13843
G1 X94.941 Y105.376 E.0136
G1 X94.941 Y109.679 E.13492
G1 X94.522 Y109.679 E.01314
G1 X94.522 Y105.469 E.132
G1 X94.103 Y105.539 E.01332
G1 X94.103 Y109.679 E.12981
G1 X93.684 Y109.679 E.01314
G1 X93.684 Y105.586 E.12833
G1 X93.265 Y105.615 E.01317
G1 X93.265 Y109.679 E.12742
G1 X92.846 Y109.679 E.01314
G1 X92.846 Y105.624 E.12714
G1 X92.427 Y105.615 E.01314
G1 X92.427 Y109.679 E.12742
G1 X92.008 Y109.679 E.01314
G1 X92.008 Y105.587 E.1283
G1 X91.589 Y105.539 E.01322
G1 X91.589 Y109.679 E.12981
G1 X91.17 Y109.679 E.01314
M73 P4 R25
M73 Q4 S25
G1 X91.17 Y105.469 E.132
G1 X90.751 Y105.376 E.01346
G1 X90.751 Y109.679 E.13492
G1 X90.332 Y109.679 E.01314
G1 X90.332 Y105.264 E.13843
G1 X89.913 Y105.132 E.01377
G1 X89.913 Y109.679 E.14257
G1 X89.494 Y109.679 E.01314
G1 X89.494 Y104.97 E.14765
G1 X89.075 Y104.788 E.01432
G1 X89.075 Y109.679 E.15335
G1 X88.656 Y109.679 E.01314
G1 X88.656 Y104.577 E.15997
G1 X88.237 Y104.339 E.01511
G1 X88.237 Y109.679 E.16743
G1 X87.818 Y109.679 E.01314
G1 X87.818 Y104.069 E.1759
G1 X87.399 Y103.766 E.01621
G1 X87.399 Y109.679 E.1854
G1 X86.98 Y109.679 E.01314
G1 X86.98 Y103.416 E.19637
G1 X86.561 Y103.023 E.01801
G1 X86.561 Y109.679 E.20869
G1 X86.142 Y109.679 E.01314
G1 X86.142 Y102.576 E.22271
G1 X85.723 Y102.055 E.02096
G1 X85.723 Y109.679 E.23905
G1 X85.304 Y109.679 E.01314
G1 X85.304 Y101.442 E.25827
G1 X84.885 Y100.694 E.02688
G1 X84.885 Y109.679 E.28172
G1 X84.466 Y109.679 E.01314
G1 X84.466 Y99.147 E.33022
M204 S1000
G1 X84.047 Y109.849 F10800
M204 S800
G1 F1200
G1 X84.047 Y81.282 E.8957
G1 X83.628 Y81.282 E.01314
G1 X83.628 Y109.679 E.89037
G1 X83.283 Y109.679 E.01082
G1 X83.283 Y107.361 E.07268
G1 X83.209 Y107.361 E.00232
G1 X83.209 Y81.282 E.81769
G1 X82.79 Y81.282 E.01314
G1 X82.79 Y107.361 E.81769
G1 X82.371 Y107.361 E.01314
G1 X82.371 Y81.282 E.81769
G1 X81.952 Y81.282 E.01314
G1 X81.952 Y107.361 E.81769
G1 X81.533 Y107.361 E.01314
G1 X81.533 Y81.282 E.81769
G1 X81.114 Y81.282 E.01314
G1 X81.114 Y107.361 E.81769
G1 X80.965 Y107.361 E.00467
M73 P5 R25
M73 Q5 S25
G1 X80.965 Y105.043 E.07268
G1 X80.695 Y105.043 E.00847
G1 X80.695 Y81.282 E.74501
G1 X80.276 Y81.282 E.01314
G1 X80.276 Y105.043 E.74501
G1 X79.857 Y105.043 E.01314
G1 X79.857 Y81.282 E.74501
G1 X79.438 Y81.282 E.01314
G1 X79.438 Y105.043 E.74501
G1 X79.019 Y105.043 E.01314
G1 X79.019 Y81.112 E.75034
M204 S1000
;WIPE_START
G1 F8640
G1 X79.019 Y85.443 E-1
;WIPE_END
G1 Z.4 F720
G1 X88.195 Y91.141 F10800
G1 Z.2 F720
G1 E1 F2100
M204 S800
;TYPE:Perimeter
;WIDTH:0.419999
G1 F1200
G1 X88.448 Y90.928 E.01037
G1 X88.916 Y90.602 E.01788
G1 X89.635 Y90.198 E.02586
G1 X90.101 Y90.002 E.01585
G1 X90.8 Y89.753 E.02327
G1 X91.49 Y89.588 E.02224
G1 X92.238 Y89.483 E.02368
G1 X92.801 Y89.454 E.01768
G1 X93.91 Y89.53 E.03485
G1 X94.593 Y89.665 E.02183
G1 X95.249 Y89.859 E.02145
G1 X95.973 Y90.158 E.02456
G1 X96.511 Y90.456 E.01928
G1 X97.026 Y90.776 E.01901
G1 X97.582 Y91.213 E.02217
G1 X98.055 Y91.651 E.02021
G1 X98.514 Y92.161 E.02151
G1 X98.971 Y92.796 E.02453
G1 X99.309 Y93.382 E.02121
G1 X99.634 Y94.095 E.02457
G1 X99.828 Y94.705 E.02007
G1 X99.984 Y95.305 E.01944
G1 X100.085 Y95.935 E.02001
G1 X100.113 Y96.695 E.02385
G1 X100.091 Y97.494 E.02506
G1 X100.022 Y97.995 E.01586
G1 X99.919 Y98.485 E.0157
G1 X99.681 Y99.249 E.02509
G1 X99.384 Y99.946 E.02376
G1 X99.115 Y100.447 E.01783
G1 X98.63 Y101.162 E.02709
G1 X98.3 Y101.564 E.01631
G1 X97.736 Y102.137 E.02521
G1 X97.297 Y102.505 E.01796
G1 X96.693 Y102.922 E.02301
G1 X96.059 Y103.274 E.02274
G1 X95.251 Y103.613 E.02747
G1 X94.454 Y103.842 E.026
G1 X93.907 Y103.944 E.01745
G1 X93.112 Y104.015 E.02503
G1 X92.579 Y104.014 E.01671
G1 X91.784 Y103.944 E.02502
G1 X91.237 Y103.842 E.01745
G1 X90.472 Y103.624 E.02494
G1 X89.718 Y103.315 E.02555
G1 X88.997 Y102.921 E.02576
G1 X88.395 Y102.505 E.02294
G1 X87.955 Y102.137 E.01798
G1 X87.394 Y101.567 E.02508
G1 X86.948 Y101.007 E.02245
G1 X86.553 Y100.407 E.02252
G1 X86.31 Y99.951 E.0162
G1 X85.925 Y99.012 E.03182
G1 X85.776 Y98.495 E.01687
G1 X85.643 Y97.813 E.02179
G1 X85.581 Y97.238 E.01813
G1 X85.591 Y96.137 E.03452
G1 X85.671 Y95.479 E.02078
G1 X85.774 Y94.984 E.01585
G1 X85.952 Y94.386 E.01956
G1 X86.236 Y93.678 E.02392
G1 X86.555 Y93.061 E.02178
G1 X86.867 Y92.576 E.01808
G1 X87.243 Y92.083 E.01944
G1 X87.889 Y91.398 E.02952
G1 X88.149 Y91.179 E.01066
M204 S1000
G1 X87.95 Y90.854 F10800
M204 S800
;TYPE:External perimeter
G1 F1200
G1 X88.218 Y90.629 E.01097
G1 X88.716 Y90.282 E.01903
G1 X89.469 Y89.858 E.0271
G1 X89.955 Y89.655 E.01651
G1 X90.693 Y89.392 E.02456
G1 X91.417 Y89.218 E.02335
G1 X92.2 Y89.108 E.02479
G1 X92.808 Y89.076 E.01909
G1 X93.959 Y89.155 E.03617
G1 X94.683 Y89.298 E.02314
G1 X95.375 Y89.503 E.02263
G1 X96.137 Y89.818 E.02585
G1 X96.976 Y90.282 E.03006
G1 X97.474 Y90.629 E.01903
G1 X98.064 Y91.126 E.02419
G1 X98.481 Y91.545 E.01853
G1 X98.811 Y91.927 E.01583
G1 X99.288 Y92.591 E.02563
G1 X99.645 Y93.209 E.02238
G1 X99.987 Y93.96 E.02587
G1 X100.187 Y94.591 E.02075
G1 X100.353 Y95.228 E.02064
G1 X100.461 Y95.902 E.0214
G1 X100.49 Y96.681 E.02444
G1 X100.466 Y97.532 E.02669
G1 X100.393 Y98.06 E.01671
G1 X100.285 Y98.58 E.01665
G1 X100.036 Y99.379 E.02624
G1 X99.724 Y100.11 E.02492
G1 X99.437 Y100.643 E.01898
G1 X98.933 Y101.388 E.0282
G1 X98.581 Y101.816 E.01738
G1 X97.992 Y102.414 E.02632
G1 X97.526 Y102.805 E.01907
G1 X96.892 Y103.243 E.02416
G1 X96.224 Y103.614 E.02396
G1 X95.376 Y103.97 E.02884
G1 X94.541 Y104.209 E.02723
G1 X93.959 Y104.318 E.01857
G1 X93.129 Y104.392 E.02613
G1 X92.562 Y104.392 E.01778
G1 X91.733 Y104.318 E.0261
G1 X91.151 Y104.209 E.01857
G1 X90.348 Y103.981 E.02617
G1 X89.556 Y103.656 E.02684
G1 X88.798 Y103.243 E.02707
G1 X88.167 Y102.805 E.02408
G1 X87.7 Y102.414 E.0191
G1 X87.112 Y101.817 E.02627
G1 X86.642 Y101.229 E.0236
G1 X86.228 Y100.6 E.02361
G1 X85.968 Y100.111 E.01736
G1 X85.568 Y99.136 E.03304
G1 X85.409 Y98.584 E.01801
G1 X85.27 Y97.869 E.02284
G1 X85.204 Y97.261 E.01918
G1 X85.197 Y96.683 E.01812
G1 X85.215 Y96.108 E.01804
G1 X85.3 Y95.414 E.02192
G1 X85.408 Y94.891 E.01674
G1 X85.596 Y94.262 E.02058
G1 X85.892 Y93.52 E.02505
G1 X86.229 Y92.872 E.0229
G1 X86.558 Y92.359 E.01911
G1 X86.955 Y91.839 E.02051
G1 X87.629 Y91.124 E.03081
G1 X87.904 Y90.892 E.01128
M204 S1000
;WIPE_START
G1 F8640
G1 X87.95 Y90.854 E-.01378
G1 X88.218 Y90.629 E-.0808
G1 X88.716 Y90.282 E-.14015
G1 X89.469 Y89.858 E-.19954
G1 X89.955 Y89.655 E-.12161
G1 X90.693 Y89.392 E-.1809
G1 X91.417 Y89.218 E-.17193
G1 X91.809 Y89.163 E-.09129
;WIPE_END
G1 Z.4 F720
G1 X98.873 Y92.927 F10800
G1 Z.2 F720
G1 E1 F2100
M204 S800
;TYPE:Solid infill
;WIDTH:0.429218
G1 F1200
G1 X97.55 Y91.605 E.06008
G1 X97.049 Y91.183 E.02104
G1 X96.607 Y90.875 E.0173
G1 X95.862 Y90.463 E.02735
G1 X99.104 Y93.705 E.14727
G1 X99.335 Y94.211 E.01787
G1 X99.461 Y94.608 E.01338
G1 X94.961 Y90.108 E.20442
G1 X94.516 Y89.977 E.0149
G1 X94.226 Y89.919 E.0095
G1 X99.668 Y95.362 E.24723
G1 X99.767 Y96.006 E.02093
G1 X93.589 Y89.829 E.28062
G1 X93.003 Y89.789 E.01887
