; generated by PrusaSlicer 2.9.4 on 2026-06-01 at 16:57:40 UTC


;
;
; 

; external perimeters extrusion width = 0.45mm
; perimeters extrusion width = 0.45mm
; infill extrusion width = 0.45mm
; solid infill extrusion width = 0.45mm
; top infill extrusion width = 0.40mm
; support material extrusion width = 0.35mm
; first layer extrusion width = 0.42mm

M73 P0 R3
M73 Q0 S3
M201 X1000 Y1000 Z200 E5000 ; sets maximum accelerations, mm/sec^2
M203 X200 Y200 Z12 E120 ; sets maximum feedrates, mm / sec
M204 S1250 T1250 ; sets acceleration (S) and retract acceleration (R), mm/sec^2
M205 X8.00 Y8.00 Z0.40 E4.50 ; sets the jerk limits, mm/sec
M205 S0 T0 ; sets the minimum extruding and travel feed rate, mm/sec

; printing object Coupler.stl id:0 copy 0
; stop printing object Coupler.stl id:0 copy 0

;TYPE:Custom
M862.3 P "MK3S" ; printer model check
M862.1 P0.4 ; nozzle diameter check
M115 U3.14.1 ; tell printer latest fw version
G90 ; use absolute coordinates
M83 ; extruder relative mode
M104 S250 ; set extruder temp
M140 S85 ; set bed temp
M190 S85 ; wait for bed temp
M109 S250 ; wait for extruder temp
G28 W ; home all without mesh bed level
G80 X116.979 Y96.9199 W16.0416 H20.6772 ; mesh bed levelling

G1 Z0.2 F720
G1 Y-3 F1000 ; go outside print area
G92 E0
G1 X60 E9 F1000 ; intro line
G1 X100 E12.5 F1000 ; intro line
M73 P1 R3
M73 Q1 S3

G92 E0
M221 S95

; Don't change E values below. Excessive value can damage the printer.
M907 E430 ; set extruder motor current
G21 ; set units to millimeters
G90 ; use absolute coordinates
M83 ; use relative distances for extrusion

M900 K0.08 ; Filament gcode LA 1.5
M900 K45 ; Filament gcode LA 1.0




M107
;LAYER_CHANGE
;Z:0.2
;HEIGHT:0.2
G1 E-1 F2100
M73 P2 R3
M73 Q2 S3
G1 Z.4 F720
G1 X117.56 Y98.311 F10800
G1 Z.2 F720
M73 P3 R3
M73 Q3 S3
G1 E1 F2100
M204 S800
;TYPE:Skirt/Brim
;WIDTH:0.42
G1 F1200
G1 X118.617 Y97.364 E.0445
G1 X119.733 Y97.108 E.0359
G1 X130.267 Y97.108 E.33029
G1 X131.63 Y97.501 E.04448
G1 X132.576 Y98.557 E.04445
G1 X132.832 Y99.674 E.03593
G1 X132.832 Y114.843 E.47561
G1 X132.44 Y116.206 E.04447
M73 P4 R3
M73 Q4 S3
G1 X131.383 Y117.153 E.0445
G1 X130.267 Y117.408 E.03589
G1 X119.733 Y117.408 E.33029
G1 X118.37 Y117.016 E.04447
G1 X117.424 Y115.96 E.04445
G1 X117.168 Y114.843 E.03593
G1 X117.168 Y99.674 E.47561
G1 X117.543 Y98.368 E.0426
M73 Q5 S3
M204 S1000
G1 X117.917 Y98.485 F10800
M204 S800
G1 F1200
G1 X117.936 Y98.426 E.00194
G1 X118.969 Y97.623 E.04102
G1 X119.733 Y97.485 E.02434
M73 P5 R3
G1 X130.267 Y97.485 E.33029
G1 X131.515 Y97.876 E.04101
G1 X132.317 Y98.909 E.041
G1 X132.455 Y99.674 E.02437
G1 X132.455 Y114.843 E.47561
G1 X132.064 Y116.091 E.04101
G1 X131.031 Y116.893 E.041
G1 X130.267 Y117.031 E.02434
G1 X119.733 Y117.031 E.33029
G1 X118.485 Y116.641 E.041
M73 P6 R3
M73 Q6 S3
G1 X117.683 Y115.608 E.041
G1 X117.545 Y114.843 E.02437
G1 X117.545 Y99.674 E.47561
G1 X117.899 Y98.543 E.03716
M204 S1000
;WIPE_START
G1 F8640
G1 X117.917 Y98.485 E-.01402
G1 X117.936 Y98.426 E-.01431
G1 X118.969 Y97.623 E-.30211
G1 X119.733 Y97.485 E-.17926
G1 X121.856 Y97.485 E-.4903
;WIPE_END
G1 Z.4 F720
; printing object Coupler.stl id:0 copy 0
G1 X122.761 Y99.681 F10800
G1 Z.2 F720
G1 E1 F2100
M204 S800
;TYPE:Support material
G1 F1200
G1 X122.436 Y100.306 E.02209
G1 X122.283 Y100.975 E.02152
G1 X122.302 Y101.673 E.02189
G1 X122.576 Y101.92 E.01157
G1 X123.91 Y101.92 E.04183
G1 X124.197 Y101.59 E.01371
G1 X124.182 Y101.037 E.01735
G1 X124.477 Y100.531 E.01836
G1 X124.43 Y100.152 E.01197
G1 X124.272 Y100.021 E.00644
M73 Q7 S3
G1 X124.556 Y99.923 E.00942
G1 X125 Y100.693 E.02787
G1 X125.443 Y99.925 E.0278
G1 X125.727 Y100.023 E.00942
G1 X125.57 Y100.152 E.00637
G1 X125.523 Y100.531 E.01197
G1 X125.818 Y101.037 E.01836
G1 X125.803 Y101.59 E.01735
G1 X126.09 Y101.92 E.01371
G1 X127.424 Y101.92 E.04183
G1 X127.698 Y101.673 E.01157
M73 P7 R3
G1 X127.716 Y100.972 E.02199
G1 X127.557 Y100.287 E.02205
G1 X127.234 Y99.674 E.02173
G1 X130.267 Y99.674 E.0951
G1 X130.267 Y114.843 E.47561
G1 X119.733 Y114.843 E.33029
G1 X119.733 Y99.674 E.47561
G1 X122.718 Y99.674 E.09359
M73 P8 R3
M73 Q8 S3
M204 S1000
;WIPE_START
G1 F8640
G1 X119.733 Y99.674 E-.68924
G1 X119.733 Y101.02 E-.31076
;WIPE_END
G1 Z.4 F720
G1 X124.877 Y106.629 F10800
G1 Z.2 F720
G1 E1 F2100
M204 S800
G1 F1200
G1 X125.361 Y106.68 E.01526
G1 X125.767 Y106.906 E.01457
G1 X126.066 Y107.287 E.01519
G1 X126.178 Y107.635 E.01146
G1 X126.157 Y108.076 E.01384
G1 X125.884 Y108.604 E.01864
G1 X125.532 Y108.87 E.01383
G1 X125.184 Y108.987 E.01151
G1 X124.742 Y108.969 E.01387
G1 X124.222 Y108.709 E.01823
G1 X123.95 Y108.361 E.01385
G1 X123.826 Y108.01 E.01167
G1 X123.845 Y107.541 E.01472
G1 X124.094 Y107.044 E.01743
G1 X124.475 Y106.744 E.0152
G1 X124.82 Y106.635 E.01134
M204 S1000
;WIPE_START
G1 F8640
G1 X124.475 Y106.744 E-.08354
G1 X124.094 Y107.044 E-.11197
G1 X123.845 Y107.541 E-.12836
G1 X123.826 Y108.01 E-.10838
G1 X123.95 Y108.361 E-.08596
G1 X124.222 Y108.709 E-.10199
G1 X124.742 Y108.969 E-.13424
G1 X125.184 Y108.987 E-.10214
G1 X125.532 Y108.87 E-.08477
G1 X125.735 Y108.717 E-.05865
;WIPE_END
G1 Z.4 F720
G1 X129.609 Y114.673 F10800
G1 Z.2 F720
G1 E1 F2100
M204 S800
G1 F1200
G1 X129.609 Y100.013 E.45965
G1 X129.19 Y100.013 E.01314
M73 P9 R3
M73 Q9 S3
G1 X129.19 Y114.504 E.45436
G1 X128.771 Y114.504 E.01314
G1 X128.771 Y100.013 E.45436
G1 X128.352 Y100.013 E.01314
M73 Q10 S3
G1 X128.352 Y114.504 E.45436
G1 X127.933 Y114.504 E.01314
M73 P10 R3
G1 X127.933 Y99.844 E.45965
M204 S1000
G1 X127.514 Y114.673 F10800
M204 S800
G1 F1200
G1 X127.514 Y102.259 E.38923
G1 X127.095 Y102.259 E.01314
M73 P11 R3
M73 Q11 S3
G1 X127.095 Y114.504 E.38393
G1 X126.676 Y114.504 E.01314
G1 X126.676 Y102.259 E.38393
G1 X126.257 Y102.259 E.01314
G1 X126.257 Y106.96 E.1474
G1 X125.838 Y106.545 E.01849
G1 X125.838 Y102.147 E.1379
G1 X125.446 Y101.697 E.01871
M73 Q12 S3
G1 X125.504 Y101.231 E.01472
G1 X125.419 Y100.963 E.00882
G1 X125.419 Y106.344 E.16872
G1 X125 Y106.289 E.01325
M73 P12 R3
G1 X125 Y101.372 E.15417
G1 X124.684 Y100.824 E.01983
G1 X124.581 Y100.963 E.00542
G1 X124.581 Y106.344 E.16872
G1 X124.162 Y106.545 E.01457
G1 X124.162 Y102.147 E.1379
G1 X124.064 Y102.259 E.00467
G1 X123.743 Y102.259 E.01006
G1 X123.743 Y106.96 E.1474
G1 X123.589 Y107.222 E.00953
G1 X123.476 Y107.677 E.0147
G1 X123.516 Y108.168 E.01545
G1 X123.743 Y108.66 E.01699
G1 X123.743 Y114.504 E.18323
G1 X124.162 Y114.504 E.01314
G1 X124.162 Y109.075 E.17022
G1 X124.581 Y109.273 E.01453
M73 Q13 S3
G1 X124.581 Y114.504 E.16401
G1 X125 Y114.504 E.01314
M73 P13 R3
G1 X125 Y109.334 E.1621
G1 X125.419 Y109.273 E.01328
G1 X125.419 Y114.504 E.16401
G1 X125.838 Y114.504 E.01314
G1 X125.838 Y109.075 E.17022
G1 X126.257 Y108.66 E.01849
G1 X126.257 Y114.673 E.18853
M204 S1000
G1 X123.324 Y114.673 F10800
M204 S800
G1 F1200
G1 X123.324 Y102.259 E.38923
G1 X122.905 Y102.259 E.01314
M73 P14 R3
M73 Q14 S3
G1 X122.905 Y114.504 E.38393
G1 X122.486 Y114.504 E.01314
G1 X122.486 Y102.067 E.38995
M204 S1000
G1 X122.067 Y114.673 F10800
M204 S800
G1 F1200
G1 X122.067 Y100.013 E.45965
G1 X121.648 Y100.013 E.01314
M73 P15 R3
M73 Q15 S3
G1 X121.648 Y114.504 E.45436
G1 X121.229 Y114.504 E.01314
M73 P15 R2
G1 X121.229 Y100.013 E.45436
G1 X120.81 Y100.013 E.01314
M73 Q15 S2
G1 X120.81 Y114.504 E.45436
G1 X120.391 Y114.504 E.01314
M73 P16 R2
M73 Q16 S2
G1 X120.391 Y99.844 E.45965
M204 S1000
;WIPE_START
G1 F8640
G1 X120.391 Y104.175 E-1
;WIPE_END
G1 Z.4 F720
G1 X125.032 Y107.754 F10800
G1 Z.2 F720
G1 E1 F2100
M204 S800
;TYPE:Perimeter
;WIDTH:0.624514
G1 F1200
G1 X124.959 Y107.754 E.00353
G1 X124.922 Y107.817 E.00353
G1 X124.959 Y107.879 E.00349
G1 X125.032 Y107.879 E.00353
G1 X125.068 Y107.817 E.00347
M204 S1000
G1 X124.932 Y107.341 F10800
M204 S800
;TYPE:External perimeter
;WIDTH:0.419999
G1 F1200
G1 X125.204 Y107.362 E.00855
G1 X125.356 Y107.471 E.00586
G1 X125.421 Y107.597 E.00445
G1 X125.491 Y107.889 E.00941
G1 X125.397 Y108.092 E.00701
G1 X125.203 Y108.26 E.00805
G1 X124.932 Y108.304 E.00861
G1 X124.649 Y108.162 E.00993
G1 X124.513 Y107.906 E.00909
G1 X124.526 Y107.682 E.00704
G1 X124.663 Y107.45 E.00845
G1 X124.86 Y107.336 E.00714
G1 X124.872 Y107.337 E.00038
M204 S1000
;WIPE_START
G1 F8640
G1 X124.932 Y107.341 E-.01388
G1 X125.204 Y107.362 E-.06299
G1 X125.356 Y107.471 E-.04319
G1 X125.421 Y107.597 E-.03274
G1 X125.491 Y107.889 E-.06933
G1 X125.397 Y108.092 E-.05165
G1 X125.203 Y108.26 E-.05926
G1 X124.932 Y108.304 E-.06339
G1 X124.649 Y108.162 E-.07311
M73 Q17 S2
G1 X124.513 Y107.906 E-.06693
G1 X124.526 Y107.682 E-.05181
G1 X124.663 Y107.45 E-.06221
G1 X124.86 Y107.336 E-.05256
G1 X124.872 Y107.337 E-.00278
;WIPE_END
G1 E-.29417 F2100
G1 Z.4 F720
G1 X123.002 Y101.186 F10800
G1 Z.2 F720
M73 P17 R2
G1 E1 F2100
M204 S800
;WIDTH:0.481924
G1 F1200
G1 X123.003 Y101.056 E.00475
;WIDTH:0.486913
G1 X123.116 Y100.566 E.01856
G1 X123.313 Y100.165 E.01649
;WIDTH:0.482065
G1 X123.658 Y100.45 E.01634
G1 X123.54 Y100.694 E.0099
;WIDTH:0.486913
G1 X123.437 Y101.177 E.01823
;WIDTH:0.481924
G1 X123.049 Y101.196 E.01418
M204 S1000
;WIPE_START
G1 F8640
G1 X123.002 Y101.186 E-.0111
G1 X123.003 Y101.056 E-.03002
G1 X123.116 Y100.566 E-.11611
G1 X123.313 Y100.165 E-.10316
G1 X123.658 Y100.45 E-.10333
G1 X123.54 Y100.694 E-.06258
G1 X123.437 Y101.177 E-.11403
G1 X123.049 Y101.196 E-.0897
;WIPE_END
G1 E-.36997 F2100
G1 Z.4 F720
G1 X126.684 Y100.181 F10800
G1 Z.2 F720
G1 E1 F2100
M204 S800
;WIDTH:0.484405
G1 F1200
G1 X126.807 Y100.377 E.00849
G1 X126.925 Y100.683 E.01204
;WIDTH:0.484559
G1 X126.997 Y101.197 E.01906
G1 X126.588 Y101.197 E.01502
G1 X126.523 Y100.884 E.01174
;WIDTH:0.484405
G1 X126.344 Y100.45 E.01723
G1 X126.64 Y100.205 E.01411
M204 S1000
;LAYER_CHANGE
;Z:0.35
;HEIGHT:0.15
;BEFORE_LAYER_CHANGE
G92 E0.0
;0.35


;WIPE_START
G1 F8640
G1 X126.684 Y100.181 E-.01157
G1 X126.807 Y100.377 E-.05343
G1 X126.925 Y100.683 E-.07573
G1 X126.997 Y101.197 E-.11984
G1 X126.588 Y101.197 E-.09444
G1 X126.523 Y100.884 E-.07381
G1 X126.344 Y100.45 E-.1084
G1 X126.64 Y100.205 E-.08872
;WIPE_END
G1 E-.37406 F2100
G1 Z.35 F720
;AFTER_LAYER_CHANGE
;0.35
M140 S90 ; set bed temperature
; stop printing object Coupler.stl id:0 copy 0
G1 Z.55
G1 X126.64 Y97.108 F10800
G1 Z.35 F720
G1 E1 F2100
;TYPE:Skirt/Brim
;WIDTH:0.42
G1 F900
G1 X130.267 Y97.108 E.08772
G1 X131.63 Y97.501 E.03431
G1 X132.576 Y98.557 E.03429
G1 X132.832 Y99.674 E.02771
G1 X132.832 Y114.843 E.36686
G1 X132.44 Y116.206 E.0343
M73 P18 R2
M73 Q18 S2
G1 X131.383 Y117.153 E.03432
G1 X130.267 Y117.408 E.02769
G1 X119.733 Y117.408 E.25476
G1 X118.37 Y117.016 E.0343
G1 X117.424 Y115.96 E.03429
G1 X117.168 Y114.843 E.02771
M73 Q19 S2
G1 X117.168 Y99.674 E.36686
G1 X117.56 Y98.311 E.0343
M73 P19 R2
G1 X118.617 Y97.364 E.03432
G1 X119.733 Y97.108 E.02769
G1 X126.58 Y97.108 E.16559
G1 X126.58 Y97.485 F10800
G1 F900
G1 X130.267 Y97.485 E.08917
G1 X131.515 Y97.876 E.03163
G1 X132.317 Y98.909 E.03163
M73 Q20 S2
G1 X132.455 Y99.674 E.0188
G1 X132.455 Y114.843 E.36686
G1 X132.064 Y116.091 E.03163
M73 P20 R2
G1 X131.031 Y116.893 E.03163
G1 X130.267 Y117.031 E.01878
G1 X119.733 Y117.031 E.25476
G1 X118.485 Y116.641 E.03162
M73 Q21 S2
G1 X117.683 Y115.608 E.03163
G1 X117.545 Y114.843 E.0188
G1 X117.545 Y99.674 E.36686
M73 P21 R2
G1 X117.936 Y98.426 E.03163
G1 X118.969 Y97.623 E.03164
G1 X119.733 Y97.485 E.01878
G1 X126.52 Y97.485 E.16414
;WIPE_START
G1 F8640
G1 X126.58 Y97.485 E-.01385
G1 X130.267 Y97.485 E-.85134
G1 X130.824 Y97.66 E-.13481
;WIPE_END
G1 Z.55 F720
; printing object Coupler.stl id:0 copy 0
G1 X124.924 Y107.339 F10800
G1 Z.35 F720
M73 Q22 S2
G1 E1 F2100
M73 P22 R2
M204 S800
;TYPE:Perimeter
;WIDTH:0.449999
G1 F900
G1 X125.032 Y107.32 E.00286
G1 X125.242 Y107.387 E.00574
G1 X125.447 Y107.608 E.00785
G1 X125.482 Y107.839 E.00609
G1 X125.38 Y108.126 E.00794
G1 X125.21 Y108.257 E.00559
G1 X124.966 Y108.294 E.00643
G1 X124.699 Y108.202 E.00736
G1 X124.561 Y108.035 E.00564
G1 X124.519 Y107.771 E.00697
G1 X124.619 Y107.496 E.00762
G1 X124.792 Y107.363 E.00569
G1 X124.865 Y107.35 E.00193
M204 S1000
G1 X124.879 Y106.911 F10800
M204 S800
;TYPE:External perimeter
G1 F900
G1 X124.889 Y106.909 E.00027
M204 S1000
;TYPE:Overhang perimeter
G1 X124.935 Y106.897 E.00124
G1 X125.007 Y106.909 E.0019
M204 S800
;TYPE:External perimeter
G1 X125.293 Y106.953 E.00754
M204 S1000
;TYPE:Overhang perimeter
G1 X125.351 Y106.962 E.00153
G1 X125.592 Y107.112 E.0074
G1 X125.615 Y107.143 E.00101
M204 S800
;TYPE:External perimeter
G1 X125.751 Y107.318 E.00577
M204 S1000
;TYPE:Overhang perimeter
G1 X125.83 Y107.419 E.00334
G1 X125.86 Y107.536 E.00315
M204 S800
;TYPE:External perimeter
G1 X125.874 Y107.588 E.0014
G1 X125.884 Y108.013 E.01108
M204 S1000
;TYPE:Overhang perimeter
G1 X125.884 Y108.045 E.00083
G1 X125.843 Y108.131 E.00248
M204 S800
;TYPE:External perimeter
G1 X125.812 Y108.193 E.00181
G1 X125.647 Y108.45 E.00796
G1 X125.51 Y108.55 E.00442
M204 S1000
;TYPE:Overhang perimeter
G1 X125.376 Y108.647 E.00431
G1 X125.233 Y108.682 E.00384
M204 S800
;TYPE:External perimeter
G1 X125.104 Y108.714 E.00346
M204 S1000
;TYPE:Overhang perimeter
G1 X125.074 Y108.722 E.00081
G1 X124.979 Y108.714 E.00248
M204 S800
;TYPE:External perimeter
G1 X124.829 Y108.702 E.00392
M204 S1000
;TYPE:Overhang perimeter
G1 X124.78 Y108.699 E.00128
G1 X124.688 Y108.656 E.00265
M204 S800
;TYPE:External perimeter
G1 X124.64 Y108.634 E.00138
G1 X124.382 Y108.478 E.00786
G1 X124.265 Y108.326 E.005
M204 S1000
;TYPE:Overhang perimeter
G1 X124.175 Y108.209 E.00385
G1 X124.143 Y108.089 E.00324
M204 S800
;TYPE:External perimeter
G1 X124.098 Y107.919 E.00458
M204 S1000
;TYPE:Overhang perimeter
G1 X124.089 Y107.888 E.00084
G1 X124.097 Y107.803 E.00222
M204 S800
;TYPE:External perimeter
G1 X124.112 Y107.63 E.00452
M204 S1000
;TYPE:Overhang perimeter
G1 X124.117 Y107.573 E.00149
G1 X124.142 Y107.528 E.00134
M204 S800
;TYPE:External perimeter
G1 X124.334 Y107.193 E.01006
M204 S1000
;TYPE:Overhang perimeter
G1 X124.341 Y107.181 E.00036
G1 X124.36 Y107.167 E.00061
M204 S800
;TYPE:External perimeter
G1 X124.513 Y107.056 E.00493
M204 S1000
;TYPE:Overhang perimeter
G1 X124.625 Y106.973 E.00363
G1 X124.704 Y106.954 E.00212
M204 S800
;TYPE:External perimeter
G1 X124.82 Y106.925 E.00312
M204 S1000
G1 X125.007 Y107.632 F10800
;TYPE:Solid infill
;WIDTH:0.353599
G1 F900
G1 X124.87 Y107.69 E.00298
G1 X124.842 Y107.826 E.00278
G1 X124.886 Y107.941 E.00247
G1 X125.015 Y107.981 E.00271
G1 X125.154 Y107.889 E.00334
G1 X125.157 Y107.735 E.00309
G1 X125.057 Y107.666 E.00244
;WIPE_START
G1 F8640
G1 X125.157 Y107.735 E-.02805
G1 X125.154 Y107.889 E-.03557
G1 X125.015 Y107.981 E-.03849
G1 X124.886 Y107.941 E-.03119
G1 X124.842 Y107.826 E-.02843
G1 X124.87 Y107.69 E-.03206
G1 X125.007 Y107.632 E-.03435
;WIPE_END
G1 E-.77186 F2100
G1 Z.55 F720
G1 X126.685 Y100.166 F10800
G1 Z.35 F720
G1 E1 F2100
M204 S800
;TYPE:External perimeter
;WIDTH:0.47946
G1 F900
G1 X126.809 Y100.365 E.00654
;WIDTH:0.486249
G1 X126.935 Y100.716 E.01056
G1 X127.004 Y101.223 E.01449
;WIDTH:0.485757
G1 X126.992 Y101.44 E.00615
G1 X126.989 Y101.503 E.00178
;WIDTH:0.480575
G1 X126.951 Y101.64 E.00398
M204 S1000
;TYPE:Overhang perimeter
;WIDTH:0.485681
G1 X126.853 Y101.997 E.01047
G1 X126.706 Y102.294 E.00937
;WIDTH:0.480216
G1 X126.378 Y102.692 E.01441
;WIDTH:0.485731
G1 X125.983 Y102.984 E.01389
G1 X125.528 Y103.172 E.01392
;WIDTH:0.481615
G1 X125.011 Y103.244 E.01463
;WIDTH:0.480388
G1 X124.507 Y103.181 E.0142
;WIDTH:0.477993
G1 X124.034 Y103 E.01408
;WIDTH:0.480125
G1 X123.623 Y102.7 E.01421
G1 X123.307 Y102.308 E.01407
;WIDTH:0.477848
G1 X123.106 Y101.901 E.01262
;WIDTH:0.490807
G1 X123.043 Y101.64 E.00768
M204 S800
;TYPE:External perimeter
G1 X123.021 Y101.549 E.00268
;WIDTH:0.486868
G1 X123.014 Y101.44 E.0031
G1 X122.996 Y101.129 E.00883
;WIDTH:0.477931
G1 X123.092 Y100.619 E.01443
;WIDTH:0.479746
G1 X123.312 Y100.152 E.01441
G1 X123.668 Y100.446 E.01289
G1 X123.551 Y100.652 E.00661
;WIDTH:0.477704
G1 X123.441 Y101.155 E.01431
;WIDTH:0.477456
G1 X123.474 Y101.44 E.00797
G1 X123.497 Y101.64 E.00559
M73 Q23 S2
M204 S1000
;TYPE:Overhang perimeter
;WIDTH:0.477445
