; generated by PrusaSlicer 2.9.4 on 2026-06-01 at 16:57:16 UTC


;
;
; 

; external perimeters extrusion width = 0.45mm
; perimeters extrusion width = 0.45mm
; infill extrusion width = 0.45mm
; solid infill extrusion width = 0.45mm
; top infill extrusion width = 0.40mm
; first layer extrusion width = 0.42mm

M73 P0 R5
M73 Q0 S5
M201 X1000 Y1000 Z200 E5000 ; sets maximum accelerations, mm/sec^2
M203 X200 Y200 Z12 E120 ; sets maximum feedrates, mm / sec
M204 S1250 T1250 ; sets acceleration (S) and retract acceleration (R), mm/sec^2
M205 X8.00 Y8.00 Z0.40 E4.50 ; sets the jerk limits, mm/sec
M205 S0 T0 ; sets the minimum extruding and travel feed rate, mm/sec

; printing object ReverseCoupler.stl id:0 copy 0
; stop printing object ReverseCoupler.stl id:0 copy 0

;TYPE:Custom
M862.3 P "MK3S" ; printer model check
M862.1 P0.4 ; nozzle diameter check
M115 U3.14.1 ; tell printer latest fw version
G90 ; use absolute coordinates
M83 ; extruder relative mode
M104 S250 ; set extruder temp
M140 S85 ; set bed temp
M190 S85 ; wait for bed temp
M109 S250 ; wait for extruder temp
G28 W ; home all without mesh bed level
G80 X116.87 Y96.8711 W16.2595 H16.2577 ; mesh bed levelling

G1 Z0.2 F720
G1 Y-3 F1000 ; go outside print area
G92 E0
G1 X60 E9 F1000 ; intro line
G1 X100 E12.5 F1000 ; intro line
M73 P1 R5
M73 Q1 S5

G92 E0
M221 S95

; Don't change E values below. Excessive value can damage the printer.
M907 E430 ; set extruder motor current
G21 ; set units to millimeters
G90 ; use absolute coordinates
M83 ; use relative distances for extrusion

M900 K0.08 ; Filament gcode LA 1.5
M900 K45 ; Filament gcode LA 1.0




M107
;LAYER_CHANGE
;Z:0.2
;HEIGHT:0.2
G1 E-1 F2100
G1 Z.4 F720
G1 X118.571 Y100.338 F10800
G1 Z.2 F720
M73 P2 R5
M73 Q2 S5
G1 E1 F2100
M204 S800
;TYPE:Skirt/Brim
;WIDTH:0.42
G1 F900
G1 X119.556 Y99.218 E.04677
G1 X120.951 Y98.168 E.05474
G1 X122.275 Y97.54 E.04595
G1 X123.871 Y97.139 E.0516
G1 X125.335 Y97.065 E.04596
G1 X126.787 Y97.262 E.04594
G1 X128.459 Y97.851 E.05558
G1 X129.713 Y98.608 E.04593
G1 X130.93 Y99.717 E.05162
G1 X131.813 Y100.919 E.04676
G1 X132.54 Y102.506 E.05473
G1 X132.87 Y103.934 E.04595
G1 X132.932 Y105.398 E.04594
G1 X132.679 Y107.025 E.05163
G1 X132.177 Y108.401 E.04593
G1 X131.429 Y109.662 E.04597
G1 X130.444 Y110.782 E.04677
G1 X129.049 Y111.832 E.05474
G1 X127.725 Y112.46 E.04595
G1 X126.129 Y112.861 E.0516
G1 X124.665 Y112.935 E.04596
G1 X123.213 Y112.738 E.04594
G1 X121.821 Y112.278 E.04597
G1 X120.538 Y111.57 E.04595
G1 X119.192 Y110.417 E.05557
G1 X118.2 Y109.104 E.0516
G1 X117.562 Y107.784 E.04597
M73 Q3 S5
G1 X117.177 Y106.37 E.04595
G1 X117.068 Y104.602 E.05554
G1 X117.321 Y102.975 E.05163
M73 P3 R5
G1 X117.823 Y101.599 E.04593
G1 X118.54 Y100.389 E.0441
M204 S1000
G1 X118.863 Y100.58 F10800
M204 S800
G1 F900
G1 X118.872 Y100.565 E.00055
G1 X119.81 Y99.497 E.04457
G1 X121.149 Y98.489 E.05255
G1 X122.411 Y97.892 E.04377
G1 X123.918 Y97.513 E.04872
G1 X125.312 Y97.442 E.04376
G1 X126.695 Y97.628 E.04375
G1 X128.021 Y98.065 E.04378
G1 X129.244 Y98.738 E.04377
G1 X130.537 Y99.846 E.05339
G1 X131.39 Y100.951 E.04377
G1 X132.082 Y102.341 E.04868
G1 X132.45 Y103.688 E.04378
G1 X132.555 Y105.387 E.05337
G1 X132.317 Y106.922 E.0487
G1 X131.839 Y108.233 E.04375
G1 X131.128 Y109.435 E.04379
G1 X130.19 Y110.503 E.04457
G1 X128.851 Y111.511 E.05255
G1 X127.589 Y112.108 E.04377
G1 X126.082 Y112.487 E.04872
G1 X124.688 Y112.558 E.04376
G1 X123.305 Y112.372 E.04375
G1 X121.979 Y111.935 E.04378
G1 X120.756 Y111.262 E.04377
G1 X119.463 Y110.154 E.05339
G1 X118.527 Y108.915 E.04869
G1 X117.918 Y107.659 E.04377
G1 X117.55 Y106.312 E.04378
G1 X117.445 Y104.613 E.05337
M73 Q4 S5
G1 X117.683 Y103.078 E.0487
G1 X118.161 Y101.767 E.04375
G1 X118.832 Y100.632 E.04134
M73 P4 R5
M204 S1000
G1 X119.155 Y100.822 F10800
M204 S800
G1 F900
G1 X119.172 Y100.792 E.00108
G1 X120.064 Y99.776 E.04239
G1 X121.348 Y98.809 E.0504
G1 X122.548 Y98.243 E.0416
G1 X123.964 Y97.887 E.04578
G1 X125.289 Y97.818 E.0416
G1 X126.902 Y98.068 E.05118
G1 X128.143 Y98.536 E.04159
G1 X129.385 Y99.305 E.0458
G1 X130.357 Y100.208 E.0416
G1 X131.146 Y101.274 E.04158
G1 X131.829 Y102.757 E.05119
G1 X132.125 Y104.05 E.04159
G1 X132.178 Y105.375 E.04158
G1 X131.987 Y106.688 E.0416
G1 X131.501 Y108.065 E.04579
G1 X130.827 Y109.208 E.0416
G1 X129.936 Y110.224 E.04237
G1 X128.652 Y111.191 E.0504
G1 X127.452 Y111.757 E.0416
G1 X126.036 Y112.113 E.04578
G1 X124.711 Y112.182 E.0416
G1 X123.397 Y112.007 E.04156
G1 X122.136 Y111.593 E.04161
G1 X120.974 Y110.954 E.04158
G1 X119.734 Y109.892 E.05119
G1 X118.925 Y108.841 E.04159
G1 X118.274 Y107.534 E.04578
G1 X117.922 Y106.254 E.04162
G1 X117.822 Y104.625 E.05117
G1 X118.046 Y103.182 E.04579
G1 X118.499 Y101.935 E.0416
G1 X119.124 Y100.874 E.03861
M204 S1000
;WIPE_START
G1 F8640
M73 Q5 S5
G1 X119.155 Y100.822 E-.01398
G1 X119.172 Y100.792 E-.00796
G1 X120.064 Y99.776 E-.31218
G1 X121.348 Y98.809 E-.37115
G1 X122.502 Y98.265 E-.29473
;WIPE_END
G1 Z.4 F720
; printing object ReverseCoupler.stl id:0 copy 0
G1 X124.22 Y102.318 F10800
M73 P5 R5
G1 Z.2 F720
G1 E1 F2100
M204 S800
;TYPE:External perimeter
;WIDTH:0.545126
G1 F900
G1 X123.969 Y102.393 E.01094
;WIDTH:0.57841
G1 X123.719 Y102.468 E.01162
M204 S1000
G1 X122.945 Y103.093 F10800
M204 S800
;WIDTH:0.507782
G1 F900
G1 X122.647 Y103.486 E.01906
;WIDTH:0.502266
G1 X122.367 Y104.053 E.02415
;WIDTH:0.498956
G1 X122.241 Y104.552 E.01952
;WIDTH:0.50516
G1 X122.206 Y105.111 E.02153
G1 X122.253 Y105.525 E.01601
;WIDTH:0.50384
G1 X122.435 Y106.116 E.0237
;WIDTH:0.497714
G1 X122.679 Y106.561 E.01919
;WIDTH:0.519814
G1 X122.968 Y106.94 E.0189
;WIDTH:0.565542
G1 X122.982 Y106.983 E.00197
;WIDTH:0.61127
G1 X122.995 Y107.026 E.00212
;WIDTH:0.656998
G1 X123.009 Y107.069 E.00231
;WIDTH:0.702726
G1 X123.023 Y107.112 E.00248
;WIDTH:0.748454
G1 X123.037 Y107.155 E.00265
;WIDTH:0.794182
G1 X123.051 Y107.198 E.00282
;WIDTH:0.83991
G1 X123.064 Y107.241 E.00298
;WIDTH:0.885638
G1 X123.078 Y107.285 E.00324
M204 S1000
;WIPE_START
G1 F8640
G1 X123.064 Y107.241 E-.01066
G1 X123.051 Y107.198 E-.01037
G1 X123.037 Y107.155 E-.01044
G1 X123.023 Y107.112 E-.01044
G1 X123.009 Y107.069 E-.01044
G1 X122.995 Y107.026 E-.01044
G1 X122.982 Y106.983 E-.01037
G1 X122.968 Y106.94 E-.01044
G1 X122.679 Y106.561 E-.11005
G1 X122.435 Y106.116 E-.11718
G1 X122.253 Y105.525 E-.14279
G1 X122.206 Y105.111 E-.09621
G1 X122.241 Y104.552 E-.12933
G1 X122.367 Y104.053 E-.11884
G1 X122.647 Y103.486 E-.14602
G1 X122.794 Y103.293 E-.05598
;WIPE_END
G1 Z.4 F720
G1 X124.222 Y107.685 F10800
G1 Z.2 F720
G1 E1 F2100
M204 S800
;WIDTH:0.529698
G1 F900
G1 X123.899 Y107.59 E.01363
M204 S1000
;WIPE_START
G1 F8640
G1 X124.222 Y107.685 E-.07774
;WIPE_END
G1 E-.92226 F2100
G1 Z.4 F720
G1 X125.78 Y107.682 F10800
G1 Z.2 F720
G1 E1 F2100
M204 S800
;WIDTH:0.545125
G1 F900
G1 X126.031 Y107.607 E.01094
;WIDTH:0.57841
G1 X126.281 Y107.532 E.01162
M204 S1000
G1 X126.922 Y107.285 F10800
M204 S800
;WIDTH:0.885764
G1 F900
G1 X126.94 Y107.235 E.00372
;WIDTH:0.838265
G1 X126.959 Y107.185 E.00354
;WIDTH:0.790766
G1 X126.977 Y107.135 E.0033
;WIDTH:0.743267
G1 X126.996 Y107.086 E.00306
;WIDTH:0.695768
G1 X127.014 Y107.036 E.00288
;WIDTH:0.648269
G1 X127.033 Y106.986 E.00269
;WIDTH:0.60077
G1 X127.051 Y106.936 E.00246
;WIDTH:0.553271
G1 X127.07 Y106.886 E.00227
;WIDTH:0.505772
G1 X127.356 Y106.51 E.01818
;WIDTH:0.501996
G1 X127.563 Y106.122 E.01679
;WIDTH:0.51298
G1 X127.742 Y105.527 E.02429
G1 X127.792 Y105.027 E.01964
;WIDTH:0.498496
G1 X127.753 Y104.505 E.01983
G1 X127.566 Y103.886 E.0245
;WIDTH:0.49772
G1 X127.321 Y103.439 E.01928
;WIDTH:0.507808
G1 X127.055 Y103.093 E.01687
M204 S1000
;WIPE_START
G1 F8640
G1 X127.321 Y103.439 E-.10077
G1 X127.566 Y103.886 E-.1177
G1 X127.753 Y104.505 E-.14931
G1 X127.792 Y105.027 E-.12087
G1 X127.742 Y105.527 E-.11603
G1 X127.563 Y106.122 E-.14347
G1 X127.356 Y106.51 E-.10154
G1 X127.07 Y106.886 E-.10908
G1 X127.051 Y106.936 E-.01235
G1 X127.033 Y106.986 E-.01227
G1 X127.014 Y107.036 E-.01235
G1 X127.008 Y107.053 E-.00426
;WIPE_END
G1 Z.4 F720
G1 X127.89 Y102.477 F10800
G1 Z.2 F720
G1 E1 F2100
M204 S800
;WIDTH:0.490396
G1 F900
G1 X128.061 Y102.435 E.00655
M204 S1000
;WIPE_START
G1 F8640
G1 X127.89 Y102.477 E-.04066
;WIPE_END
G1 E-.95934 F2100
G1 Z.4 F720
G1 X125.778 Y102.315 F10800
G1 Z.2 F720
G1 E1 F2100
M204 S800
;WIDTH:0.529694
G1 F900
G1 X126.101 Y102.41 E.01363
M204 S1000
;WIPE_START
G1 F8640
G1 X125.778 Y102.315 E-.07774
;WIPE_END
G1 E-.92226 F2100
G1 Z.4 F720
G1 X121.321 Y102.213 F10800
G1 Z.2 F720
G1 E1 F2100
M204 S800
;WIDTH:0.727658
G1 F900
G1 X121.347 Y102.141 E.00436
;WIDTH:0.680667
G1 X121.372 Y102.068 E.00409
;WIDTH:0.633675
G1 X121.397 Y101.996 E.00374
;WIDTH:0.586684
G1 X121.423 Y101.923 E.0035
;WIDTH:0.539692
G1 X121.448 Y101.851 E.00315
;WIDTH:0.517568
G1 X121.913 Y101.402 E.02551
G1 X122.628 Y100.885 E.03482
;WIDTH:0.502046
G1 X123.149 Y100.627 E.0222
;WIDTH:0.503666
G1 X123.7 Y100.434 E.02237
;WIDTH:0.50504
G1 X124.272 Y100.309 E.0225
;WIDTH:0.520726
G1 X124.851 Y100.263 E.02308
G1 X125.731 Y100.311 E.03501
;WIDTH:0.52039
G1 X126.297 Y100.442 E.02307
M73 Q6 S5
G1 X126.784 Y100.601 E.02034
;WIDTH:0.498044
G1 X127.345 Y100.871 E.02356
;WIDTH:0.518756
G1 X127.854 Y101.215 E.02431
G1 X128.509 Y101.802 E.0348
;WIDTH:0.502048
G1 X128.599 Y101.913 E.00546
;WIDTH:0.537953
G1 X128.617 Y101.974 E.00262
M73 P6 R5
;WIDTH:0.583278
G1 X128.635 Y102.036 E.0029
;WIDTH:0.628603
G1 X128.653 Y102.097 E.0031
;WIDTH:0.673928
G1 X128.671 Y102.158 E.00334
;WIDTH:0.719252
G1 X128.689 Y102.22 E.00363
G1 X128.756 Y102.271 E.00474
;WIDTH:0.674836
G1 X128.823 Y102.323 E.00446
;WIDTH:0.63042
G1 X128.89 Y102.375 E.00414
;WIDTH:0.586004
G1 X128.957 Y102.427 E.00383
;WIDTH:0.541588
G1 X129.024 Y102.479 E.00352
;WIDTH:0.499172
G1 X129.309 Y103.004 E.02266
G1 X129.522 Y103.548 E.02216
G1 X129.71 Y104.397 E.03299
;WIDTH:0.516854
G1 X129.741 Y104.997 E.02368
G1 X129.66 Y105.875 E.03475
;WIDTH:0.51649
G1 X129.52 Y106.444 E.02307
;WIDTH:0.516668
G1 X129.307 Y106.982 E.02279
G1 X129.047 Y107.485 E.0223
;WIDTH:0.499216
G1 X129.024 Y107.52 E.00159
M204 S1000
G1 X128.679 Y107.787 F10800
M204 S800
;WIDTH:0.727652
G1 F900
G1 X128.654 Y107.858 E.00429
;WIDTH:0.680429
G1 X128.63 Y107.93 E.00402
;WIDTH:0.633206
G1 X128.605 Y108.001 E.00369
;WIDTH:0.585983
G1 X128.581 Y108.072 E.00338
;WIDTH:0.53876
G1 X128.557 Y108.144 E.00313
;WIDTH:0.491536
G1 X128.117 Y108.571 E.02287
;WIDTH:0.490936
G1 X127.631 Y108.949 E.02294
;WIDTH:0.503082
G1 X126.85 Y109.373 E.034
;WIDTH:0.520416
G1 X126.297 Y109.558 E.02315
G1 X125.731 Y109.686 E.02304
;WIDTH:0.512946
G1 X125.021 Y109.743 E.02784
;WIDTH:0.487442
G1 X124.4 Y109.701 E.02301
;WIDTH:0.495914
G1 X123.506 Y109.506 E.03447
;WIDTH:0.517134
G1 X122.89 Y109.245 E.02638
G1 X122.139 Y108.791 E.0346
;WIDTH:0.505024
G1 X121.426 Y108.125 E.03749
;WIDTH:0.536322
G1 X121.407 Y108.068 E.00247
;WIDTH:0.578912
G1 X121.388 Y108.01 E.00272
;WIDTH:0.621501
G1 X121.369 Y107.953 E.00289
;WIDTH:0.664091
G1 X121.351 Y107.896 E.00309
;WIDTH:0.706681
G1 X121.332 Y107.838 E.00337
;WIDTH:0.74927
G1 X121.313 Y107.781 E.00353
M204 S1000
G1 X120.989 Y107.534 F10800
M204 S800
;WIDTH:0.49321
G1 F900
G1 X120.694 Y106.994 E.02304
;WIDTH:0.491078
G1 X120.48 Y106.444 E.02199
G1 X120.343 Y105.883 E.02152
;WIDTH:0.498094
G1 X120.261 Y105.306 E.02206
;WIDTH:0.499584
G1 X120.259 Y104.716 E.0224
;WIDTH:0.516828
G1 X120.34 Y104.129 E.02335
G1 X120.484 Y103.557 E.02324
;WIDTH:0.516308
G1 X120.677 Y103.036 E.02187
;WIDTH:0.499086
G1 X120.956 Y102.509 E.02262
;WIDTH:0.49889
G1 X120.976 Y102.48 E.00134
M204 S1000
;WIPE_START
G1 F8640
G1 X120.956 Y102.509 E-.00813
G1 X120.677 Y103.036 E-.13769
G1 X120.484 Y103.557 E-.12829
G1 X120.34 Y104.129 E-.1362
G1 X120.259 Y104.716 E-.13682
G1 X120.261 Y105.306 E-.13623
G1 X120.343 Y105.883 E-.13457
G1 X120.48 Y106.444 E-.13334
G1 X120.557 Y106.641 E-.04873
;WIPE_END
G1 Z.4 F720
G1 X123.718 Y102.469 F10800
G1 Z.2 F720
G1 E1 F2100
M204 S800
;WIDTH:0.578346
G1 F900
G1 X123.591 Y102.57 E.00722
;WIDTH:0.540345
G1 X123.463 Y102.671 E.00674
;WIDTH:0.502344
G1 X123.335 Y102.772 E.00623
;WIDTH:0.507782
G1 X122.945 Y103.093 E.01952
G1 X122.912 Y102.845 E.00967
;WIDTH:0.464343
G1 X122.514 Y102.657 E.01542
;WIDTH:0.471705
G1 X122.004 Y102.451 E.01961
G1 X122.595 Y102.536 E.02129
;WIDTH:0.464343
G1 X123.183 Y102.497 E.02065
;WIDTH:0.502344
G1 X123.361 Y102.488 E.00681
;WIDTH:0.540345
G1 X123.54 Y102.478 E.00742
;WIDTH:0.578346
G1 X123.659 Y102.472 E.0053
M204 S1000
;WIPE_START
G1 F8640
G1 X123.718 Y102.469 E-.01364
G1 X123.591 Y102.57 E-.03747
G1 X123.463 Y102.671 E-.03765
G1 X123.335 Y102.772 E-.03765
G1 X122.945 Y103.093 E-.11663
G1 X122.912 Y102.845 E-.05777
G1 X122.514 Y102.657 E-.10164
G1 X122.004 Y102.451 E-.127
G1 X122.595 Y102.536 E-.13787
G1 X123.183 Y102.497 E-.13607
G1 X123.361 Y102.488 E-.04115
G1 X123.54 Y102.478 E-.0414
G1 X123.659 Y102.472 E-.02751
;WIPE_END
G1 E-.08655 F2100
G1 Z.4 F720
G1 X127.878 Y102.48 F10800
G1 Z.2 F720
G1 E1 F2100
M204 S800
;WIDTH:0.489627
G1 F900
G1 X127.088 Y102.845 E.03232
;WIDTH:0.507808
G1 X127.055 Y103.093 E.00967
G1 X127.027 Y103.066 E.0015
;WIDTH:0.50347
G1 X126.615 Y102.743 E.02005
;WIDTH:0.495615
G1 X126.366 Y102.579 E.01122
;WIDTH:0.526888
G1 X126.117 Y102.416 E.01198
G1 X126.425 Y102.454 E.01249
;WIDTH:0.495615
G1 X126.733 Y102.492 E.01168
;WIDTH:0.464342
G1 X127.404 Y102.536 E.02356
;WIDTH:0.490396
G1 X127.819 Y102.487 E.01555
M204 S1000
;LAYER_CHANGE
;Z:0.35
;HEIGHT:0.15
;BEFORE_LAYER_CHANGE
G92 E0.0
;0.35


;WIPE_START
G1 F8640
G1 X127.878 Y102.48 E-.01372
G1 X127.088 Y102.845 E-.20094
G1 X127.055 Y103.093 E-.05777
G1 X127.027 Y103.066 E-.00898
G1 X126.615 Y102.743 E-.12088
G1 X126.366 Y102.579 E-.06885
G1 X126.117 Y102.416 E-.06872
G1 X126.425 Y102.454 E-.07166
G1 X126.733 Y102.492 E-.07166
G1 X127.404 Y102.536 E-.15527
G1 X127.819 Y102.487 E-.09649
;WIPE_END
G1 E-.06506 F2100
G1 Z.35 F720
;AFTER_LAYER_CHANGE
;0.35
M140 S90 ; set bed temperature
; stop printing object ReverseCoupler.stl id:0 copy 0
G1 Z.55
G1 X130.61 Y99.425 F10800
G1 Z.35 F720
M73 Q7 S5
G1 E1 F2100
;TYPE:Skirt/Brim
;WIDTH:0.42
G1 F900
G1 X130.93 Y99.717 E.01048
G1 X131.813 Y100.919 E.03607
G1 X132.54 Y102.506 E.04222
M73 P7 R5
G1 X132.87 Y103.934 E.03545
G1 X132.932 Y105.398 E.03544
G1 X132.679 Y107.025 E.03982
G1 X132.177 Y108.401 E.03542
G1 X131.429 Y109.662 E.03546
G1 X130.444 Y110.782 E.03607
G1 X129.049 Y111.832 E.04223
G1 X127.725 Y112.46 E.03544
G1 X126.129 Y112.861 E.0398
G1 X124.665 Y112.935 E.03545
G1 X123.213 Y112.738 E.03544
G1 X121.821 Y112.278 E.03546
G1 X120.538 Y111.57 E.03544
G1 X119.192 Y110.417 E.04286
G1 X118.2 Y109.104 E.0398
G1 X117.562 Y107.784 E.03546
G1 X117.177 Y106.37 E.03544
G1 X117.068 Y104.602 E.04284
G1 X117.321 Y102.975 E.03982
G1 X117.823 Y101.599 E.03542
G1 X118.571 Y100.338 E.03546
G1 X119.556 Y99.218 E.03607
G1 X120.951 Y98.168 E.04223
G1 X122.275 Y97.54 E.03544
G1 X123.871 Y97.139 E.0398
G1 X125.335 Y97.065 E.03545
G1 X126.787 Y97.262 E.03544
G1 X128.459 Y97.851 E.04287
G1 X129.713 Y98.608 E.03543
G1 X130.565 Y99.385 E.02789
G1 X130.326 Y99.664 F10800
M73 Q8 S5
G1 F900
G1 X130.537 Y99.846 E.00674
G1 X131.39 Y100.951 E.03376
G1 X132.082 Y102.341 E.03755
M73 P8 R5
G1 X132.45 Y103.688 E.03377
G1 X132.555 Y105.387 E.04117
G1 X132.317 Y106.922 E.03757
G1 X131.839 Y108.233 E.03375
G1 X131.128 Y109.435 E.03378
G1 X130.19 Y110.503 E.03438
G1 X128.851 Y111.511 E.04053
G1 X127.589 Y112.108 E.03376
G1 X126.082 Y112.487 E.03758
G1 X124.688 Y112.558 E.03376
G1 X123.305 Y112.372 E.03375
G1 X121.979 Y111.935 E.03377
G1 X120.756 Y111.262 E.03376
G1 X119.463 Y110.154 E.04118
G1 X118.527 Y108.915 E.03755
G1 X117.918 Y107.659 E.03376
G1 X117.55 Y106.312 E.03377
G1 X117.445 Y104.613 E.04117
G1 X117.683 Y103.078 E.03757
G1 X118.161 Y101.767 E.03375
G1 X118.872 Y100.565 E.03378
G1 X119.81 Y99.497 E.03438
G1 X121.149 Y98.489 E.04053
G1 X122.411 Y97.892 E.03376
G1 X123.918 Y97.513 E.03758
G1 X125.312 Y97.442 E.03376
G1 X126.695 Y97.628 E.03375
G1 X128.021 Y98.065 E.03377
G1 X129.244 Y98.738 E.03376
G1 X130.28 Y99.625 E.03298
G1 X130.025 Y99.9 F10800
