; generated by PrusaSlicer 2.9.4 on 2026-06-01 at 16:46:18 UTC


;
;
; 

; external perimeters extrusion width = 0.45mm
; perimeters extrusion width = 0.45mm
; infill extrusion width = 0.45mm
; solid infill extrusion width = 0.45mm
; top infill extrusion width = 0.40mm
; support material extrusion width = 0.35mm
; first layer extrusion width = 0.42mm

; external perimeters extrusion width = 0.45mm
; perimeters extrusion width = 0.45mm
; infill extrusion width = 0.45mm
; solid infill extrusion width = 0.45mm
; top infill extrusion width = 0.40mm
; support material extrusion width = 0.35mm
; first layer extrusion width = 0.42mm

; external perimeters extrusion width = 0.45mm
; perimeters extrusion width = 0.45mm
; infill extrusion width = 0.45mm
; solid infill extrusion width = 0.45mm
; top infill extrusion width = 0.40mm
; support material extrusion width = 0.35mm
; first layer extrusion width = 0.42mm

; external perimeters extrusion width = 0.45mm
; perimeters extrusion width = 0.45mm
; infill extrusion width = 0.45mm
; solid infill extrusion width = 0.45mm
; top infill extrusion width = 0.40mm
; support material extrusion width = 0.35mm
; first layer extrusion width = 0.42mm

; external perimeters extrusion width = 0.45mm
; perimeters extrusion width = 0.45mm
; infill extrusion width = 0.45mm
; solid infill extrusion width = 0.45mm
; top infill extrusion width = 0.40mm
; support material extrusion width = 0.35mm
; first layer extrusion width = 0.42mm

; external perimeters extrusion width = 0.45mm
; perimeters extrusion width = 0.45mm
; infill extrusion width = 0.45mm
; solid infill extrusion width = 0.45mm
; top infill extrusion width = 0.40mm
; support material extrusion width = 0.35mm
; first layer extrusion width = 0.42mm

; external perimeters extrusion width = 0.45mm
; perimeters extrusion width = 0.45mm
; infill extrusion width = 0.45mm
; solid infill extrusion width = 0.45mm
; top infill extrusion width = 0.40mm
; support material extrusion width = 0.35mm
; first layer extrusion width = 0.42mm

; external perimeters extrusion width = 0.45mm
; perimeters extrusion width = 0.45mm
; infill extrusion width = 0.45mm
; solid infill extrusion width = 0.45mm
; top infill extrusion width = 0.40mm
; support material extrusion width = 0.35mm
; first layer extrusion width = 0.42mm

M73 P0 R60
M73 Q0 S61
M201 X1000 Y1000 Z200 E5000 ; sets maximum accelerations, mm/sec^2
M203 X200 Y200 Z12 E120 ; sets maximum feedrates, mm / sec
M204 S1250 T1250 ; sets acceleration (S) and retract acceleration (R), mm/sec^2
M205 X8.00 Y8.00 Z0.40 E4.50 ; sets the jerk limits, mm/sec
M205 S0 T0 ; sets the minimum extruding and travel feed rate, mm/sec

; printing object RightLeg.stl_8 id:7 copy 0
; stop printing object RightLeg.stl_8 id:7 copy 0
; printing object RightLeg.stl_7 id:6 copy 0
; stop printing object RightLeg.stl_7 id:6 copy 0
; printing object RightLeg.stl_6 id:5 copy 0
; stop printing object RightLeg.stl_6 id:5 copy 0
; printing object RightLeg.stl_2 id:1 copy 0
; stop printing object RightLeg.stl_2 id:1 copy 0
; printing object RightLeg.stl_4 id:3 copy 0
; stop printing object RightLeg.stl_4 id:3 copy 0
; printing object RightLeg.stl_3 id:2 copy 0
; stop printing object RightLeg.stl_3 id:2 copy 0
; printing object RightLeg.stl_5 id:4 copy 0
; stop printing object RightLeg.stl_5 id:4 copy 0
; printing object RightLeg.stl_1 id:0 copy 0
; stop printing object RightLeg.stl_1 id:0 copy 0

;TYPE:Custom
M862.3 P "MK3S" ; printer model check
M862.1 P0.4 ; nozzle diameter check
M115 U3.14.1 ; tell printer latest fw version
G90 ; use absolute coordinates
M83 ; extruder relative mode
M104 S250 ; set extruder temp
M140 S85 ; set bed temp
M190 S85 ; wait for bed temp
M109 S250 ; wait for extruder temp
G28 W ; home all without mesh bed level
G80 X41.3495 Y32.184 W166.543 H139.634 ; mesh bed levelling

G1 Z0.2 F720
G1 Y-3 F1000 ; go outside print area
G92 E0
G1 X60 E9 F1000 ; intro line
G1 X100 E12.5 F1000 ; intro line

G92 E0
M221 S95

; Don't change E values below. Excessive value can damage the printer.
M907 E430 ; set extruder motor current
G21 ; set units to millimeters
G90 ; use absolute coordinates
M83 ; use relative distances for extrusion

M900 K0.08 ; Filament gcode LA 1.5
M900 K45 ; Filament gcode LA 1.0




M107
;LAYER_CHANGE
;Z:0.2
;HEIGHT:0.2
G1 E-1 F2100
G1 Z.4 F720
G1 X72.804 Y57.157 F10800
G1 Z.2 F720
G1 E1 F2100
M204 S800
;TYPE:Skirt/Brim
;WIDTH:0.42
G1 F1200
G1 X82.068 Y45.357 E.47038
G1 X82.947 Y44.689 E.03462
G1 X88.886 Y42.253 E.20127
G1 X133.67 Y32.499 E1.43709
G1 X135.041 Y32.374 E.04317
G1 X142.964 Y32.672 E.2486
G1 X143.737 Y32.844 E.02483
G1 X194.901 Y54.562 E1.74275
G1 X195.873 Y55.178 E.03608
G1 X198.115 Y57.282 E.0964
G1 X198.783 Y58.588 E.04599
G1 X207.685 Y126.161 E2.13701
G1 X207.704 Y132.871 E.21039
G1 X207.313 Y134.12 E.04104
G1 X206.469 Y134.841 E.0348
G1 X131.422 Y171.184 E2.61444
G1 X130.483 Y171.516 E.03123
G1 X129.673 Y171.629 E.02564
G1 X122.185 Y171.386 E.2349
G1 X121.595 Y171.283 E.01878
G1 X80.421 Y158.125 E1.3553
G1 X79.325 Y157.338 E.04231
G1 X41.965 Y106.618 E1.97514
G1 X41.538 Y105.32 E.04284
G1 X41.538 Y99.421 E.18496
G1 X41.769 Y98.443 E.03151
G1 X44.323 Y93.434 E.17629
G1 X72.767 Y57.204 E1.44423
M204 S1000
;WIPE_START
G1 F8640
M73 P0 R59
G1 X72.804 Y57.157 E-.01381
G1 X75.441 Y53.798 E-.98619
;WIPE_END
G1 Z.4 F720
; printing object RightLeg.stl_2 id:1 copy 0
G1 X202.964 Y123.305 F10800
G1 Z.2 F720
G1 E1 F2100
M204 S800
;TYPE:Support material
G1 F1200
G1 X202.401 Y123.273 E.01768
G1 X201.692 Y123.411 E.02265
G1 X201.027 Y123.747 E.02336
G1 X200.648 Y124.071 E.01563
M73 Q0 S60
G1 X200.317 Y124.492 E.01679
G1 X200.025 Y125.157 E.02277
G1 X199.91 Y125.875 E.0228
G1 X199.962 Y126.414 E.01698
G1 X200.317 Y127.301 E.02996
G1 X200.828 Y127.886 E.02435
G1 X201.46 Y128.293 E.02357
G1 X202.425 Y128.522 E.0311
G1 X203.175 Y128.447 E.02363
G1 X204.054 Y128.047 E.03028
G1 X204.433 Y127.723 E.01563
G1 X204.763 Y127.301 E.0168
G1 X204.99 Y126.854 E.01572
G1 X205.129 Y126.35 E.01639
G1 X205.515 Y126.447 E.01248
G1 X205.515 Y132.871 E.20142
G1 X198.562 Y132.871 E.21801
G1 X198.562 Y135.189 E.07268
G1 X193.926 Y135.189 E.14536
G1 X193.926 Y137.507 E.07268
G1 X186.973 Y137.507 E.21801
G1 X186.973 Y139.825 E.07268
G1 X182.337 Y139.825 E.14536
G1 X182.337 Y142.143 E.07268
G1 X169.901 Y142.143 E.38992
G1 X169.72 Y141.175 E.03088
G1 X170.525 Y141.183 E.02524
G1 X171.447 Y140.863 E.0306
G1 X172.06 Y140.384 E.02439
G1 X172.578 Y139.578 E.03004
G1 X172.73 Y139.059 E.01696
G1 X172.752 Y138.332 E.02281
G1 X172.593 Y137.627 E.02266
G1 X172.347 Y137.148 E.01688
G1 X171.856 Y136.594 E.02321
G1 X171.224 Y136.187 E.02357
G1 X170.505 Y135.982 E.02344
G1 X169.762 Y135.985 E.0233
G1 X169.063 Y136.187 E.02281
G1 X168.604 Y136.453 E.01663
G1 X167.92 Y137.179 E.03127
G1 X167.694 Y137.627 E.01573
G1 X167.555 Y138.131 E.01639
G1 X167.168 Y138.034 E.01251
G1 X167.168 Y131.609 E.20145
G1 X174.122 Y131.609 E.21804
M73 P1 R59
M73 Q1 S60
G1 X174.122 Y129.291 E.07268
G1 X178.757 Y129.291 E.14533
G1 X178.757 Y126.974 E.07265
G1 X185.711 Y126.974 E.21804
G1 X185.711 Y124.656 E.07268
G1 X190.347 Y124.656 E.14536
G1 X190.347 Y122.338 E.07268
G1 X202.783 Y122.338 E.38992
G1 X202.953 Y123.25 E.02909
M204 S1000
;WIPE_START
G1 F8640
G1 X202.783 Y122.338 E-.21421
G1 X199.38 Y122.338 E-.78579
;WIPE_END
G1 Z.4 F720
G1 X204.777 Y132.702 F10800
G1 Z.2 F720
G1 E1 F2100
M204 S800
G1 F1200
G1 X204.777 Y127.842 E.15238
G1 X204.358 Y128.239 E.0181
G1 X204.358 Y132.532 E.1346
G1 X203.939 Y132.532 E.01314
G1 X203.939 Y128.51 E.12611
G1 X203.52 Y128.696 E.01437
G1 X203.52 Y132.532 E.12028
G1 X203.101 Y132.532 E.01314
G1 X203.101 Y128.808 E.11676
G1 X202.682 Y128.86 E.01324
G1 X202.682 Y132.532 E.11513
G1 X202.263 Y132.532 E.01314
G1 X202.263 Y128.848 E.11551
G1 X201.844 Y128.782 E.0133
G1 X201.844 Y132.532 E.11758
G1 X201.425 Y132.532 E.01314
G1 X201.425 Y128.644 E.12191
G1 X201.006 Y128.433 E.01471
G1 X201.006 Y132.532 E.12852
G1 X200.587 Y132.532 E.01314
G1 X200.587 Y128.126 E.13815
G1 X200.168 Y127.672 E.01937
G1 X200.168 Y132.532 E.15238
G1 X199.749 Y132.532 E.01314
G1 X199.749 Y126.897 E.17668
G1 X199.571 Y125.935 E.03067
G1 X199.749 Y124.896 E.03305
G1 X199.749 Y122.677 E.06958
G1 X200.168 Y122.677 E.01314
G1 X200.168 Y124.121 E.04528
G1 X200.587 Y123.667 E.01937
G1 X200.587 Y122.677 E.03104
G1 X201.006 Y122.677 E.01314
G1 X201.006 Y123.361 E.02145
G1 X201.425 Y123.15 E.01471
G1 X201.425 Y122.677 E.01483
G1 X201.844 Y122.677 E.01314
G1 X201.844 Y123.012 E.0105
G1 X202.263 Y122.945 E.0133
G1 X202.263 Y122.508 E.0137
M204 S1000
;WIPE_START
G1 F8640
G1 X202.263 Y122.945 E-.1009
G1 X201.844 Y123.012 E-.09798
G1 X201.844 Y122.677 E-.07735
G1 X201.425 Y122.677 E-.09675
G1 X201.425 Y123.15 E-.10922
G1 X201.006 Y123.361 E-.10832
G1 X201.006 Y122.677 E-.15794
G1 X200.587 Y122.677 E-.09675
G1 X200.587 Y123.348 E-.15479
;WIPE_END
G1 Z.4 F720
G1 X199.33 Y132.702 F10800
G1 Z.2 F720
G1 E1 F2100
M204 S800
G1 F1200
G1 X199.33 Y122.677 E.31433
G1 X198.911 Y122.677 E.01314
G1 X198.911 Y132.532 E.309
G1 X198.492 Y132.532 E.01314
G1 X198.492 Y122.677 E.309
G1 X198.073 Y122.677 E.01314
G1 X198.073 Y134.85 E.38168
G1 X197.654 Y134.85 E.01314
G1 X197.654 Y122.677 E.38168
G1 X197.235 Y122.677 E.01314
G1 X197.235 Y134.85 E.38168
G1 X196.816 Y134.85 E.01314
G1 X196.816 Y122.677 E.38168
G1 X196.397 Y122.677 E.01314
G1 X196.397 Y134.85 E.38168
G1 X195.978 Y134.85 E.01314
G1 X195.978 Y122.677 E.38168
G1 X195.559 Y122.677 E.01314
G1 X195.559 Y134.85 E.38168
G1 X195.14 Y134.85 E.01314
G1 X195.14 Y122.677 E.38168
G1 X194.721 Y122.677 E.01314
G1 X194.721 Y134.85 E.38168
G1 X194.302 Y134.85 E.01314
G1 X194.302 Y122.677 E.38168
G1 X193.884 Y122.677 E.01311
G1 X193.884 Y134.85 E.38168
G1 X193.587 Y134.85 E.00931
G1 X193.587 Y137.168 E.07268
G1 X193.465 Y137.168 E.00383
G1 X193.465 Y122.677 E.45436
G1 X193.046 Y122.677 E.01314
G1 X193.046 Y137.168 E.45436
G1 X192.627 Y137.168 E.01314
G1 X192.627 Y122.677 E.45436
G1 X192.208 Y122.677 E.01314
G1 X192.208 Y137.168 E.45436
G1 X191.789 Y137.168 E.01314
G1 X191.789 Y122.677 E.45436
G1 X191.37 Y122.677 E.01314
G1 X191.37 Y137.168 E.45436
G1 X190.951 Y137.168 E.01314
G1 X190.951 Y122.677 E.45436
G1 X190.686 Y122.677 E.00831
G1 X190.686 Y124.995 E.07268
G1 X190.532 Y124.995 E.00483
G1 X190.532 Y137.168 E.38168
G1 X190.113 Y137.168 E.01314
G1 X190.113 Y124.995 E.38168
G1 X189.694 Y124.995 E.01314
G1 X189.694 Y137.168 E.38168
G1 X189.275 Y137.168 E.01314
G1 X189.275 Y124.995 E.38168
G1 X188.856 Y124.995 E.01314
G1 X188.856 Y137.168 E.38168
G1 X188.437 Y137.168 E.01314
G1 X188.437 Y124.995 E.38168
G1 X188.018 Y124.995 E.01314
G1 X188.018 Y137.168 E.38168
G1 X187.599 Y137.168 E.01314
G1 X187.599 Y124.995 E.38168
G1 X187.18 Y124.995 E.01314
G1 X187.18 Y137.168 E.38168
G1 X186.761 Y137.168 E.01314
G1 X186.761 Y124.995 E.38168
G1 X186.342 Y124.995 E.01314
G1 X186.342 Y139.485 E.45432
G1 X185.923 Y139.485 E.01314
G1 X185.923 Y127.313 E.38164
G1 X185.504 Y127.313 E.01314
G1 X185.504 Y139.485 E.38164
G1 X185.085 Y139.485 E.01314
G1 X185.085 Y127.313 E.38164
G1 X184.666 Y127.313 E.01314
G1 X184.666 Y139.485 E.38164
G1 X184.247 Y139.485 E.01314
G1 X184.247 Y127.313 E.38164
G1 X183.828 Y127.313 E.01314
G1 X183.828 Y139.485 E.38164
G1 X183.409 Y139.485 E.01314
G1 X183.409 Y127.313 E.38164
G1 X182.99 Y127.313 E.01314
G1 X182.99 Y139.485 E.38164
G1 X182.571 Y139.485 E.01314
G1 X182.571 Y127.313 E.38164
G1 X182.152 Y127.313 E.01314
G1 X182.152 Y139.485 E.38164
G1 X181.998 Y139.485 E.00483
G1 X181.998 Y141.803 E.07268
G1 X181.733 Y141.803 E.00831
G1 X181.733 Y127.313 E.45432
G1 X181.314 Y127.313 E.01314
M73 P2 R59
G1 X181.314 Y141.803 E.45432
G1 X180.895 Y141.803 E.01314
M73 Q2 S60
G1 X180.895 Y127.313 E.45432
G1 X180.476 Y127.313 E.01314
G1 X180.476 Y141.803 E.45432
G1 X180.057 Y141.803 E.01314
G1 X180.057 Y127.313 E.45432
G1 X179.638 Y127.313 E.01314
G1 X179.638 Y141.803 E.45432
G1 X179.219 Y141.803 E.01314
G1 X179.219 Y127.313 E.45432
G1 X179.097 Y127.313 E.00383
G1 X179.097 Y129.631 E.07268
G1 X178.8 Y129.631 E.00931
G1 X178.8 Y141.803 E.38164
G1 X178.381 Y141.803 E.01314
G1 X178.381 Y129.631 E.38164
G1 X177.962 Y129.631 E.01314
G1 X177.962 Y141.803 E.38164
G1 X177.543 Y141.803 E.01314
G1 X177.543 Y129.631 E.38164
G1 X177.124 Y129.631 E.01314
G1 X177.124 Y141.803 E.38164
G1 X176.705 Y141.803 E.01314
G1 X176.705 Y129.631 E.38164
G1 X176.286 Y129.631 E.01314
G1 X176.286 Y141.803 E.38164
G1 X175.867 Y141.803 E.01314
G1 X175.867 Y129.631 E.38164
G1 X175.449 Y129.631 E.01311
G1 X175.449 Y141.803 E.38164
G1 X175.03 Y141.803 E.01314
G1 X175.03 Y129.631 E.38164
G1 X174.611 Y129.631 E.01314
G1 X174.611 Y141.803 E.38164
G1 X174.192 Y141.803 E.01314
G1 X174.192 Y131.949 E.30897
G1 X173.773 Y131.949 E.01314
G1 X173.773 Y141.803 E.30897
G1 X173.354 Y141.803 E.01314
G1 X173.354 Y131.949 E.30897
G1 X172.935 Y131.949 E.01314
G1 X172.935 Y137.583 E.17665
G1 X172.516 Y136.808 E.02762
G1 X172.516 Y131.949 E.15235
G1 X172.097 Y131.949 E.01314
G1 X172.097 Y136.354 E.13812
G1 X171.678 Y136.048 E.01627
G1 X171.678 Y131.949 E.12852
G1 X171.259 Y131.949 E.01314
G1 X171.259 Y135.837 E.12191
G1 X170.84 Y135.699 E.01383
G1 X170.84 Y131.949 E.11758
G1 X170.421 Y131.949 E.01314
G1 X170.421 Y135.632 E.11548
G1 X170.002 Y135.62 E.01314
G1 X170.002 Y131.949 E.1151
G1 X169.583 Y131.949 E.01314
G1 X169.583 Y135.673 E.11676
G1 X169.164 Y135.784 E.01359
G1 X169.164 Y131.949 E.12024
G1 X168.745 Y131.949 E.01314
G1 X168.745 Y135.971 E.12611
G1 X168.326 Y136.242 E.01565
G1 X168.326 Y131.949 E.1346
G1 X167.907 Y131.949 E.01314
G1 X167.907 Y136.911 E.15558
M204 S1000
;WIPE_START
G1 F8640
G1 X167.907 Y132.58 E-1
;WIPE_END
G1 Z.4 F720
G1 X172.935 Y141.973 F10800
G1 Z.2 F720
G1 E1 F2100
M204 S800
G1 F1200
G1 X172.935 Y139.584 E.07491
G1 X172.516 Y140.359 E.02762
G1 X172.516 Y141.803 E.04528
G1 X172.097 Y141.803 E.01314
G1 X172.097 Y140.813 E.03104
G1 X171.678 Y141.12 E.01629
G1 X171.678 Y141.803 E.02141
G1 X171.259 Y141.803 E.01314
G1 X171.259 Y141.331 E.0148
G1 X170.84 Y141.469 E.01383
G1 X170.84 Y141.803 E.01047
G1 X170.421 Y141.803 E.01314
G1 X170.421 Y141.365 E.01373
M204 S1000
;WIPE_START
G1 F8640
G1 X170.421 Y141.803 E-.10114
G1 X170.84 Y141.803 E-.09675
G1 X170.84 Y141.469 E-.07712
G1 X171.259 Y141.331 E-.10186
G1 X171.259 Y141.803 E-.10899
M73 P2 R58
G1 X171.678 Y141.803 E-.09675
G1 X171.678 Y141.12 E-.15771
G1 X172.097 Y140.813 E-.11994
G1 X172.097 Y141.418 E-.13974
;WIPE_END
G1 Z.4 F720
G1 X170.408 Y137.864 F10800
G1 Z.2 F720
G1 E1 F2100
M204 S800
G1 F1200
G1 X170.717 Y138.076 E.01175
G1 X170.849 Y138.271 E.00738
G1 X170.904 Y138.487 E.00699
G1 X170.859 Y138.86 E.01178
G1 X170.485 Y139.27 E.0174
G1 X169.932 Y139.32 E.01741
G1 X169.49 Y138.984 E.01741
G1 X169.391 Y138.437 E.01743
G1 X169.688 Y137.968 E.01741
G1 X170.035 Y137.825 E.01177
G1 X170.352 Y137.852 E.00998
M204 S1000
G1 X170.421 Y139.109 F10800
M204 S800
G1 F1200
G1 X170.421 Y138.267 E.0264
G1 X170.083 Y138.164 E.01108
G1 X170.002 Y138.186 E.00263
G1 X170.002 Y139.16 E.03054
M204 S1000
;WIPE_START
G1 F8640
G1 X170.002 Y138.186 E-.2249
G1 X170.083 Y138.164 E-.01938
G1 X170.421 Y138.267 E-.08159
G1 X170.421 Y139.109 E-.19442
;WIPE_END
G1 E-.47971 F2100
G1 Z.4 F720
G1 X202.684 Y125.144 F10800
G1 Z.2 F720
G1 E1 F2100
M73 Q2 S59
M204 S800
G1 F1200
G1 X203.16 Y125.446 E.01768
G1 X203.3 Y125.993 E.0177
G1 X203.029 Y126.487 E.01767
G1 X202.492 Y126.661 E.0177
G1 X201.982 Y126.421 E.01767
G1 X201.774 Y125.897 E.01768
G1 X201.982 Y125.372 E.01771
G1 X202.303 Y125.168 E.01193
G1 X202.627 Y125.141 E.01019
M204 S1000
G1 X202.682 Y126.472 F10800
M204 S800
G1 F1200
G1 X202.682 Y125.5 E.03048
G1 X202.62 Y125.48 E.00204
G1 X202.263 Y125.58 E.01162
G1 X202.263 Y126.419 E.02631
M204 S1000
;WIPE_START
G1 F8640
G1 X202.263 Y125.58 E-.19373
G1 X202.62 Y125.48 E-.08561
G1 X202.682 Y125.5 E-.01504
G1 X202.682 Y126.472 E-.22444
;WIPE_END
G1 E-.48118 F2100
G1 Z.4 F720
G1 X171.517 Y137.997 F10800
G1 Z.2 F720
G1 E1 F2100
M204 S800
;TYPE:External perimeter
;WIDTH:0.42019
G1 F1200
G1 X171.638 Y138.401 E.01323
;WIDTH:0.423522
