; generated by PrusaSlicer 2.9.4 on 2026-06-01 at 16:59:00 UTC


;
;
; 

; external perimeters extrusion width = 0.45mm
; perimeters extrusion width = 0.45mm
; infill extrusion width = 0.45mm
; solid infill extrusion width = 0.45mm
; top infill extrusion width = 0.40mm
; support material extrusion width = 0.35mm
; first layer extrusion width = 0.42mm

M73 P0 R9
M73 Q0 S10
M201 X1000 Y1000 Z200 E5000 ; sets maximum accelerations, mm/sec^2
M203 X200 Y200 Z12 E120 ; sets maximum feedrates, mm / sec
M204 S1250 T1250 ; sets acceleration (S) and retract acceleration (R), mm/sec^2
M205 X8.00 Y8.00 Z0.40 E4.50 ; sets the jerk limits, mm/sec
M205 S0 T0 ; sets the minimum extruding and travel feed rate, mm/sec

; printing object Arm.stl id:0 copy 0
; stop printing object Arm.stl id:0 copy 0

;TYPE:Custom
M862.3 P "MK3S" ; printer model check
M862.1 P0.4 ; nozzle diameter check
M115 U3.14.1 ; tell printer latest fw version
G90 ; use absolute coordinates
M83 ; extruder relative mode
M104 S250 ; set extruder temp
M140 S85 ; set bed temp
M190 S85 ; wait for bed temp
M109 S250 ; wait for extruder temp
G28 W ; home all without mesh bed level
G80 X117.356 Y55.6357 W15.2874 H98.7285 ; mesh bed levelling

G1 Z0.2 F720
G1 Y-3 F1000 ; go outside print area
G92 E0
G1 X60 E9 F1000 ; intro line
G1 X100 E12.5 F1000 ; intro line
M73 Q0 S9

G92 E0
M221 S95

; Don't change E values below. Excessive value can damage the printer.
M907 E430 ; set extruder motor current
G21 ; set units to millimeters
G90 ; use absolute coordinates
M83 ; use relative distances for extrusion

M900 K0.08 ; Filament gcode LA 1.5
M900 K45 ; Filament gcode LA 1.0




M107
;LAYER_CHANGE
;Z:0.2
;HEIGHT:0.2
G1 E-1 F2100
M73 P1 R9
M73 Q1 S9
G1 Z.4 F720
G1 X117.936 Y56.765 F10800
G1 Z.2 F720
G1 E1 F2100
M204 S800
;TYPE:Skirt/Brim
;WIDTH:0.42
G1 F1200
G1 X118.969 Y55.962 E.04102
G1 X119.733 Y55.824 E.02434
G1 X130.267 Y55.824 E.33029
G1 X131.515 Y56.215 E.04101
G1 X132.317 Y57.248 E.041
G1 X132.455 Y58.013 E.02437
G1 X132.455 Y151.987 E2.94649
G1 X132.064 Y153.235 E.04101
M73 P2 R9
M73 Q2 S9
G1 X131.031 Y154.038 E.04102
G1 X130.267 Y154.176 E.02434
G1 X119.733 Y154.176 E.33029
G1 X118.485 Y153.785 E.04101
G1 X117.683 Y152.752 E.041
G1 X117.545 Y151.987 E.02437
G1 X117.545 Y58.013 E2.94649
G1 X117.918 Y56.822 E.03913
M73 P3 R9
M73 Q3 S9
M204 S1000
;WIPE_START
G1 F8640
G1 X117.936 Y56.765 E-.0138
G1 X118.969 Y55.962 E-.30211
G1 X119.733 Y55.824 E-.17926
G1 X121.919 Y55.824 E-.50483
;WIPE_END
G1 Z.4 F720
; printing object Arm.stl id:0 copy 0
G1 X130.267 Y151.987 F10800
G1 Z.2 F720
G1 E1 F2100
M204 S800
;TYPE:Support material
G1 F1200
G1 X119.733 Y151.987 E.33029
G1 X119.733 Y58.013 E2.94649
G1 X130.267 Y58.013 E.33029
M73 P4 R9
M73 Q4 S9
G1 X130.267 Y151.931 E2.94473
M204 S1000
;WIPE_START
G1 F8640
M73 P5 R9
M73 Q5 S9
G1 X130.267 Y147.6 E-1
;WIPE_END
G1 Z.4 F720
G1 X124.953 Y63.991 F10800
G1 Z.2 F720
G1 E1 F2100
M204 S800
G1 F1200
G1 X125.315 Y64.028 E.01141
G1 X125.723 Y64.239 E.0144
G1 X126.014 Y64.594 E.01439
G1 X126.142 Y65.034 E.01437
G1 X126.086 Y65.489 E.01437
G1 X125.855 Y65.885 E.01437
G1 X125.53 Y66.137 E.01289
G1 X125.088 Y66.261 E.01439
G1 X124.634 Y66.202 E.01435
G1 X124.239 Y65.967 E.01441
G1 X123.969 Y65.597 E.01436
G1 X123.867 Y65.149 E.01441
G1 X123.95 Y64.698 E.01438
G1 X124.204 Y64.316 E.01438
G1 X124.588 Y64.065 E.01438
G1 X124.896 Y63.994 E.00991
M204 S1000
;WIPE_START
G1 F8640
G1 X124.588 Y64.065 E-.07298
G1 X124.204 Y64.316 E-.10593
G1 X123.95 Y64.698 E-.10592
G1 X123.867 Y65.149 E-.10589
G1 X123.969 Y65.597 E-.10609
G1 X124.239 Y65.967 E-.10576
G1 X124.634 Y66.202 E-.10613
G1 X125.088 Y66.261 E-.10571
G1 X125.53 Y66.137 E-.106
G1 X125.802 Y65.926 E-.07959
;WIPE_END
G1 Z.4 F720
G1 X129.609 Y151.818 F10800
G1 Z.2 F720
G1 E1 F2100
M204 S800
G1 F1200
G1 X129.609 Y58.352 E2.93056
G1 X129.19 Y58.352 E.01314
M73 P6 R9
M73 Q6 S9
G1 X129.19 Y151.648 E2.92523
G1 X128.771 Y151.648 E.01314
M73 P7 R9
M73 Q7 S9
G1 X128.771 Y58.352 E2.92523
G1 X128.352 Y58.352 E.01314
G1 X128.352 Y151.648 E2.92523
G1 X127.933 Y151.648 E.01314
M73 P8 R8
M73 Q8 S9
G1 X127.933 Y58.352 E2.92523
G1 X127.514 Y58.352 E.01314
M73 P9 R8
M73 Q9 S9
G1 X127.514 Y151.648 E2.92523
G1 X127.095 Y151.648 E.01314
M73 P10 R8
M73 Q10 S9
G1 X127.095 Y58.352 E2.92523
G1 X126.676 Y58.352 E.01314
M73 P11 R8
M73 Q10 S8
G1 X126.676 Y151.648 E2.92523
G1 X126.257 Y151.648 E.01314
M73 Q11 S8
G1 X126.257 Y65.91 E2.68825
G1 X125.838 Y66.345 E.01894
M73 P12 R8
M73 Q12 S8
G1 X125.838 Y151.648 E2.67462
G1 X125.419 Y151.648 E.01314
M73 P13 R8
M73 Q13 S8
G1 X125.419 Y66.545 E2.66834
G1 X125 Y66.602 E.01326
M73 P14 R8
G1 X125 Y151.648 E2.66656
G1 X124.581 Y151.648 E.01314
M73 Q14 S8
G1 X124.581 Y66.539 E2.66853
G1 X124.162 Y66.337 E.01458
M73 P15 R8
M73 Q15 S8
G1 X124.162 Y151.648 E2.67487
G1 X123.743 Y151.648 E.01314
M73 P16 R8
M73 Q16 S8
G1 X123.743 Y65.888 E2.68894
G1 X123.567 Y65.463 E.01442
M73 P17 R8
G1 X123.528 Y65.083 E.01198
G1 X123.743 Y64.362 E.02359
G1 X123.743 Y58.352 E.18844
G1 X124.162 Y58.352 E.01314
G1 X124.162 Y63.913 E.17436
G1 X124.581 Y63.712 E.01457
G1 X124.581 Y58.352 E.16806
G1 X125 Y58.352 E.01314
G1 X125 Y63.648 E.16605
G1 X125.419 Y63.705 E.01326
G1 X125.419 Y58.352 E.16784
G1 X125.838 Y58.352 E.01314
M73 Q17 S8
G1 X125.838 Y63.905 E.17411
G1 X126.257 Y64.34 E.01894
G1 X126.257 Y58.183 E.19305
M204 S1000
G1 X123.324 Y151.818 F10800
M204 S800
G1 F1200
G1 X123.324 Y58.352 E2.93056
G1 X122.905 Y58.352 E.01314
M73 P18 R7
M73 Q18 S8
G1 X122.905 Y151.648 E2.92523
G1 X122.486 Y151.648 E.01314
M73 P19 R7
G1 X122.486 Y58.352 E2.92523
G1 X122.067 Y58.352 E.01314
M73 Q19 S8
G1 X122.067 Y151.648 E2.92523
G1 X121.648 Y151.648 E.01314
M73 P20 R7
M73 Q20 S7
G1 X121.648 Y58.352 E2.92523
G1 X121.229 Y58.352 E.01314
M73 P21 R7
M73 Q21 S7
G1 X121.229 Y151.648 E2.92523
G1 X120.81 Y151.648 E.01314
M73 P22 R7
G1 X120.81 Y58.352 E2.92523
G1 X120.391 Y58.352 E.01314
M73 P23 R7
M73 Q22 S7
G1 X120.391 Y151.818 E2.93056
M204 S1000
;WIPE_START
G1 F8640
M73 Q23 S7
G1 X120.391 Y147.487 E-1
;WIPE_END
G1 Z.4 F720
G1 X125.114 Y64.707 F10800
G1 Z.2 F720
M73 P24 R7
G1 E1 F2100
M204 S800
;TYPE:External perimeter
;WIDTH:0.419999
G1 F1200
G1 X125.283 Y64.778 E.00575
G1 X125.395 Y64.909 E.0054
G1 X125.44 Y65.166 E.00818
G1 X125.344 Y65.415 E.00837
G1 X125.117 Y65.547 E.00823
G1 X124.852 Y65.542 E.00831
G1 X124.649 Y65.375 E.00824
G1 X124.561 Y65.125 E.00831
G1 X124.647 Y64.879 E.00817
G1 X124.846 Y64.711 E.00817
G1 X125.057 Y64.693 E.00664
M204 S1000
;LAYER_CHANGE
;Z:0.35
;HEIGHT:0.15
;BEFORE_LAYER_CHANGE
G92 E0.0
;0.35


;WIPE_START
G1 F8640
G1 X125.114 Y64.707 E-.01355
G1 X125.283 Y64.778 E-.04233
G1 X125.395 Y64.909 E-.0398
G1 X125.44 Y65.166 E-.06024
G1 X125.344 Y65.415 E-.06162
G1 X125.117 Y65.547 E-.06063
G1 X124.852 Y65.542 E-.0612
G1 X124.649 Y65.375 E-.0607
G1 X124.561 Y65.125 E-.0612
G1 X124.647 Y64.879 E-.06017
G1 X124.846 Y64.711 E-.06013
G1 X125.057 Y64.693 E-.0489
;WIPE_END
G1 E-.36953 F2100
G1 Z.35 F720
;AFTER_LAYER_CHANGE
;0.35
M140 S90 ; set bed temperature
; stop printing object Arm.stl id:0 copy 0
G1 Z.55
G1 X132.455 Y64.693 F10800
G1 Z.35 F720
G1 E1 F2100
;TYPE:Skirt/Brim
;WIDTH:0.42
G1 F941
G1 X132.455 Y151.987 E2.1112
G1 X132.064 Y153.235 E.03163
M73 P25 R7
M73 Q24 S7
G1 X131.031 Y154.038 E.03164
G1 X130.267 Y154.176 E.01878
G1 X119.733 Y154.176 E.25476
G1 X118.485 Y153.785 E.03163
G1 X117.683 Y152.752 E.03163
G1 X117.545 Y151.987 E.0188
G1 X117.545 Y58.013 E2.27275
G1 X117.936 Y56.765 E.03163
M73 P26 R7
M73 Q25 S7
G1 X118.969 Y55.962 E.03164
G1 X119.733 Y55.824 E.01878
G1 X130.267 Y55.824 E.25476
G1 X131.515 Y56.215 E.03163
M73 Q26 S7
G1 X132.317 Y57.248 E.03163
G1 X132.455 Y58.013 E.0188
G1 X132.455 Y64.633 E.1601
;WIPE_START
G1 F8640
G1 X132.455 Y64.693 E-.01385
G1 X132.455 Y68.964 E-.98615
;WIPE_END
G1 Z.55 F720
; printing object Arm.stl id:0 copy 0
G1 X125.131 Y64.697 F10800
G1 Z.35 F720
G1 E1 F2100
M204 S800
;TYPE:Perimeter
;WIDTH:0.449999
G1 F941
G1 X125.355 Y64.826 E.00674
G1 X125.454 Y65.08 E.0071
G1 X125.408 Y65.348 E.00709
G1 X125.204 Y65.529 E.00711
G1 X124.937 Y65.579 E.00708
G1 X124.697 Y65.451 E.00709
G1 X124.557 Y65.217 E.0071
G1 X124.593 Y64.948 E.00707
G1 X124.764 Y64.735 E.00712
G1 X124.953 Y64.665 E.00525
G1 X125.073 Y64.683 E.00316
M204 S1000
G1 X125.25 Y64.3 F10800
;TYPE:Overhang perimeter
G1 F900
G1 X125.396 Y64.33 E.00388
G1 X125.678 Y64.548 E.00929
G1 X125.852 Y64.86 E.00931
G1 X125.888 Y65.215 E.0093
G1 X125.781 Y65.555 E.00929
G1 X125.549 Y65.825 E.00928
G1 X125.228 Y65.982 E.00931
G1 X124.872 Y66.001 E.00929
G1 X124.538 Y65.877 E.00928
G1 X124.279 Y65.631 E.00931
G1 X124.139 Y65.303 E.00929
G1 X124.139 Y64.947 E.00928
G1 X124.279 Y64.619 E.00929
G1 X124.538 Y64.373 E.00931
G1 X124.696 Y64.324 E.00431
M204 S800
;TYPE:External perimeter
G1 X124.748 Y64.308 E.00142
M204 S1000
;TYPE:Overhang perimeter
G1 X124.962 Y64.242 E.00584
G1 X125.181 Y64.286 E.00582
M204 S800
;TYPE:External perimeter
G1 X125.192 Y64.288 E.00029
M204 S1000
;LAYER_CHANGE
;Z:0.45
;HEIGHT:0.1
;BEFORE_LAYER_CHANGE
G92 E0.0
;0.45


;WIPE_START
G1 F8640
G1 X125.25 Y64.3 E-.01368
G1 X125.396 Y64.33 E-.03442
;WIPE_END
G1 E-.9519 F2100
G1 Z.45 F720
;AFTER_LAYER_CHANGE
;0.45
G1 Z.65
G1 X127.318 Y149.038 F10800
G1 Z.45 F720
G1 E1 F2100
;TYPE:Support material
;WIDTH:0.35
;HEIGHT:0.25
G1 F2213
G1 X122.682 Y149.038 E.1428
G1 X122.682 Y146.721 E.07137
G1 X127.318 Y146.721 E.1428
G1 X127.318 Y144.403 E.0714
M73 P27 R7
G1 X122.682 Y144.403 E.1428
G1 X122.682 Y142.085 E.0714
G1 X127.318 Y142.085 E.1428
G1 X127.318 Y139.767 E.0714
G1 X122.682 Y139.767 E.1428
G1 X122.682 Y137.449 E.0714
G1 X127.318 Y137.449 E.1428
G1 X127.318 Y135.132 E.07137
G1 X122.682 Y135.132 E.1428
G1 X122.682 Y132.814 E.0714
G1 X127.318 Y132.814 E.1428
G1 X127.318 Y130.496 E.0714
G1 X122.682 Y130.496 E.1428
G1 X122.682 Y128.178 E.0714
G1 X127.318 Y128.178 E.1428
G1 X127.318 Y125.86 E.0714
G1 X122.682 Y125.86 E.1428
G1 X122.682 Y123.542 E.0714
G1 X127.318 Y123.542 E.1428
G1 X127.318 Y121.225 E.07137
M73 Q27 S7
G1 X122.682 Y121.225 E.1428
G1 X122.682 Y118.907 E.0714
G1 X127.318 Y118.907 E.1428
G1 X127.318 Y116.589 E.0714
G1 X122.682 Y116.589 E.1428
G1 X122.682 Y114.271 E.0714
G1 X127.318 Y114.271 E.1428
G1 X127.318 Y111.953 E.0714
G1 X122.682 Y111.953 E.1428
G1 X122.682 Y109.636 E.07137
G1 X127.318 Y109.636 E.1428
G1 X127.318 Y107.318 E.0714
G1 X122.682 Y107.318 E.1428
G1 X122.682 Y105 E.0714
G1 X127.318 Y105 E.1428
G1 X127.318 Y102.682 E.0714
G1 X122.682 Y102.682 E.1428
G1 X122.682 Y100.364 E.0714
G1 X127.318 Y100.364 E.1428
G1 X127.318 Y98.047 E.07137
G1 X122.682 Y98.047 E.1428
G1 X122.682 Y95.729 E.0714
G1 X127.318 Y95.729 E.1428
G1 X127.318 Y93.411 E.0714
G1 X122.682 Y93.411 E.1428
G1 X122.682 Y91.093 E.0714
G1 X127.318 Y91.093 E.1428
G1 X127.318 Y88.775 E.0714
G1 X122.682 Y88.775 E.1428
G1 X122.682 Y86.458 E.07137
M73 P28 R7
G1 X127.318 Y86.458 E.1428
G1 X127.318 Y84.14 E.0714
G1 X122.682 Y84.14 E.1428
G1 X122.682 Y81.822 E.0714
G1 X127.318 Y81.822 E.1428
G1 X127.318 Y79.504 E.0714
G1 X122.682 Y79.504 E.1428
G1 X122.682 Y77.186 E.0714
G1 X127.318 Y77.186 E.1428
G1 X127.318 Y74.868 E.0714
G1 X122.682 Y74.868 E.1428
G1 X122.682 Y72.551 E.07137
G1 X127.318 Y72.551 E.1428
G1 X127.318 Y70.233 E.0714
G1 X122.682 Y70.233 E.1428
G1 X122.682 Y67.915 E.0714
G1 X127.318 Y67.915 E.1428
G1 X127.318 Y65.597 E.0714
M73 P28 R6
G1 X126.948 Y65.597 E.0114
G1 X126.749 Y66.117 E.01715
G1 X126.217 Y66.724 E.02486
G1 X125.53 Y67.061 E.02357
G1 X125.086 Y67.129 E.01384
G1 X124.33 Y67.013 E.02356
G1 X123.927 Y66.815 E.01383
M73 Q28 S7
G1 X123.373 Y66.288 E.02355
G1 X123.062 Y65.597 E.02334
G1 X122.682 Y65.597 E.0117
G1 X122.682 Y63.279 E.0714
G1 X124.234 Y63.279 E.0478
G1 X125.086 Y63.121 E.02669
G1 X125.773 Y63.279 E.02171
G1 X127.318 Y63.279 E.04759
G1 X127.318 Y60.962 E.07137
G1 X122.682 Y60.962 E.1428
;LAYER_CHANGE
;Z:0.5
;HEIGHT:0.05
;BEFORE_LAYER_CHANGE
G92 E0.0
;0.5


;WIPE_START
G1 F8640
G1 X127.013 Y60.962 E-1
;WIPE_END
G1 Z.5 F720
;AFTER_LAYER_CHANGE
;0.5
; stop printing object Arm.stl id:0 copy 0
G1 Z.7
G1 X117.545 Y60.962 F10800
G1 Z.5 F720
G1 E1 F2100
;TYPE:Skirt/Brim
;WIDTH:0.42
;HEIGHT:0.15
G1 F2213
G1 X117.545 Y58.013 E.07132
G1 X117.936 Y56.765 E.03163
G1 X118.969 Y55.962 E.03164
G1 X119.733 Y55.824 E.01878
G1 X130.267 Y55.824 E.25476
G1 X131.515 Y56.215 E.03163
G1 X132.317 Y57.248 E.03163
G1 X132.455 Y58.013 E.0188
G1 X132.455 Y151.987 E2.27275
G1 X132.064 Y153.235 E.03163
M73 P29 R6
G1 X131.031 Y154.038 E.03164
G1 X130.267 Y154.176 E.01878
G1 X119.733 Y154.176 E.25476
G1 X118.485 Y153.785 E.03163
G1 X117.683 Y152.752 E.03163
G1 X117.545 Y151.987 E.0188
G1 X117.545 Y61.022 E2.19998
;WIPE_START
G1 F8640
M73 Q29 S7
G1 X117.545 Y60.962 E-.01385
G1 X117.545 Y58.013 E-.68093
G1 X117.936 Y56.765 E-.30198
G1 X117.947 Y56.756 E-.00324
;WIPE_END
G1 Z.7 F720
; printing object Arm.stl id:0 copy 0
G1 X125.19 Y64.416 F10800
G1 Z.5 F720
G1 E1 F2100
M204 S800
;TYPE:Perimeter
;WIDTH:0.449999
G1 F1335.034
G1 X125.264 Y64.428 E.00195
G1 F1341.628
G1 X125.519 Y64.586 E.00782
G1 F1356.576
G1 X125.69 Y64.832 E.00781
G1 F1334.86
G1 X125.75 Y65.125 E.00779
G1 F1331.627
G1 X125.735 Y65.275 E.00393
G1 F1349.069
G1 X125.617 Y65.55 E.0078
G1 F1353.685
G1 X125.4 Y65.756 E.0078
G1 X125.119 Y65.86 E.00781
G1 F1359.566
G1 X124.82 Y65.845 E.0078
G1 F1372.552
G1 X124.551 Y65.713 E.00781
G1 F1353.524
G1 X124.356 Y65.486 E.0078
G1 X124.267 Y65.2 E.0078
G1 X124.297 Y64.903 E.00778
G1 X124.442 Y64.641 E.0078
G1 F1360.855
G1 X124.679 Y64.458 E.0078
G1 F1350.524
G1 X124.968 Y64.383 E.00778
G1 F1335.034
G1 X125.131 Y64.408 E.0043
M204 S1000
G1 X125.293 Y64.018 F10800
M204 S800
;TYPE:External perimeter
G1 F1061.142
G1 X125.52 Y64.077 E.00611
G1 X125.892 Y64.365 E.01226
G1 X126.12 Y64.776 E.01225
G1 X126.168 Y65.125 E.00918
G1 X126.12 Y65.474 E.00918
G1 X125.892 Y65.885 E.01225
G1 X125.52 Y66.173 E.01226
G1 X125.066 Y66.291 E.01222
G1 X124.601 Y66.22 E.01226
G1 X124.202 Y65.971 E.01225
G1 X123.934 Y65.585 E.01224
G1 X123.839 Y65.125 E.01224
G1 X123.934 Y64.665 E.01224
G1 X124.202 Y64.279 E.01224
G1 X124.601 Y64.03 E.01225
G1 X125.069 Y63.96 E.01233
G1 X125.235 Y64.003 E.00447
M204 S1000
;WIPE_START
G1 F8640
G1 X125.293 Y64.018 E-.01383
G1 X125.52 Y64.077 E-.05416
G1 X125.892 Y64.365 E-.10863
G1 X126.12 Y64.776 E-.10853
G1 X126.168 Y65.125 E-.08134
G1 X126.12 Y65.474 E-.08134
G1 X125.892 Y65.885 E-.10853
G1 X125.52 Y66.173 E-.10863
G1 X125.066 Y66.291 E-.10831
G1 X124.601 Y66.22 E-.10861
G1 X124.202 Y65.971 E-.1086
G1 X124.179 Y65.937 E-.00949
;WIPE_END
G1 Z.7 F720
G1 X125.034 Y65.104 F10800
G1 Z.5 F720
G1 E1 F2100
;TYPE:Solid infill
;WIDTH:0.358602
G1 F2213
G1 X125.045 Y65.144 E.00084
G1 X124.976 Y65.162 E.00145
G1 X124.995 Y65.094 E.00144
;WIDTH:0.404301
G1 X124.81 Y65.111 E.00431
;WIDTH:0.449999
G1 X124.626 Y65.127 E.00481
G1 X124.688 Y64.903 E.00606
G1 X124.86 Y64.774 E.0056
G1 X125.058 Y64.765 E.00516
G1 X125.251 Y64.833 E.00533
G1 X125.332 Y64.928 E.00325
G1 X125.392 Y65.164 E.00634
G1 X125.296 Y65.371 E.00595
G1 X125.104 Y65.501 E.00604
G1 X124.876 Y65.482 E.00596
G1 X124.683 Y65.329 E.00642
M106 S63.75
;LAYER_CHANGE
;Z:0.6
;HEIGHT:0.1
;BEFORE_LAYER_CHANGE
G92 E0.0
;0.6


;WIPE_START
G1 F8640
G1 X124.876 Y65.482 E-.05687
G1 X125.104 Y65.501 E-.05283
G1 X125.296 Y65.371 E-.05354
G1 X125.392 Y65.164 E-.05269
G1 X125.332 Y64.928 E-.05623
G1 X125.251 Y64.833 E-.02883
G1 X125.058 Y64.765 E-.04725
G1 X124.86 Y64.774 E-.04577
G1 X124.688 Y64.903 E-.04964
G1 X124.626 Y65.127 E-.05367
G1 X124.81 Y65.111 E-.04265
G1 X124.995 Y65.094 E-.0429
G1 X124.976 Y65.162 E-.0163
G1 X125.045 Y65.144 E-.01647
G1 X125.034 Y65.104 E-.00958
;WIPE_END
G1 E-.37478 F2100
G1 Z.6 F720
;AFTER_LAYER_CHANGE
;0.6
G1 Z.8
G1 X122.682 Y148.56 F10800
G1 Z.6 F720
M73 P30 R6
G1 E1 F2100
;TYPE:Support material interface
;WIDTH:0.35
;HEIGHT:0.15
G1 F1430
G1 X122.682 Y149.038 E.00947
G1 X122.929 Y149.038 E.0049
G1 X122.929 Y142.085 E.1378
G1 X123.447 Y142.085 E.01027
G1 X123.447 Y149.038 E.1378
G1 X123.964 Y149.038 E.01025
G1 X123.964 Y142.085 E.1378
G1 X124.482 Y142.085 E.01027
G1 X124.482 Y149.038 E.1378
